; generated by Slic3r Prusa Edition 1.41.1+win64 on 2019-04-16 at 20:53:24

; 

; external perimeters extrusion width = 0.45mm
; perimeters extrusion width = 0.45mm
; infill extrusion width = 0.45mm
; solid infill extrusion width = 0.45mm
; top infill extrusion width = 0.40mm
; support material extrusion width = 0.35mm
; first layer extrusion width = 0.42mm

M73 P0 R195
M73 Q0 S195
M201 X1000 Y1000 Z1000 E5000 ; sets maximum accelerations, mm/sec^2
M203 X200 Y200 Z12 E120 ; sets maximum feedrates, mm/sec
M204 P1250 R1250 T1250 ; sets acceleration (P, T) and retract acceleration (R), mm/sec^2
M205 X8.00 Y8.00 Z0.40 E1.50 ; sets the jerk limits, mm/sec
M205 S0 T0 ; sets the minimum extruding and travel feed rate, mm/sec
M107
M115 U3.6.0 ; tell printer latest fw version
M83  ; extruder relative mode
M104 S215 ; set extruder temp
M140 S60 ; set bed temp
M190 S60 ; wait for bed temp
M109 S215 ; wait for extruder temp
G28 W ; home all without mesh bed level
G80 ; mesh bed leveling
G1 Y-3.0 F1000.0 ; go outside print area
G92 E0.0
G1 X60.0 E9.0  F1000.0 ; intro line
M73 Q0 S195
M73 P0 R195
G1 X100.0 E12.5  F1000.0 ; intro line
G92 E0.0
M221 S95
M900 K30; Filament gcode
G21 ; set units to millimeters
G90 ; use absolute coordinates
M83 ; use relative distances for extrusion
;BEFORE_LAYER_CHANGE
G92 E0.0
;0.2


G1 E-0.80000 F2100.00000
G1 Z0.600 F10800.000
;AFTER_LAYER_CHANGE
;0.2
G1 X78.095 Y73.079
G1 Z0.200
G1 E0.80000 F2100.00000
M204 S1000
G1 F1200
G1 X78.855 Y72.831 E0.02507
G1 X122.492 Y67.535 E1.37824
G1 X137.052 Y67.354 E0.45654
G1 X174.828 Y67.525 E1.18447
G1 X175.382 Y67.615 E0.01760
G1 X175.895 Y67.843 E0.01760
G1 X176.330 Y68.191 E0.01749
G1 X176.665 Y68.642 E0.01760
G1 X176.872 Y69.152 E0.01726
G1 X176.945 Y69.701 E0.01737
G1 X176.945 Y136.092 E2.08165
G1 X176.810 Y136.840 E0.02383
G1 X176.426 Y137.500 E0.02394
G1 X175.735 Y138.043 E0.02754
G1 X174.886 Y138.270 E0.02754
G1 X123.692 Y140.591 E1.60682
G1 X76.852 Y140.422 E1.46863
G1 X76.112 Y140.282 E0.02360
G1 X75.467 Y139.902 E0.02349
G1 X74.929 Y139.221 E0.02721
G1 X74.699 Y138.385 E0.02721
G1 X74.695 Y128.774 E0.30133
G1 X76.959 Y74.890 E1.69099
G1 X77.109 Y74.196 E0.02225
G1 X77.475 Y73.585 E0.02236
G1 X78.049 Y73.117 E0.02319
; PURGING FINISHED
G1 F8640
G1 X78.855 Y72.831 E-0.19761
G1 X81.273 Y72.537 E-0.56239
G1 E-0.04000 F2100.00000
G1 Z0.800 F10800.000
G1 X88.194 Y83.449
G1 Z0.200
G1 E0.80000 F2100.00000
G1 F1200
G1 X88.194 Y126.644 E1.35436
G1 X88.949 Y126.644 E0.02365
G1 X88.949 Y83.619 E1.34904
G1 X89.703 Y83.619 E0.02365
G1 X89.703 Y126.644 E1.34904
G1 X90.457 Y126.644 E0.02365
G1 X90.457 Y83.619 E1.34904
G1 X91.211 Y83.619 E0.02365
G1 X91.211 Y126.814 E1.35436
G1 F8640
G1 X91.211 Y123.523 E-0.76000
G1 E-0.04000 F2100.00000
G1 Z0.800 F10800.000
G1 X76.882 Y128.840
G1 Z0.200
G1 E0.80000 F2100.00000
G1 F1200
G1 X76.882 Y138.233 E0.29452
G1 X77.636 Y138.233 E0.02365
G1 X77.636 Y129.834 E0.26335
G1 X78.390 Y130.588 E0.03344
G1 X78.390 Y138.233 E0.23971
G1 X79.145 Y138.233 E0.02365
G1 X79.145 Y135.414 E0.08841
G1 X79.899 Y135.414 E0.02365
G1 X79.899 Y138.233 E0.08841
G1 X80.653 Y138.233 E0.02365
G1 X80.653 Y135.414 E0.08841
G1 X81.407 Y135.414 E0.02365
G1 X81.407 Y138.233 E0.08841
G1 X82.161 Y138.233 E0.02365
G1 X82.161 Y129.975 E0.25894
G1 X82.915 Y129.975 E0.02365
G1 X82.915 Y138.233 E0.25894
G1 X83.670 Y138.233 E0.02365
G1 X83.670 Y129.975 E0.25894
G1 X84.424 Y129.975 E0.02365
G1 X84.424 Y138.233 E0.25894
G1 X85.178 Y138.233 E0.02365
G1 X85.178 Y129.975 E0.25894
G1 X85.932 Y129.975 E0.02365
G1 X85.932 Y138.233 E0.25894
G1 X86.686 Y138.233 E0.02365
G1 X86.686 Y129.975 E0.25894
G1 X87.440 Y129.975 E0.02365
G1 X87.440 Y138.233 E0.25894
G1 X88.194 Y138.233 E0.02365
G1 X88.194 Y129.975 E0.25894
G1 X88.949 Y129.975 E0.02365
G1 X88.949 Y138.233 E0.25894
G1 X89.703 Y138.233 E0.02365
G1 X89.703 Y129.975 E0.25894
G1 X90.457 Y129.975 E0.02365
G1 X90.457 Y138.233 E0.25894
G1 X91.211 Y138.233 E0.02365
G1 X91.211 Y129.975 E0.25894
G1 X91.965 Y129.975 E0.02365
G1 X91.965 Y138.233 E0.25894
G1 X92.719 Y138.233 E0.02365
G1 X92.719 Y129.975 E0.25894
G1 X93.474 Y129.975 E0.02365
G1 X93.474 Y138.233 E0.25894
G1 X94.228 Y138.233 E0.02365
G1 X94.228 Y129.975 E0.25894
G1 X94.982 Y129.975 E0.02365
G1 X94.982 Y138.233 E0.25894
G1 X95.736 Y138.233 E0.02365
G1 X95.736 Y129.975 E0.25894
G1 X96.490 Y129.975 E0.02365
G1 X96.490 Y138.233 E0.25894
G1 X97.244 Y138.233 E0.02365
G1 X97.244 Y129.975 E0.25894
G1 X97.999 Y129.975 E0.02365
G1 X97.999 Y138.233 E0.25894
G1 X98.753 Y138.233 E0.02365
G1 X98.753 Y129.975 E0.25894
G1 X99.507 Y129.975 E0.02365
G1 X99.507 Y138.233 E0.25894
G1 X100.261 Y138.233 E0.02365
G1 X100.261 Y129.975 E0.25894
G1 X101.015 Y129.975 E0.02365
G1 X101.015 Y138.233 E0.25894
G1 X101.769 Y138.233 E0.02365
G1 X101.769 Y129.975 E0.25894
G1 X102.524 Y129.975 E0.02365
G1 X102.524 Y138.233 E0.25894
G1 X103.278 Y138.233 E0.02365
G1 X103.278 Y129.975 E0.25894
G1 X104.032 Y129.975 E0.02365
G1 X104.032 Y138.233 E0.25894
G1 X104.786 Y138.233 E0.02365
G1 X104.786 Y129.975 E0.25894
G1 X105.540 Y129.975 E0.02365
G1 X105.540 Y138.233 E0.25894
G1 X106.294 Y138.233 E0.02365
G1 X106.294 Y129.975 E0.25894
G1 X107.048 Y129.975 E0.02365
G1 X107.048 Y138.233 E0.25894
G1 X107.803 Y138.233 E0.02365
G1 X107.803 Y129.975 E0.25894
G1 X108.557 Y129.975 E0.02365
G1 X108.557 Y138.233 E0.25894
G1 X109.311 Y138.233 E0.02365
G1 X109.311 Y129.975 E0.25894
G1 X110.065 Y129.975 E0.02365
G1 X110.065 Y138.233 E0.25894
G1 X110.819 Y138.233 E0.02365
G1 X110.819 Y129.975 E0.25894
G1 X111.573 Y129.975 E0.02365
G1 X111.573 Y138.233 E0.25894
G1 X112.328 Y138.233 E0.02365
G1 X112.328 Y129.975 E0.25894
G1 X113.082 Y129.975 E0.02365
G1 X113.082 Y138.233 E0.25894
G1 X113.836 Y138.233 E0.02365
G1 X113.836 Y129.975 E0.25894
G1 X114.590 Y129.975 E0.02365
G1 X114.590 Y138.233 E0.25894
G1 X115.344 Y138.233 E0.02365
G1 X115.344 Y129.975 E0.25894
G1 X116.098 Y129.975 E0.02365
G1 X116.098 Y138.233 E0.25894
G1 X116.853 Y138.233 E0.02365
G1 X116.853 Y129.975 E0.25894
G1 X117.607 Y129.975 E0.02365
G1 X117.607 Y138.233 E0.25894
G1 X118.361 Y138.233 E0.02365
G1 X118.361 Y129.975 E0.25894
G1 X119.115 Y129.975 E0.02365
G1 X119.115 Y138.233 E0.25894
G1 X119.869 Y138.233 E0.02365
G1 X119.869 Y135.414 E0.08841
G1 X120.623 Y135.414 E0.02365
G1 X120.623 Y138.233 E0.08841
G1 X121.377 Y138.233 E0.02365
G1 X121.377 Y135.414 E0.08841
G1 X122.132 Y135.414 E0.02365
G1 X122.132 Y138.233 E0.08841
G1 X122.886 Y138.233 E0.02365
G1 X122.886 Y132.414 E0.18247
G1 X123.640 Y132.414 E0.02365
G1 X123.640 Y138.403 E0.18779
G1 F8640
G1 X123.640 Y135.112 E-0.76000
G1 E-0.04000 F2100.00000
G1 Z0.800 F10800.000
G1 X113.836 Y126.814
G1 Z0.200
G1 E0.80000 F2100.00000
G1 F1200
G1 X113.836 Y83.619 E1.35436
M73 Q0 S194
M73 P0 R194
G1 X113.082 Y83.619 E0.02365
G1 X113.082 Y126.644 E1.34904
G1 X112.328 Y126.644 E0.02365
G1 X112.328 Y83.619 E1.34904
G1 X111.573 Y83.619 E0.02365
G1 X111.573 Y126.644 E1.34904
G1 X110.819 Y126.644 E0.02365
G1 X110.819 Y83.619 E1.34904
G1 X110.065 Y83.619 E0.02365
G1 X110.065 Y126.814 E1.35436
G1 F8640
G1 X110.065 Y123.523 E-0.76000
G1 E-0.04000 F2100.00000
G1 Z0.800 F10800.000
G1 X80.697 Y134.413
G1 Z0.200
G1 E0.80000 F2100.00000
G1 F1200
G1 X79.732 Y134.413 E0.03027
G1 X79.732 Y75.587 E1.84444
G1 X80.697 Y75.587 E0.03027
G1 X80.697 Y134.353 E1.84256
G1 F8640
G1 X79.732 Y134.413 E-0.22331
G1 X79.732 Y132.089 E-0.53669
G1 E-0.04000 F2100.00000
G1 Z0.800 F10800.000
G1 X120.446 Y134.353
G1 Z0.200
G1 E0.80000 F2100.00000
G1 F1200
G1 X120.446 Y75.587 E1.84256
G1 X121.411 Y75.587 E0.03027
G1 X121.411 Y134.413 E1.84444
G1 X120.446 Y134.413 E0.03027
G1 F8640
G1 X120.446 Y131.121 E-0.76000
G1 E-0.04000 F2100.00000
G1 Z0.800 F10800.000
G1 X120.069 Y75.860
G1 Z0.200
G1 E0.80000 F2100.00000
G1 F1200
G1 X81.074 Y75.860 E1.22266
G1 X81.074 Y134.790 E1.84772
G1 X79.355 Y134.790 E0.05391
G1 X79.355 Y75.210 E1.86809
G1 X121.788 Y75.210 E1.33048
G1 X121.788 Y134.790 E1.86809
G1 X120.069 Y134.790 E0.05391
G1 X120.069 Y75.920 E1.84584
G1 X120.065 Y75.460 F10800.000
G1 X120.257 Y75.535
G1 F1200
G1 X80.885 Y75.535 E0.89257
G1 X80.584 Y76.465 F10800.000
G1 F1200
G1 X80.014 Y75.896 E0.02534
G1 X80.014 Y76.431 E0.01685
G1 X80.414 Y76.831 E0.01779
G1 X80.414 Y77.366 E0.01685
G1 X80.014 Y76.967 E0.01779
G1 X80.014 Y77.502 E0.01685
G1 X80.414 Y77.902 E0.01779
G1 X80.414 Y78.437 E0.01685
G1 X80.014 Y78.037 E0.01779
G1 X80.014 Y78.572 E0.01685
G1 X80.414 Y78.972 E0.01779
G1 X80.414 Y79.507 E0.01685
G1 X80.014 Y79.108 E0.01779
G1 X80.014 Y79.643 E0.01685
G1 X80.414 Y80.043 E0.01779
G1 X80.414 Y80.578 E0.01685
G1 X80.014 Y80.178 E0.01779
G1 X80.014 Y80.713 E0.01685
G1 X80.414 Y81.113 E0.01779
G1 X80.414 Y81.648 E0.01685
G1 X80.014 Y81.249 E0.01779
G1 X80.014 Y81.784 E0.01685
G1 X80.414 Y82.184 E0.01779
G1 X80.414 Y82.719 E0.01685
G1 X80.014 Y82.319 E0.01779
G1 X80.014 Y82.854 E0.01685
G1 X80.414 Y83.254 E0.01779
G1 X80.414 Y83.789 E0.01685
G1 X80.014 Y83.390 E0.01779
G1 X80.014 Y83.925 E0.01685
G1 X80.414 Y84.325 E0.01779
G1 X80.414 Y84.860 E0.01685
G1 X80.014 Y84.460 E0.01779
G1 X80.014 Y84.995 E0.01685
G1 X80.414 Y85.395 E0.01779
G1 X80.414 Y85.930 E0.01685
G1 X80.014 Y85.531 E0.01779
G1 X80.014 Y86.066 E0.01685
G1 X80.414 Y86.466 E0.01779
G1 X80.414 Y87.001 E0.01685
G1 X80.014 Y86.601 E0.01779
G1 X80.014 Y87.137 E0.01685
G1 X80.414 Y87.536 E0.01779
G1 X80.414 Y88.072 E0.01685
G1 X80.014 Y87.672 E0.01779
G1 X80.014 Y88.207 E0.01685
G1 X80.414 Y88.607 E0.01779
G1 X80.414 Y89.142 E0.01685
G1 X80.014 Y88.742 E0.01779
G1 X80.014 Y89.278 E0.01685
G1 X80.414 Y89.677 E0.01779
G1 X80.414 Y90.213 E0.01685
G1 X80.014 Y89.813 E0.01779
G1 X80.014 Y90.348 E0.01685
G1 X80.414 Y90.748 E0.01779
G1 X80.414 Y91.283 E0.01685
G1 X80.014 Y90.883 E0.01779
G1 X80.014 Y91.419 E0.01685
G1 X80.414 Y91.818 E0.01779
G1 X80.414 Y92.354 E0.01685
G1 X80.014 Y91.954 E0.01779
G1 X80.014 Y92.489 E0.01685
G1 X80.414 Y92.889 E0.01779
G1 X80.414 Y93.424 E0.01685
G1 X80.014 Y93.024 E0.01779
G1 X80.014 Y93.560 E0.01685
G1 X80.414 Y93.959 E0.01779
G1 X80.414 Y94.495 E0.01685
G1 X80.014 Y94.095 E0.01779
G1 X80.014 Y94.630 E0.01685
G1 X80.414 Y95.030 E0.01779
G1 X80.414 Y95.565 E0.01685
G1 X80.014 Y95.165 E0.01779
G1 X80.014 Y95.701 E0.01685
G1 X80.414 Y96.100 E0.01779
G1 X80.414 Y96.636 E0.01685
G1 X80.014 Y96.236 E0.01779
G1 X80.014 Y96.771 E0.01685
G1 X80.414 Y97.171 E0.01779
G1 X80.414 Y97.706 E0.01685
G1 X80.014 Y97.307 E0.01779
G1 X80.014 Y97.842 E0.01685
G1 X80.414 Y98.241 E0.01779
G1 X80.414 Y98.777 E0.01685
G1 X80.014 Y98.377 E0.01779
G1 X80.014 Y98.912 E0.01685
G1 X80.414 Y99.312 E0.01779
G1 X80.414 Y99.847 E0.01685
G1 X80.014 Y99.448 E0.01779
G1 X80.014 Y99.983 E0.01685
G1 X80.414 Y100.383 E0.01779
G1 X80.414 Y100.918 E0.01685
G1 X80.014 Y100.518 E0.01779
G1 X80.014 Y101.053 E0.01685
G1 X80.414 Y101.453 E0.01779
G1 X80.414 Y101.988 E0.01685
G1 X80.014 Y101.589 E0.01779
G1 X80.014 Y102.124 E0.01685
G1 X80.414 Y102.524 E0.01779
G1 X80.414 Y103.059 E0.01685
G1 X80.014 Y102.659 E0.01779
G1 X80.014 Y103.194 E0.01685
G1 X80.414 Y103.594 E0.01779
G1 X80.414 Y104.129 E0.01685
G1 X80.014 Y103.730 E0.01779
G1 X80.014 Y104.265 E0.01685
G1 X80.414 Y104.665 E0.01779
G1 X80.414 Y105.200 E0.01685
G1 X80.014 Y104.800 E0.01779
G1 X80.014 Y105.335 E0.01685
G1 X80.414 Y105.735 E0.01779
G1 X80.414 Y106.270 E0.01685
G1 X80.014 Y105.871 E0.01779
G1 X80.014 Y106.406 E0.01685
G1 X80.414 Y106.806 E0.01779
G1 X80.414 Y107.341 E0.01685
G1 X80.014 Y106.941 E0.01779
G1 X80.014 Y107.476 E0.01685
G1 X80.414 Y107.876 E0.01779
G1 X80.414 Y108.411 E0.01685
G1 X80.014 Y108.012 E0.01779
G1 X80.014 Y108.547 E0.01685
G1 X80.414 Y108.947 E0.01779
G1 X80.414 Y109.482 E0.01685
G1 X80.014 Y109.082 E0.01779
G1 X80.014 Y109.618 E0.01685
G1 X80.414 Y110.017 E0.01779
G1 X80.414 Y110.552 E0.01685
G1 X80.014 Y110.153 E0.01779
G1 X80.014 Y110.688 E0.01685
G1 X80.414 Y111.088 E0.01779
G1 X80.414 Y111.623 E0.01685
G1 X80.014 Y111.223 E0.01779
G1 X80.014 Y111.759 E0.01685
G1 X80.414 Y112.158 E0.01779
G1 X80.414 Y112.694 E0.01685
G1 X80.014 Y112.294 E0.01779
G1 X80.014 Y112.829 E0.01685
G1 X80.414 Y113.229 E0.01779
G1 X80.414 Y113.764 E0.01685
G1 X80.014 Y113.364 E0.01779
G1 X80.014 Y113.900 E0.01685
G1 X80.414 Y114.299 E0.01779
G1 X80.414 Y114.835 E0.01685
G1 X80.014 Y114.435 E0.01779
G1 X80.014 Y114.970 E0.01685
G1 X80.414 Y115.370 E0.01779
G1 X80.414 Y115.905 E0.01685
G1 X80.014 Y115.505 E0.01779
G1 X80.014 Y116.041 E0.01685
G1 X80.414 Y116.440 E0.01779
G1 X80.414 Y116.976 E0.01685
G1 X80.014 Y116.576 E0.01779
G1 X80.014 Y117.111 E0.01685
G1 X80.414 Y117.511 E0.01779
G1 X80.414 Y118.046 E0.01685
G1 X80.014 Y117.646 E0.01779
G1 X80.014 Y118.182 E0.01685
G1 X80.414 Y118.581 E0.01779
G1 X80.414 Y119.117 E0.01685
G1 X80.014 Y118.717 E0.01779
G1 X80.014 Y119.252 E0.01685
G1 X80.414 Y119.652 E0.01779
G1 X80.414 Y120.187 E0.01685
G1 X80.014 Y119.787 E0.01779
G1 X80.014 Y120.323 E0.01685
G1 X80.414 Y120.722 E0.01779
G1 X80.414 Y121.258 E0.01685
G1 X80.014 Y120.858 E0.01779
G1 X80.014 Y121.393 E0.01685
G1 X80.414 Y121.793 E0.01779
G1 X80.414 Y122.328 E0.01685
G1 X80.014 Y121.929 E0.01779
G1 X80.014 Y122.464 E0.01685
G1 X80.414 Y122.863 E0.01779
G1 X80.414 Y123.399 E0.01685
G1 X80.014 Y122.999 E0.01779
G1 X80.014 Y123.534 E0.01685
G1 X80.414 Y123.934 E0.01779
G1 X80.414 Y124.469 E0.01685
G1 X80.014 Y124.070 E0.01779
G1 X80.014 Y124.605 E0.01685
G1 X80.414 Y125.005 E0.01779
G1 X80.414 Y125.540 E0.01685
G1 X80.014 Y125.140 E0.01779
G1 X80.014 Y125.675 E0.01685
G1 X80.414 Y126.075 E0.01779
G1 X80.414 Y126.610 E0.01685
G1 X80.014 Y126.211 E0.01779
G1 X80.014 Y126.746 E0.01685
G1 X80.414 Y127.146 E0.01779
G1 X80.414 Y127.681 E0.01685
G1 X80.014 Y127.281 E0.01779
G1 X80.014 Y127.816 E0.01685
G1 X80.414 Y128.216 E0.01779
G1 X80.414 Y128.751 E0.01685
G1 X80.014 Y128.352 E0.01779
G1 X80.014 Y128.887 E0.01685
G1 X80.414 Y129.287 E0.01779
G1 X80.414 Y129.822 E0.01685
G1 X80.014 Y129.422 E0.01779
G1 X80.014 Y129.957 E0.01685
G1 X80.414 Y130.357 E0.01779
G1 X80.414 Y130.892 E0.01685
G1 X80.014 Y130.493 E0.01779
G1 X80.014 Y131.028 E0.01685
G1 X80.414 Y131.428 E0.01779
G1 X80.414 Y131.963 E0.01685
G1 X80.014 Y131.563 E0.01779
G1 X80.014 Y132.099 E0.01685
G1 X80.414 Y132.498 E0.01779
G1 X80.414 Y133.033 E0.01685
G1 X80.014 Y132.634 E0.01779
G1 X80.014 Y133.169 E0.01685
G1 X80.414 Y133.569 E0.01779
G1 X80.414 Y134.104 E0.01685
G1 X79.845 Y133.535 E0.02534
G1 F8640
G1 X80.414 Y134.104 E-0.18593
G1 X80.414 Y133.569 E-0.12359
G1 X80.014 Y133.169 E-0.13052
G1 X80.014 Y132.634 E-0.12359
G1 X80.414 Y133.033 E-0.13052
G1 X80.414 Y132.748 E-0.06584
G1 E-0.04000 F2100.00000
G1 Z0.800 F10800.000
G1 X120.559 Y133.535
G1 Z0.200
G1 E0.80000 F2100.00000
G1 F1200
G1 X121.128 Y134.104 E0.02534
G1 X121.128 Y133.569 E0.01685
G1 X120.729 Y133.169 E0.01779
G1 X120.729 Y132.634 E0.01685
G1 X121.128 Y133.033 E0.01779
G1 X121.128 Y132.498 E0.01685
G1 X120.729 Y132.099 E0.01779
G1 X120.729 Y131.563 E0.01685
G1 X121.128 Y131.963 E0.01779
G1 X121.128 Y131.428 E0.01685
G1 X120.729 Y131.028 E0.01779
G1 X120.729 Y130.493 E0.01685
G1 X121.128 Y130.892 E0.01779
G1 X121.128 Y130.357 E0.01685
G1 X120.729 Y129.957 E0.01779
G1 X120.729 Y129.422 E0.01685
G1 X121.128 Y129.822 E0.01779
G1 X121.128 Y129.287 E0.01685
G1 X120.729 Y128.887 E0.01779
G1 X120.729 Y128.352 E0.01685
G1 X121.128 Y128.751 E0.01779
G1 X121.128 Y128.216 E0.01685
G1 X120.729 Y127.816 E0.01779
G1 X120.729 Y127.281 E0.01685
G1 X121.128 Y127.681 E0.01779
G1 X121.128 Y127.146 E0.01685
G1 X120.729 Y126.746 E0.01779
G1 X120.729 Y126.211 E0.01685
G1 X121.128 Y126.610 E0.01779
G1 X121.128 Y126.075 E0.01685
G1 X120.729 Y125.675 E0.01779
G1 X120.729 Y125.140 E0.01685
G1 X121.128 Y125.540 E0.01779
G1 X121.128 Y125.005 E0.01685
G1 X120.729 Y124.605 E0.01779
G1 X120.729 Y124.070 E0.01685
G1 X121.128 Y124.469 E0.01779
G1 X121.128 Y123.934 E0.01685
G1 X120.729 Y123.534 E0.01779
G1 X120.729 Y122.999 E0.01685
G1 X121.128 Y123.399 E0.01779
G1 X121.128 Y122.863 E0.01685
G1 X120.729 Y122.464 E0.01779
G1 X120.729 Y121.929 E0.01685
G1 X121.128 Y122.328 E0.01779
G1 X121.128 Y121.793 E0.01685
G1 X120.729 Y121.393 E0.01779
