; generated by Slic3r Prusa Edition 1.41.1+win64 on 2019-04-13 at 22:36:13

; 

; external perimeters extrusion width = 0.45mm
; perimeters extrusion width = 0.45mm
; infill extrusion width = 0.45mm
; solid infill extrusion width = 0.45mm
; top infill extrusion width = 0.40mm
; first layer extrusion width = 0.42mm

M73 P0 R69
M73 Q0 S68
M201 X1000 Y1000 Z1000 E5000 ; sets maximum accelerations, mm/sec^2
M203 X200 Y200 Z12 E120 ; sets maximum feedrates, mm/sec
M204 P1250 R1250 T1250 ; sets acceleration (P, T) and retract acceleration (R), mm/sec^2
M205 X8.00 Y8.00 Z0.40 E1.50 ; sets the jerk limits, mm/sec
M205 S0 T0 ; sets the minimum extruding and travel feed rate, mm/sec
M107
M115 U3.6.0 ; tell printer latest fw version
M83  ; extruder relative mode
M104 S215 ; set extruder temp
M140 S60 ; set bed temp
M190 S60 ; wait for bed temp
M109 S215 ; wait for extruder temp
G28 W ; home all without mesh bed level
G80 ; mesh bed leveling
G1 Y-3.0 F1000.0 ; go outside print area
G92 E0.0
G1 X60.0 E9.0  F1000.0 ; intro line
M73 Q0 S68
M73 P0 R69
G1 X100.0 E12.5  F1000.0 ; intro line
G92 E0.0
M221 S95
M900 K30; Filament gcode
G21 ; set units to millimeters
G90 ; use absolute coordinates
M83 ; use relative distances for extrusion
;BEFORE_LAYER_CHANGE
G92 E0.0
;0.2


G1 E-0.80000 F2100.00000
G1 Z0.600 F10800.000
;AFTER_LAYER_CHANGE
;0.2
G1 X98.259 Y64.852
G1 Z0.200
G1 E0.80000 F2100.00000
M204 S1000
G1 F1200
G1 X98.868 Y64.073 E0.03100
G1 X99.570 Y63.371 E0.03112
G1 X100.351 Y62.759 E0.03112
G1 X101.194 Y62.250 E0.03089
G1 X102.103 Y61.841 E0.03123
G1 X103.051 Y61.547 E0.03112
G1 X104.074 Y61.365 E0.03260
G1 X104.996 Y61.311 E0.02894
G1 X145.004 Y61.311 E1.25441
G1 X146.476 Y61.446 E0.04635
G1 X147.910 Y61.846 E0.04670
G1 X149.245 Y62.498 E0.04658
G1 X150.473 Y63.410 E0.04795
G1 X151.457 Y64.464 E0.04522
G1 X152.280 Y65.754 E0.04797
G1 X152.656 Y66.596 E0.02892
G1 X152.934 Y67.476 E0.02894
G1 X153.169 Y68.947 E0.04670
G1 X153.188 Y140.526 E2.24430
G1 X153.129 Y141.489 E0.03025
G1 X152.952 Y142.456 E0.03083
G1 X152.661 Y143.391 E0.03072
G1 X152.269 Y144.269 E0.03015
G1 X151.746 Y145.141 E0.03186
G1 X151.121 Y145.939 E0.03181
G1 X150.418 Y146.640 E0.03111
G1 X149.589 Y147.281 E0.03287
G1 X148.732 Y147.788 E0.03121
G1 X147.521 Y148.290 E0.04109
G1 X146.500 Y148.550 E0.03304
G1 X145.518 Y148.672 E0.03102
G1 X104.924 Y148.688 E1.27280
G1 X103.999 Y148.627 E0.02907
G1 X103.035 Y148.449 E0.03075
G1 X102.106 Y148.160 E0.03049
G1 X101.238 Y147.773 E0.02982
G1 X100.358 Y147.246 E0.03214
G1 X99.571 Y146.630 E0.03133
G1 X98.858 Y145.915 E0.03166
G1 X98.221 Y145.092 E0.03265
G1 X97.571 Y143.941 E0.04144
G1 X97.201 Y142.993 E0.03190
G1 X96.946 Y141.977 E0.03285
G1 X96.825 Y140.964 E0.03198
G1 X96.812 Y69.474 E2.24151
G1 X96.872 Y68.510 E0.03031
G1 X97.049 Y67.541 E0.03089
G1 X97.342 Y66.600 E0.03089
G1 X97.734 Y65.724 E0.03009
G1 X98.228 Y64.903 E0.03004
; PURGING FINISHED
G1 F8640
G1 X98.868 Y64.073 E-0.24207
G1 X99.570 Y63.371 E-0.22916
G1 X100.351 Y62.759 E-0.22918
G1 X100.572 Y62.626 E-0.05959
G1 E-0.04000 F2100.00000
G1 Z0.800 F10800.000
G1 X100.213 Y82.462
G1 Z0.200
G1 E0.80000 F2100.00000
G1 F1200
G1 X100.940 Y82.462 E0.02281
G1 X101.025 Y82.414 E0.00304
G1 X101.263 Y82.384 E0.00752
G1 X114.002 Y82.382 E0.39942
G1 X114.002 Y77.502 E0.15302
G1 X135.998 Y77.502 E0.68969
G1 X135.998 Y82.382 E0.15302
G1 X148.738 Y82.384 E0.39943
G1 X148.976 Y82.414 E0.00752
G1 X149.060 Y82.462 E0.00304
G1 X149.788 Y82.462 E0.02281
G1 X149.788 Y85.366 E0.09107
G1 X149.060 Y85.366 E0.02281
G1 X148.976 Y85.414 E0.00304
G1 X148.738 Y85.444 E0.00752
G1 X146.698 Y85.446 E0.06395
G1 X146.696 Y122.328 E1.15639
G1 X146.649 Y123.104 E0.02439
G1 X146.560 Y123.818 E0.02256
G1 X146.466 Y124.321 E0.01604
G1 X146.274 Y125.075 E0.02441
G1 X146.053 Y125.760 E0.02256
G1 X145.662 Y126.695 E0.03179
G1 X145.300 Y127.384 E0.02441
G1 X144.926 Y127.999 E0.02256
G1 X144.636 Y128.415 E0.01589
G1 X144.327 Y128.817 E0.01591
G1 X143.815 Y129.403 E0.02441
G1 X143.308 Y129.914 E0.02256
G1 X142.535 Y130.571 E0.03179
G1 X141.901 Y131.021 E0.02441
G1 X141.289 Y131.400 E0.02256
G1 X140.837 Y131.643 E0.01610
G1 X139.933 Y132.050 E0.03107
G1 X139.450 Y132.227 E0.01613
G1 X138.704 Y132.449 E0.02441
G1 X138.002 Y132.610 E0.02256
G1 X137.496 Y132.694 E0.01610
G1 X136.503 Y132.787 E0.03128
G1 X113.986 Y132.799 E0.70598
G1 X113.003 Y132.752 E0.03086
G1 X111.998 Y132.610 E0.03185
G1 X111.296 Y132.449 E0.02256
G1 X110.550 Y132.227 E0.02441
G1 X110.070 Y132.051 E0.01604
G1 X109.411 Y131.762 E0.02256
G1 X108.719 Y131.405 E0.02441
G1 X108.280 Y131.142 E0.01604
G1 X107.687 Y130.735 E0.02256
G1 X107.074 Y130.255 E0.02441
G1 X106.692 Y129.914 E0.01604
G1 X106.185 Y129.403 E0.02256
G1 X105.673 Y128.817 E0.02441
G1 X105.361 Y128.412 E0.01604
G1 X104.959 Y127.815 E0.02256
G1 X104.565 Y127.144 E0.02441
G1 X104.333 Y126.684 E0.01613
G1 X103.948 Y125.764 E0.03129
G1 X103.648 Y124.805 E0.03150
G1 X103.442 Y123.829 E0.03129
G1 X103.371 Y123.318 E0.01616
G1 X103.301 Y122.330 E0.03105
G1 X103.302 Y85.446 E1.15648
G1 X101.263 Y85.444 E0.06393
G1 X101.025 Y85.414 E0.00752
G1 X100.940 Y85.366 E0.00304
G1 X100.213 Y85.366 E0.02281
G1 X100.213 Y82.522 E0.08919
G1 X100.590 Y82.839 F10800.000
G1 F1200
G1 X101.040 Y82.839 E0.01410
G1 X101.146 Y82.779 E0.00383
G1 X101.287 Y82.761 E0.00445
G1 X114.379 Y82.759 E0.41049
G1 X114.379 Y77.879 E0.15301
G1 X135.621 Y77.879 E0.66605
G1 X135.621 Y82.759 E0.15301
G1 X148.714 Y82.761 E0.41050
G1 X148.855 Y82.779 E0.00445
G1 X148.961 Y82.839 E0.00383
G1 X149.410 Y82.839 E0.01410
G1 X149.410 Y84.989 E0.06742
G1 X148.961 Y84.989 E0.01410
G1 X148.855 Y85.049 E0.00383
G1 X148.714 Y85.067 E0.00445
G1 X146.321 Y85.069 E0.07502
G1 X146.319 Y122.316 E1.16784
G1 X146.273 Y123.069 E0.02365
G1 X146.187 Y123.760 E0.02182
G1 X146.097 Y124.239 E0.01530
G1 X145.911 Y124.971 E0.02366
G1 X145.698 Y125.633 E0.02182
G1 X145.322 Y126.530 E0.03049
G1 X144.971 Y127.199 E0.02366
G1 X144.609 Y127.793 E0.02182
G1 X144.332 Y128.192 E0.01525
G1 X144.035 Y128.578 E0.01526
G1 X143.539 Y129.146 E0.02366
G1 X143.048 Y129.640 E0.02182
G1 X142.307 Y130.270 E0.03049
G1 X141.692 Y130.707 E0.02366
G1 X141.100 Y131.073 E0.02182
G1 X140.670 Y131.305 E0.01532
G1 X139.790 Y131.701 E0.03024
G1 X139.331 Y131.869 E0.01533
G1 X138.608 Y132.084 E0.02366
G1 X137.929 Y132.240 E0.02182
G1 X137.447 Y132.320 E0.01532
G1 X136.485 Y132.410 E0.03031
G1 X113.995 Y132.422 E0.70515
G1 X113.034 Y132.376 E0.03016
G1 X112.071 Y132.240 E0.03052
G1 X111.392 Y132.084 E0.02182
G1 X110.669 Y131.869 E0.02366
G1 X110.211 Y131.701 E0.01530
G1 X109.573 Y131.421 E0.02182
G1 X108.903 Y131.075 E0.02366
G1 X108.484 Y130.824 E0.01530
G1 X107.910 Y130.430 E0.02182
G1 X107.316 Y129.965 E0.02366
G1 X106.952 Y129.640 E0.01530
G1 X106.461 Y129.146 E0.02182
G1 X105.965 Y128.578 E0.02366
G1 X105.667 Y128.191 E0.01530
G1 X105.278 Y127.614 E0.02182
G1 X104.896 Y126.963 E0.02366
G1 X104.676 Y126.527 E0.01533
G1 X104.303 Y125.635 E0.03031
G1 X104.014 Y124.709 E0.03039
G1 X103.813 Y123.764 E0.03031
G1 X103.746 Y123.279 E0.01534
G1 X103.678 Y122.317 E0.03023
G1 X103.679 Y85.069 E1.16787
G1 X101.287 Y85.067 E0.07500
G1 X101.146 Y85.049 E0.00445
G1 X101.040 Y84.989 E0.00383
G1 X100.590 Y84.989 E0.01410
G1 X100.590 Y82.899 E0.06554
G1 X100.563 Y82.440 F10800.000
G1 F8640
G1 X101.040 Y82.839 E-0.10473
G1 X101.146 Y82.779 E-0.02817
G1 X101.287 Y82.761 E-0.03280
G1 X103.861 Y82.761 E-0.59431
G1 E-0.04000 F2100.00000
G1 Z0.800 F10800.000
G1 X109.001 Y65.380
G1 Z0.200
G1 E0.80000 F2100.00000
G1 F1200
G1 X140.998 Y65.380 E1.00327
G1 X140.998 Y71.568 E0.19403
G1 X140.967 Y72.080 E0.01610
G1 X140.887 Y72.574 E0.01566
G1 X140.691 Y73.225 E0.02132
G1 X140.401 Y73.845 E0.02146
G1 X140.030 Y74.407 E0.02112
G1 X139.801 Y74.683 E0.01125
G1 X139.425 Y75.059 E0.01666
G1 X138.887 Y75.473 E0.02130
G1 X138.290 Y75.808 E0.02146
G1 X137.651 Y76.052 E0.02146
G1 X136.983 Y76.200 E0.02146
G1 X136.321 Y76.248 E0.02079
G1 X113.682 Y76.248 E0.70985
G1 X113.170 Y76.217 E0.01610
G1 X112.676 Y76.137 E0.01566
G1 X112.025 Y75.941 E0.02132
G1 X111.405 Y75.651 E0.02146
G1 X110.843 Y75.280 E0.02112
G1 X110.567 Y75.051 E0.01125
G1 X110.191 Y74.675 E0.01666
G1 X109.783 Y74.146 E0.02097
G1 X109.597 Y73.839 E0.01125
G1 X109.382 Y73.400 E0.01534
G1 X109.201 Y72.907 E0.01645
G1 X109.110 Y72.559 E0.01128
G1 X109.013 Y71.893 E0.02110
G1 X109.001 Y65.440 E0.20232
G1 X109.378 Y65.757 F10800.000
G1 F1200
G1 X140.621 Y65.757 E0.97960
G1 X140.621 Y71.556 E0.18184
G1 X140.592 Y72.039 E0.01514
G1 X140.519 Y72.489 E0.01430
G1 X140.338 Y73.090 E0.01968
G1 X140.071 Y73.660 E0.01973
G1 X139.727 Y74.182 E0.01961
G1 X139.522 Y74.429 E0.01006
G1 X139.176 Y74.775 E0.01535
G1 X138.679 Y75.158 E0.01967
G1 X138.130 Y75.465 E0.01973
G1 X137.542 Y75.690 E0.01973
G1 X136.928 Y75.826 E0.01973
G1 X136.308 Y75.871 E0.01949
G1 X113.694 Y75.871 E0.70905
G1 X113.211 Y75.842 E0.01514
G1 X112.761 Y75.769 E0.01430
G1 X112.160 Y75.588 E0.01968
G1 X111.590 Y75.321 E0.01973
G1 X111.068 Y74.977 E0.01961
G1 X110.821 Y74.772 E0.01006
G1 X110.475 Y74.426 E0.01535
G1 X110.095 Y73.932 E0.01955
G1 X109.928 Y73.658 E0.01005
G1 X109.729 Y73.252 E0.01419
G1 X109.562 Y72.794 E0.01527
G1 X109.480 Y72.483 E0.01007
G1 X109.390 Y71.865 E0.01960
G1 X109.378 Y65.817 E0.18963
G1 X109.376 Y65.357 F10800.000
G1 F8640
G1 X112.670 Y65.811 E-0.76000
G1 E-0.04000 F2100.00000
G1 Z0.800 F10800.000
G1 X104.673 Y64.210
G1 Z0.200
G1 E0.80000 F2100.00000
G1 F1200
G1 X145.140 Y64.203 E1.26881
G1 X145.654 Y64.240 E0.01616
G1 X146.116 Y64.320 E0.01471
G1 X146.612 Y64.450 E0.01605
G1 X147.052 Y64.614 E0.01471
G1 X147.514 Y64.833 E0.01605
G1 X147.917 Y65.075 E0.01471
G1 X148.330 Y65.376 E0.01606
G1 X148.682 Y65.687 E0.01471
G1 X149.033 Y66.060 E0.01606
G1 X149.321 Y66.430 E0.01471
G1 X149.597 Y66.862 E0.01606
G1 X149.813 Y67.279 E0.01471
G1 X150.003 Y67.754 E0.01605
G1 X150.140 Y68.203 E0.01471
G1 X150.239 Y68.705 E0.01605
G1 X150.290 Y69.169 E0.01464
G1 X150.302 Y140.482 E2.23596
G1 X150.260 Y141.153 E0.02108
G1 X150.140 Y141.796 E0.02051
G1 X149.941 Y142.419 E0.02051
G1 X149.667 Y143.013 E0.02051
G1 X149.322 Y143.568 E0.02051
G1 X148.907 Y144.081 E0.02067
G1 X148.575 Y144.414 E0.01476
G1 X148.336 Y144.619 E0.00985
G1 X147.796 Y145.003 E0.02079
G1 X147.220 Y145.313 E0.02051
G1 X146.610 Y145.550 E0.02051
G1 X145.976 Y145.710 E0.02051
G1 X145.327 Y145.790 E0.02051
G1 X105.018 Y145.802 E1.26386
G1 X104.347 Y145.760 E0.02107
G1 X103.704 Y145.640 E0.02051
G1 X103.081 Y145.441 E0.02051
G1 X102.487 Y145.167 E0.02051
G1 X101.932 Y144.822 E0.02051
G1 X101.419 Y144.407 E0.02067
G1 X101.086 Y144.075 E0.01476
G1 X100.881 Y143.836 E0.00985
G1 X100.497 Y143.296 E0.02079
G1 X100.187 Y142.720 E0.02051
G1 X99.950 Y142.110 E0.02051
G1 X99.788 Y141.467 E0.02079
G1 X99.740 Y141.159 E0.00977
G1 X99.703 Y140.640 E0.01633
G1 X99.698 Y69.518 E2.22997
G1 X99.740 Y68.847 E0.02108
G1 X99.860 Y68.204 E0.02051
G1 X100.059 Y67.581 E0.02051
G1 X100.333 Y66.987 E0.02051
G1 X100.678 Y66.432 E0.02051
G1 X101.093 Y65.919 E0.02067
G1 X101.425 Y65.586 E0.01476
G1 X101.664 Y65.381 E0.00985
G1 X102.204 Y64.997 E0.02079
G1 X102.780 Y64.687 E0.02051
G1 X103.390 Y64.450 E0.02051
G1 X104.024 Y64.290 E0.02051
G1 X104.613 Y64.217 E0.01863
G1 X104.567 Y63.843 F10800.000
G1 F1200
G1 X145.153 Y63.826 E1.27255
M73 Q1 S67
M73 P1 R68
G1 X145.700 Y63.865 E0.01718
G1 X146.197 Y63.951 E0.01582
G1 X146.726 Y64.090 E0.01714
G1 X147.198 Y64.266 E0.01582
G1 X147.692 Y64.501 E0.01714
G1 X148.125 Y64.760 E0.01582
G1 X148.567 Y65.082 E0.01714
G1 X148.945 Y65.416 E0.01582
G1 X149.319 Y65.815 E0.01714
G1 X149.630 Y66.213 E0.01582
G1 X149.924 Y66.673 E0.01714
G1 X150.156 Y67.121 E0.01582
G1 X150.359 Y67.629 E0.01714
G1 X150.506 Y68.111 E0.01582
G1 X150.612 Y68.648 E0.01714
G1 X150.667 Y69.148 E0.01579
G1 X150.679 Y140.494 E2.23698
G1 X150.635 Y141.199 E0.02217
G1 X150.506 Y141.888 E0.02197
G1 X150.293 Y142.556 E0.02197
G1 X149.999 Y143.192 E0.02197
G1 X149.630 Y143.787 E0.02197
G1 X149.188 Y144.333 E0.02203
G1 X148.831 Y144.691 E0.01583
G1 X148.569 Y144.916 E0.01084
G1 X147.995 Y145.324 E0.02207
G1 X147.378 Y145.656 E0.02197
G1 X146.725 Y145.910 E0.02197
G1 X146.046 Y146.081 E0.02197
G1 X145.350 Y146.167 E0.02197
G1 X105.006 Y146.179 E1.26495
G1 X104.301 Y146.135 E0.02217
G1 X103.612 Y146.006 E0.02197
G1 X102.944 Y145.793 E0.02197
G1 X102.308 Y145.499 E0.02197
G1 X101.713 Y145.130 E0.02197
G1 X101.167 Y144.688 E0.02203
G1 X100.809 Y144.331 E0.01583
G1 X100.584 Y144.069 E0.01084
G1 X100.176 Y143.495 E0.02207
G1 X99.844 Y142.878 E0.02197
G1 X99.590 Y142.225 E0.02197
G1 X99.418 Y141.543 E0.02207
G1 X99.365 Y141.202 E0.01082
G1 X99.326 Y140.653 E0.01724
G1 X99.321 Y69.506 E2.23075
G1 X99.365 Y68.801 E0.02217
G1 X99.494 Y68.112 E0.02197
G1 X99.707 Y67.444 E0.02197
G1 X100.001 Y66.808 E0.02197
G1 X100.370 Y66.213 E0.02197
G1 X100.812 Y65.667 E0.02203
G1 X101.169 Y65.309 E0.01583
G1 X101.431 Y65.084 E0.01084
G1 X102.005 Y64.676 E0.02207
G1 X102.622 Y64.344 E0.02197
G1 X103.275 Y64.090 E0.02197
G1 X103.954 Y63.919 E0.02197
G1 X104.507 Y63.850 E0.01748
G1 X104.789 Y64.176 F10800.000
G1 F8640
G1 X107.799 Y63.848 E-0.76000
G1 E-0.04000 F2100.00000
G1 Z0.800 F10800.000
G1 X104.997 Y84.178
G1 Z0.200
G1 E0.80000 F2100.00000
G1 F1200
G1 X114.002 Y84.177 E0.28232
G1 X114.002 Y129.498 E1.42103
G1 X135.998 Y129.498 E0.68969
G1 X135.998 Y84.176 E1.42106
G1 X145.002 Y84.179 E0.28230
G1 X145.002 Y116.461 E1.01219
G1 X144.980 Y116.461 E0.00069
G1 X144.980 Y122.433 E0.18724
G1 X144.942 Y122.853 E0.01322
G1 X144.861 Y123.397 E0.01725
G1 X144.700 Y124.150 E0.02413
G1 X144.581 Y124.564 E0.01352
G1 X144.442 Y124.976 E0.01362
G1 X144.237 Y125.487 E0.01725
G1 X143.905 Y126.181 E0.02413
G1 X143.463 Y126.924 E0.02713
G1 X143.144 Y127.373 E0.01725
G1 X142.660 Y127.971 E0.02413
G1 X142.056 Y128.591 E0.02713
G1 X141.642 Y128.953 E0.01725
G1 X141.031 Y129.422 E0.02413
G1 X140.300 Y129.884 E0.02713
G1 X139.813 Y130.140 E0.01726
G1 X139.110 Y130.454 E0.02413
G1 X138.291 Y130.733 E0.02713
G1 X137.758 Y130.869 E0.01726
G1 X137.001 Y131.010 E0.02413
G1 X136.580 Y131.060 E0.01331
G1 X135.686 Y131.102 E0.02805
G1 X113.861 Y131.091 E0.68432
G1 X113.102 Y131.022 E0.02391
G1 X112.558 Y130.937 E0.01726
G1 X112.139 Y130.847 E0.01343
G1 X111.399 Y130.636 E0.02413
G1 X110.881 Y130.451 E0.01726
G1 X110.486 Y130.284 E0.01343
G1 X109.799 Y129.938 E0.02413
G1 X109.330 Y129.663 E0.01704
G1 X108.605 Y129.155 E0.02775
G1 X108.276 Y128.888 E0.01331
G1 X107.712 Y128.364 E0.02413
G1 X107.334 Y127.964 E0.01725
G1 X107.058 Y127.638 E0.01340
G1 X106.538 Y126.927 E0.02762
G1 X106.088 Y126.169 E0.02762
G1 X105.897 Y125.790 E0.01331
G1 X105.598 Y125.081 E0.02413
G1 X105.417 Y124.562 E0.01725
G1 X105.300 Y124.151 E0.01340
G1 X105.118 Y123.289 E0.02762
G1 X104.997 Y122.228 E0.03347
G1 X104.997 Y84.238 E1.19114
G1 F8640
G1 X108.289 Y84.216 E-0.76000
G1 E-0.04000 F2100.00000
G1 Z0.800 F10800.000
G1 X145.379 Y84.037
G1 Z0.200
G1 E0.80000 F2100.00000
G1 F1200
G1 X145.379 Y116.838 E1.02845
G1 X145.357 Y116.838 E0.00069
G1 X145.357 Y122.450 E0.17596
G1 X145.316 Y122.898 E0.01409
G1 X145.232 Y123.465 E0.01797
G1 X145.066 Y124.241 E0.02490
G1 X144.796 Y125.107 E0.02842
G1 X144.583 Y125.638 E0.01797
G1 X144.240 Y126.355 E0.02490
G1 X143.776 Y127.134 E0.02842
G1 X143.445 Y127.601 E0.01797
G1 X142.945 Y128.218 E0.02490
G1 X142.312 Y128.868 E0.02842
G1 X141.881 Y129.245 E0.01797
G1 X141.251 Y129.729 E0.02490
G1 X140.485 Y130.213 E0.02842
G1 X139.978 Y130.480 E0.01797
G1 X139.252 Y130.803 E0.02490
G1 X138.827 Y130.960 E0.01420
G1 X138.394 Y131.096 E0.01423
G1 X137.839 Y131.237 E0.01797
G1 X137.058 Y131.383 E0.02490
G1 X136.611 Y131.436 E0.01412
G1 X135.695 Y131.479 E0.02875
G1 X113.844 Y131.468 E0.68513
G1 X113.055 Y131.396 E0.02483
G1 X112.489 Y131.308 E0.01797
G1 X112.047 Y131.213 E0.01416
G1 X111.284 Y130.995 E0.02490
G1 X110.744 Y130.802 E0.01797
G1 X110.328 Y130.627 E0.01416
G1 X109.618 Y130.269 E0.02490
G1 X109.126 Y129.980 E0.01789
G1 X108.378 Y129.456 E0.02864
G1 X108.028 Y129.173 E0.01412
G1 X107.446 Y128.632 E0.02490
G1 X107.052 Y128.216 E0.01797
G1 X106.761 Y127.871 E0.01415
