; generated by Slic3r Prusa Edition 1.41.1+win64 on 2019-04-13 at 23:17:19

; 

; external perimeters extrusion width = 0.45mm
; perimeters extrusion width = 0.45mm
; infill extrusion width = 0.45mm
; solid infill extrusion width = 0.45mm
; top infill extrusion width = 0.40mm
; first layer extrusion width = 0.42mm

M73 P0 R28
M73 Q0 S29
M201 X1000 Y1000 Z1000 E5000 ; sets maximum accelerations, mm/sec^2
M203 X200 Y200 Z12 E120 ; sets maximum feedrates, mm/sec
M204 P1250 R1250 T1250 ; sets acceleration (P, T) and retract acceleration (R), mm/sec^2
M205 X8.00 Y8.00 Z0.40 E1.50 ; sets the jerk limits, mm/sec
M205 S0 T0 ; sets the minimum extruding and travel feed rate, mm/sec
M107
M115 U3.6.0 ; tell printer latest fw version
M83  ; extruder relative mode
M104 S215 ; set extruder temp
M140 S60 ; set bed temp
M190 S60 ; wait for bed temp
M109 S215 ; wait for extruder temp
G28 W ; home all without mesh bed level
G80 ; mesh bed leveling
G1 Y-3.0 F1000.0 ; go outside print area
G92 E0.0
G1 X60.0 E9.0  F1000.0 ; intro line
M73 Q0 S29
M73 P0 R28
G1 X100.0 E12.5  F1000.0 ; intro line
G92 E0.0
M221 S95
M900 K30; Filament gcode
G21 ; set units to millimeters
G90 ; use absolute coordinates
M83 ; use relative distances for extrusion
;BEFORE_LAYER_CHANGE
G92 E0.0
;0.2


G1 E-0.80000 F2100.00000
G1 Z0.600 F10800.000
;AFTER_LAYER_CHANGE
;0.2
G1 X106.470 Y69.431
G1 Z0.200
G1 E0.80000 F2100.00000
M204 S1000
G1 F1200
G1 X107.767 Y67.683 E0.06824
G1 X109.228 Y66.071 E0.06824
G1 X110.840 Y64.610 E0.06820
G1 X112.592 Y63.309 E0.06842
G1 X114.459 Y62.191 E0.06823
G1 X116.425 Y61.260 E0.06821
G1 X118.476 Y60.528 E0.06827
G1 X120.589 Y59.997 E0.06832
G1 X122.743 Y59.678 E0.06828
G1 X124.921 Y59.571 E0.06838
G1 X127.092 Y59.677 E0.06813
G1 X129.244 Y59.996 E0.06824
G1 X131.358 Y60.527 E0.06832
G1 X133.411 Y61.260 E0.06836
G1 X135.378 Y62.191 E0.06824
G1 X137.248 Y63.310 E0.06831
G1 X138.995 Y64.607 E0.06824
G1 X140.608 Y66.069 E0.06824
G1 X142.068 Y67.680 E0.06820
G1 X143.369 Y69.433 E0.06842
G1 X144.487 Y71.300 E0.06823
G1 X145.418 Y73.266 E0.06821
G1 X146.151 Y75.318 E0.06833
G1 X146.682 Y77.432 E0.06832
G1 X147.001 Y79.584 E0.06821
G1 X147.107 Y81.758 E0.06827
G1 X147.001 Y83.932 E0.06824
G1 X146.682 Y86.087 E0.06830
G1 X146.151 Y88.201 E0.06832
G1 X145.418 Y90.252 E0.06830
G1 X144.487 Y92.219 E0.06823
G1 X143.368 Y94.088 E0.06831
G1 X142.071 Y95.836 E0.06824
G1 X140.609 Y97.448 E0.06824
G1 X138.997 Y98.910 E0.06826
G1 X137.246 Y100.210 E0.06836
G1 X135.379 Y101.328 E0.06823
G1 X133.413 Y102.258 E0.06821
G1 X131.360 Y102.992 E0.06833
G1 X129.247 Y103.522 E0.06832
G1 X127.095 Y103.841 E0.06821
G1 X124.920 Y103.948 E0.06827
G1 X122.746 Y103.842 E0.06824
G1 X120.591 Y103.522 E0.06830
G1 X118.478 Y102.992 E0.06832
G1 X116.427 Y102.259 E0.06830
G1 X114.460 Y101.328 E0.06823
G1 X112.590 Y100.209 E0.06831
G1 X110.843 Y98.911 E0.06824
G1 X109.230 Y97.450 E0.06824
G1 X107.768 Y95.837 E0.06826
G1 X106.469 Y94.086 E0.06836
G1 X105.351 Y92.219 E0.06823
G1 X104.418 Y90.250 E0.06832
G1 X103.687 Y88.201 E0.06822
G1 X103.156 Y86.087 E0.06832
G1 X102.837 Y83.935 E0.06821
G1 X102.730 Y81.761 E0.06827
G1 X102.837 Y79.587 E0.06824
G1 X103.156 Y77.432 E0.06830
G1 X103.687 Y75.318 E0.06832
G1 X104.419 Y73.267 E0.06830
G1 X105.350 Y71.302 E0.06817
G1 X106.439 Y69.482 E0.06649
; PURGING FINISHED
G1 F8640
G1 X107.767 Y67.683 E-0.51630
G1 X108.476 Y66.901 E-0.24370
G1 E-0.04000 F2100.00000
G1 Z0.800 F10800.000
G1 X122.321 Y68.759
G1 Z0.200
G1 E0.80000 F2100.00000
G1 F1200
G1 X122.495 Y67.648 E0.03527
G1 X123.006 Y66.644 E0.03532
G1 X123.804 Y65.846 E0.03538
G1 X124.807 Y65.336 E0.03530
G1 X125.919 Y65.159 E0.03530
G1 X127.031 Y65.336 E0.03530
G1 X128.034 Y65.846 E0.03530
G1 X128.832 Y66.644 E0.03538
G1 X129.342 Y67.648 E0.03530
G1 X129.519 Y68.759 E0.03530
G1 X129.342 Y69.871 E0.03530
G1 X128.832 Y70.875 E0.03530
G1 X128.034 Y71.673 E0.03538
G1 X127.031 Y72.183 E0.03530
G1 X125.919 Y72.360 E0.03530
G1 X124.807 Y72.183 E0.03530
G1 X123.804 Y71.673 E0.03530
G1 X123.006 Y70.875 E0.03538
G1 X122.495 Y69.871 E0.03532
G1 X122.330 Y68.819 E0.03339
G1 X122.702 Y68.760 F10800.000
G1 F1200
G1 X122.859 Y67.766 E0.03155
G1 X123.315 Y66.869 E0.03156
G1 X124.028 Y66.155 E0.03162
G1 X124.925 Y65.699 E0.03156
G1 X125.919 Y65.541 E0.03155
G1 X126.913 Y65.699 E0.03155
G1 X127.810 Y66.155 E0.03156
G1 X128.523 Y66.869 E0.03162
G1 X128.979 Y67.766 E0.03156
G1 X129.138 Y68.759 E0.03155
G1 X128.979 Y69.753 E0.03155
G1 X128.523 Y70.650 E0.03156
G1 X127.810 Y71.364 E0.03162
G1 X126.913 Y71.820 E0.03156
G1 X125.919 Y71.978 E0.03155
G1 X124.925 Y71.820 E0.03155
G1 X124.028 Y71.364 E0.03156
G1 X123.315 Y70.650 E0.03162
G1 X122.859 Y69.753 E0.03156
G1 X122.712 Y68.819 E0.02963
G1 X122.356 Y68.560 F10800.000
G1 F8640
G1 X122.859 Y67.766 E-0.24560
G1 X123.315 Y66.869 E-0.23245
G1 X124.028 Y66.155 E-0.23289
G1 X124.217 Y66.059 E-0.04907
G1 E-0.04000 F2100.00000
G1 Z0.800 F10800.000
G1 X121.132 Y62.720
G1 Z0.200
G1 E0.80000 F2100.00000
G1 F1200
G1 X123.016 Y62.440 E0.05974
G1 X124.919 Y62.347 E0.05972
G1 X126.819 Y62.440 E0.05966
G1 X128.706 Y62.720 E0.05980
G1 X130.554 Y63.184 E0.05975
G1 X132.348 Y63.825 E0.05972
G1 X134.070 Y64.640 E0.05973
G1 X135.704 Y65.618 E0.05973
G1 X137.234 Y66.754 E0.05973
G1 X138.645 Y68.033 E0.05973
G1 X139.925 Y69.444 E0.05973
G1 X141.060 Y70.974 E0.05973
G1 X142.038 Y72.608 E0.05973
G1 X142.854 Y74.330 E0.05973
G1 X143.494 Y76.124 E0.05972
G1 X143.958 Y77.972 E0.05975
G1 X144.238 Y79.857 E0.05974
G1 X144.331 Y81.759 E0.05972
G1 X144.238 Y83.662 E0.05972
G1 X143.958 Y85.547 E0.05974
G1 X143.494 Y87.395 E0.05975
G1 X142.854 Y89.189 E0.05972
G1 X142.038 Y90.910 E0.05973
G1 X141.060 Y92.545 E0.05973
G1 X139.925 Y94.074 E0.05973
G1 X138.645 Y95.486 E0.05973
G1 X137.234 Y96.765 E0.05973
G1 X135.704 Y97.901 E0.05973
G1 X134.070 Y98.879 E0.05973
G1 X132.348 Y99.694 E0.05973
G1 X130.554 Y100.335 E0.05972
G1 X128.706 Y100.799 E0.05975
G1 X126.821 Y101.079 E0.05974
G1 X124.919 Y101.172 E0.05972
G1 X123.016 Y101.079 E0.05972
G1 X121.132 Y100.799 E0.05974
G1 X119.283 Y100.335 E0.05975
G1 X117.490 Y99.694 E0.05972
G1 X115.768 Y98.879 E0.05973
G1 X114.133 Y97.901 E0.05973
G1 X112.604 Y96.765 E0.05973
G1 X111.193 Y95.486 E0.05973
G1 X109.913 Y94.074 E0.05973
G1 X108.778 Y92.545 E0.05973
G1 X107.799 Y90.910 E0.05973
G1 X106.984 Y89.189 E0.05973
G1 X106.343 Y87.395 E0.05972
G1 X105.879 Y85.547 E0.05975
G1 X105.600 Y83.662 E0.05974
G1 X105.507 Y81.759 E0.05972
G1 X105.600 Y79.857 E0.05972
G1 X105.879 Y77.972 E0.05974
G1 X106.343 Y76.124 E0.05975
G1 X106.984 Y74.330 E0.05972
G1 X107.799 Y72.608 E0.05973
G1 X108.778 Y70.974 E0.05973
G1 X109.913 Y69.444 E0.05973
G1 X111.193 Y68.033 E0.05973
G1 X112.604 Y66.754 E0.05973
G1 X114.133 Y65.618 E0.05973
G1 X115.768 Y64.640 E0.05973
G1 X117.490 Y63.825 E0.05973
G1 X119.283 Y63.184 E0.05972
G1 X121.074 Y62.735 E0.05787
G1 X120.982 Y62.369 F10800.000
G1 F1200
G1 X122.979 Y62.065 E0.06336
G1 X124.919 Y61.970 E0.06088
G1 X126.856 Y62.065 E0.06082
G1 X128.780 Y62.350 E0.06097
G1 X130.664 Y62.823 E0.06091
G1 X132.492 Y63.476 E0.06088
G1 X134.248 Y64.307 E0.06090
G1 X135.914 Y65.304 E0.06089
G1 X137.473 Y66.462 E0.06089
G1 X138.912 Y67.766 E0.06089
G1 X140.216 Y69.205 E0.06089
G1 X141.374 Y70.764 E0.06089
G1 X142.371 Y72.431 E0.06089
G1 X143.203 Y74.186 E0.06090
G1 X143.856 Y76.014 E0.06088
G1 X144.329 Y77.899 E0.06091
G1 X144.614 Y79.820 E0.06091
G1 X144.709 Y81.759 E0.06088
G1 X144.614 Y83.699 E0.06088
G1 X144.329 Y85.620 E0.06091
G1 X143.856 Y87.504 E0.06091
G1 X143.203 Y89.333 E0.06088
G1 X142.371 Y91.088 E0.06090
G1 X141.374 Y92.755 E0.06089
G1 X140.216 Y94.314 E0.06089
G1 X138.912 Y95.753 E0.06089
G1 X137.473 Y97.057 E0.06089
G1 X135.914 Y98.215 E0.06089
G1 X134.248 Y99.212 E0.06089
G1 X132.492 Y100.043 E0.06090
G1 X130.664 Y100.696 E0.06088
G1 X128.780 Y101.169 E0.06091
G1 X126.858 Y101.454 E0.06091
G1 X124.919 Y101.549 E0.06088
G1 X122.979 Y101.454 E0.06088
G1 X121.058 Y101.169 E0.06091
G1 X119.174 Y100.696 E0.06091
G1 X117.345 Y100.043 E0.06088
G1 X115.590 Y99.212 E0.06090
G1 X113.924 Y98.215 E0.06089
G1 X112.364 Y97.057 E0.06089
G1 X110.926 Y95.753 E0.06089
G1 X109.621 Y94.314 E0.06089
G1 X108.464 Y92.755 E0.06089
G1 X107.466 Y91.088 E0.06089
G1 X106.635 Y89.333 E0.06090
G1 X105.982 Y87.504 E0.06088
G1 X105.509 Y85.620 E0.06091
G1 X105.224 Y83.699 E0.06091
G1 X105.129 Y81.759 E0.06088
G1 X105.224 Y79.820 E0.06088
G1 X105.509 Y77.899 E0.06091
G1 X105.982 Y76.014 E0.06091
G1 X106.635 Y74.186 E0.06088
G1 X107.466 Y72.431 E0.06090
G1 X108.464 Y70.764 E0.06089
G1 X109.621 Y69.205 E0.06089
G1 X110.926 Y67.766 E0.06089
G1 X112.364 Y66.462 E0.06089
G1 X113.924 Y65.304 E0.06089
G1 X115.590 Y64.307 E0.06089
G1 X117.345 Y63.476 E0.06090
G1 X119.174 Y62.823 E0.06088
G1 X120.923 Y62.383 E0.05656
G1 X121.246 Y62.669 F10800.000
G1 F8640
G1 X122.979 Y62.065 E-0.48040
G1 X124.189 Y62.005 E-0.27960
G1 E-0.04000 F2100.00000
G1 Z0.800 F10800.000
G1 X127.752 Y65.576
G1 Z0.200
G1 E0.80000 F2100.00000
G1 F1200
G1 X124.811 Y62.636 E0.13097
G1 X124.301 Y62.661 E0.01610
G1 X126.625 Y64.985 E0.10354
G1 X125.988 Y64.884 E0.02033
G1 X123.790 Y62.686 E0.09790
G1 X123.279 Y62.711 E0.01610
G1 X125.507 Y64.938 E0.09922
G1 X125.045 Y65.012 E0.01473
G1 X122.793 Y62.760 E0.10033
G1 X122.326 Y62.829 E0.01485
G1 X124.614 Y65.117 E0.10193
G1 X124.259 Y65.298 E0.01255
G1 X121.860 Y62.898 E0.10689
G1 X121.393 Y62.967 E0.01485
G1 X123.904 Y65.478 E0.11185
G1 X123.636 Y65.615 E0.00949
G1 X123.570 Y65.680 E0.00291
G1 X120.948 Y63.058 E0.11680
G1 X120.520 Y63.165 E0.01390
G1 X123.302 Y65.948 E0.12394
G1 X123.035 Y66.216 E0.01193
G1 X120.092 Y63.273 E0.13108
G1 X119.663 Y63.380 E0.01390
G1 X122.769 Y66.486 E0.13833
G1 X122.589 Y66.841 E0.01255
G1 X119.245 Y63.498 E0.14891
G1 X118.851 Y63.639 E0.01320
G1 X122.408 Y67.196 E0.15845
G1 X122.228 Y67.551 E0.01255
G1 X118.456 Y63.780 E0.16799
G1 X118.061 Y63.921 E0.01320
G1 X122.152 Y68.011 E0.18220
G1 X122.079 Y68.474 E0.01476
G1 X117.667 Y64.062 E0.19654
G1 X117.298 Y64.228 E0.01275
G1 X122.073 Y69.003 E0.21268
G1 X122.173 Y69.639 E0.02027
G1 X116.934 Y64.401 E0.23333
G1 X116.571 Y64.573 E0.01267
G1 X122.885 Y70.887 E0.28127
G1 F8640
G1 X120.558 Y68.560 E-0.76000
G1 E-0.04000 F2100.00000
G1 Z0.800 F10800.000
G1 X133.756 Y64.616
G1 Z0.200
G1 E0.80000 F2100.00000
G1 F1200
G1 X142.062 Y72.923 E0.36998
G1 F8640
G1 X139.735 Y70.595 E-0.76000
G1 E-0.04000 F2100.00000
G1 Z0.800 F10800.000
G1 X142.544 Y73.940
G1 Z0.200
G1 E0.80000 F2100.00000
G1 F1200
G1 X133.095 Y64.491 E0.42087
G1 X132.107 Y64.039 E0.03423
G1 X142.640 Y74.572 E0.46915
G1 X142.937 Y75.405 E0.02787
G1 X131.274 Y63.741 E0.51952
G1 X130.445 Y63.448 E0.02769
G1 X143.230 Y76.234 E0.56949
G1 X143.410 Y76.949 E0.02323
G1 X129.730 Y63.268 E0.60934
G1 X129.014 Y63.089 E0.02323
G1 X143.589 Y77.664 E0.64920
G1 X143.681 Y78.028 E0.01181
G1 X143.727 Y78.337 E0.00985
G1 X128.342 Y62.952 E0.68527
G1 X127.713 Y62.859 E0.02002
G1 X143.820 Y78.966 E0.71743
G1 X143.913 Y79.595 E0.02003
G1 X127.084 Y62.765 E0.74960
G1 X126.792 Y62.722 E0.00930
G1 X126.490 Y62.707 E0.00951
G1 X143.971 Y80.188 E0.77862
G1 X143.999 Y80.752 E0.01776
G1 X125.927 Y62.680 E0.80494
G1 X125.364 Y62.652 E0.01776
G1 X144.026 Y81.315 E0.83126
G1 X144.043 Y81.867 E0.01740
G1 X129.490 Y67.314 E0.64822
G1 X129.614 Y67.559 E0.00867
G1 X129.693 Y68.053 E0.01575
G1 X144.018 Y82.378 E0.63804
G1 X143.993 Y82.888 E0.01610
G1 X129.795 Y68.690 E0.63240
G1 X129.806 Y68.759 E0.00221
G1 X129.740 Y69.171 E0.01314
G1 X143.968 Y83.399 E0.63372
G1 X143.919 Y83.886 E0.01541
G1 X129.666 Y69.633 E0.63482
G1 X129.614 Y69.960 E0.01041
G1 X129.561 Y70.064 E0.00369
G1 X143.850 Y84.352 E0.63642
G1 X143.780 Y84.819 E0.01485
G1 X129.381 Y70.419 E0.64138
G1 X129.200 Y70.774 E0.01255
G1 X143.711 Y85.285 E0.64634
G1 X143.621 Y85.730 E0.01431
G1 X128.998 Y71.108 E0.65130
G1 X128.731 Y71.376 E0.01193
G1 X143.513 Y86.159 E0.65844
G1 X143.406 Y86.587 E0.01390
G1 X128.463 Y71.644 E0.66558
G1 X128.193 Y71.909 E0.01193
G1 X143.298 Y87.015 E0.67283
G1 X143.181 Y87.433 E0.01368
G1 X127.837 Y72.090 E0.68340
G1 X127.482 Y72.270 E0.01255
G1 X143.040 Y87.828 E0.69294
M73 Q3 S27
M73 P3 R27
G1 X142.899 Y88.222 E0.01320
G1 X127.127 Y72.451 E0.70248
G1 X126.668 Y72.527 E0.01467
G1 X142.758 Y88.617 E0.71667
G1 X142.617 Y89.012 E0.01320
G1 X126.206 Y72.601 E0.73097
G1 X125.919 Y72.646 E0.00914
G1 X125.677 Y72.608 E0.00771
G1 X142.450 Y89.381 E0.74709
G1 X142.278 Y89.744 E0.01267
G1 X125.040 Y72.506 E0.76781
G1 X124.719 Y72.455 E0.01024
G1 X124.178 Y72.180 E0.01910
G1 X142.106 Y90.108 E0.79852
G1 X141.934 Y90.471 E0.01267
G1 X116.207 Y64.745 E1.14589
G1 X115.848 Y64.921 E0.01260
G1 X141.757 Y90.830 E1.15401
G1 X141.556 Y91.165 E0.01230
G1 X115.513 Y65.122 E1.16000
G1 X115.178 Y65.323 E0.01230
G1 X141.356 Y91.500 E1.16599
G1 X141.155 Y91.836 E0.01230
G1 X114.843 Y65.523 E1.17199
G1 X114.508 Y65.724 E0.01230
G1 X140.955 Y92.171 E1.17798
G1 X140.744 Y92.496 E0.01220
G1 X114.182 Y65.934 E1.18310
G1 X113.875 Y66.162 E0.01206
G1 X140.516 Y92.803 E1.18663
G1 X140.288 Y93.111 E0.01206
G1 X113.567 Y66.391 E1.19016
G1 X113.260 Y66.619 E0.01206
G1 X140.060 Y93.418 E1.19368
G1 X139.831 Y93.726 E0.01206
G1 X112.953 Y66.847 E1.19721
G1 X112.657 Y67.087 E0.01199
G1 X139.591 Y94.021 E1.19968
G1 X139.336 Y94.302 E0.01194
G1 X112.376 Y67.342 E1.20085
G1 X112.095 Y67.597 E0.01194
G1 X139.082 Y94.583 E1.20202
G1 X138.827 Y94.864 E0.01194
G1 X111.814 Y67.851 E1.20319
G1 X111.533 Y68.106 E0.01194
G1 X138.572 Y95.145 E1.20436
G1 X138.305 Y95.413 E0.01193
G1 X111.265 Y68.374 E1.20436
G1 X111.011 Y68.655 E0.01194
G1 X138.024 Y95.668 E1.20319
G1 X137.743 Y95.922 E0.01194
G1 X110.756 Y68.936 E1.20202
G1 X110.501 Y69.217 E0.01194
G1 X137.462 Y96.177 E1.20085
G1 X137.181 Y96.432 E0.01194
G1 X110.247 Y69.498 E1.19968
G1 X110.006 Y69.793 E0.01199
G1 X136.885 Y96.672 E1.19721
G1 X136.578 Y96.900 E0.01206
G1 X109.778 Y70.101 E1.19368
G1 X109.550 Y70.408 E0.01206
G1 X136.270 Y97.128 E1.19016
G1 X135.963 Y97.357 E0.01206
G1 X109.322 Y70.716 E1.18663
G1 X109.093 Y71.023 E0.01206
G1 X135.655 Y97.585 E1.18310
G1 X135.330 Y97.795 E0.01220
G1 X108.883 Y71.348 E1.17798
G1 X108.683 Y71.683 E0.01230
G1 X134.995 Y97.996 E1.17199
M73 Q7 S26
M73 P7 R26
G1 X134.660 Y98.196 E0.01230
G1 X108.482 Y72.019 E1.16599
G1 X108.281 Y72.354 E0.01230
G1 X134.325 Y98.397 E1.16000
G1 X133.990 Y98.597 E0.01230
G1 X108.081 Y72.689 E1.15401
G1 X107.904 Y73.048 E0.01260
G1 X133.631 Y98.774 E1.14589
G1 X133.267 Y98.946 E0.01267
G1 X107.732 Y73.411 E1.13736
G1 X107.560 Y73.775 E0.01267
G1 X132.904 Y99.118 E1.12884
G1 X132.540 Y99.291 E0.01267
G1 X107.388 Y74.138 E1.12031
G1 X107.221 Y74.507 E0.01275
G1 X132.171 Y99.457 E1.11131
G1 X131.776 Y99.598 E0.01320
G1 X107.080 Y74.902 E1.10000
G1 X106.939 Y75.297 E0.01320
G1 X131.382 Y99.739 E1.08870
G1 X130.987 Y99.880 E0.01320
G1 X106.798 Y75.691 E1.07740
G1 X106.657 Y76.086 E0.01320
G1 X130.592 Y100.021 E1.06610
G1 X130.174 Y100.139 E0.01368
G1 X106.540 Y76.504 E1.05272
G1 X106.432 Y76.932 E0.01390
G1 X129.746 Y100.246 E1.03844
G1 X129.318 Y100.354 E0.01390
G1 X106.325 Y77.360 E1.02416
G1 X106.217 Y77.789 E0.01390
G1 X128.890 Y100.461 E1.00987
G1 X128.445 Y100.552 E0.01431
G1 X106.126 Y78.234 E0.99408
G1 X106.057 Y78.700 E0.01485
G1 X127.978 Y100.621 E0.97638
G1 X127.512 Y100.690 E0.01485
G1 X105.988 Y79.167 E0.95869
G1 X105.919 Y79.633 E0.01485
G1 X127.045 Y100.759 E0.94099
G1 X126.558 Y100.808 E0.01541
G1 X105.870 Y80.120 E0.92148
G1 X105.845 Y80.631 E0.01610
G1 X126.048 Y100.833 E0.89985
G1 X125.537 Y100.858 E0.01610
G1 X105.820 Y81.141 E0.87822
G1 X105.795 Y81.652 E0.01610
G1 X125.026 Y100.883 E0.85659
G1 X124.474 Y100.867 E0.01740
G1 X105.812 Y82.204 E0.83126
G1 X105.839 Y82.767 E0.01776
G1 X123.911 Y100.839 E0.80494
G1 X123.348 Y100.812 E0.01776
G1 X105.867 Y83.331 E0.77862
G1 X105.882 Y83.634 E0.00957
G1 X105.925 Y83.924 E0.00924
G1 X122.754 Y100.754 E0.74960
G1 X122.125 Y100.660 E0.02003
G1 X106.018 Y84.553 E0.71744
G1 X106.111 Y85.182 E0.02003
G1 X121.496 Y100.567 E0.68527
G1 X121.187 Y100.521 E0.00984
G1 X120.823 Y100.430 E0.01181
G1 X106.248 Y85.855 E0.64919
