; generated by Slic3r Prusa Edition 1.41.1+win64 on 2019-04-14 at 21:19:33

; 

; external perimeters extrusion width = 0.45mm
; perimeters extrusion width = 0.45mm
; infill extrusion width = 0.45mm
; solid infill extrusion width = 0.45mm
; top infill extrusion width = 0.40mm
; first layer extrusion width = 0.42mm

M73 P0 R13
M73 Q0 S14
M201 X1000 Y1000 Z1000 E5000 ; sets maximum accelerations, mm/sec^2
M203 X200 Y200 Z12 E120 ; sets maximum feedrates, mm/sec
M204 P1250 R1250 T1250 ; sets acceleration (P, T) and retract acceleration (R), mm/sec^2
M205 X8.00 Y8.00 Z0.40 E1.50 ; sets the jerk limits, mm/sec
M205 S0 T0 ; sets the minimum extruding and travel feed rate, mm/sec
M107
M115 U3.6.0 ; tell printer latest fw version
M83  ; extruder relative mode
M104 S215 ; set extruder temp
M140 S60 ; set bed temp
M190 S60 ; wait for bed temp
M109 S215 ; wait for extruder temp
G28 W ; home all without mesh bed level
G80 ; mesh bed leveling
G1 Y-3.0 F1000.0 ; go outside print area
G92 E0.0
G1 X60.0 E9.0  F1000.0 ; intro line
M73 Q0 S14
M73 P0 R13
G1 X100.0 E12.5  F1000.0 ; intro line
G92 E0.0
M221 S95
M900 K30; Filament gcode
G21 ; set units to millimeters
G90 ; use absolute coordinates
M83 ; use relative distances for extrusion
;BEFORE_LAYER_CHANGE
G92 E0.0
;0.2


G1 E-0.80000 F2100.00000
G1 Z0.600 F10800.000
;AFTER_LAYER_CHANGE
;0.2
G1 X107.848 Y90.924
G1 Z0.200
G1 E0.80000 F2100.00000
M204 S1000
G1 F1200
G1 X109.310 Y89.311 E0.06824
G1 X110.922 Y87.849 E0.06826
G1 X112.673 Y86.550 E0.06836
G1 X114.540 Y85.432 E0.06823
G1 X116.510 Y84.500 E0.06832
G1 X118.559 Y83.768 E0.06822
G1 X120.672 Y83.237 E0.06832
G1 X122.824 Y82.918 E0.06821
G1 X125.003 Y82.811 E0.06838
G1 X127.173 Y82.918 E0.06813
G1 X129.327 Y83.237 E0.06830
G1 X131.441 Y83.768 E0.06832
G1 X133.492 Y84.500 E0.06830
G1 X135.459 Y85.432 E0.06823
G1 X137.329 Y86.551 E0.06831
G1 X139.076 Y87.848 E0.06824
G1 X140.689 Y89.310 E0.06824
G1 X142.151 Y90.922 E0.06826
G1 X143.448 Y92.670 E0.06825
G1 X144.568 Y94.540 E0.06834
G1 X145.500 Y96.510 E0.06832
G1 X146.232 Y98.559 E0.06822
G1 X146.763 Y100.672 E0.06832
G1 X147.082 Y102.828 E0.06833
G1 X147.189 Y104.999 E0.06816
G1 X147.082 Y107.173 E0.06824
G1 X146.763 Y109.327 E0.06830
G1 X146.232 Y111.441 E0.06832
G1 X145.500 Y113.492 E0.06830
G1 X144.568 Y115.459 E0.06823
G1 X143.449 Y117.329 E0.06831
G1 X142.152 Y119.076 E0.06824
G1 X140.690 Y120.689 E0.06824
G1 X139.078 Y122.151 E0.06826
G1 X137.327 Y123.450 E0.06836
G1 X135.460 Y124.568 E0.06823
G1 X133.490 Y125.500 E0.06832
G1 X131.441 Y126.232 E0.06822
G1 X129.328 Y126.763 E0.06832
G1 X127.176 Y127.082 E0.06821
G1 X125.001 Y127.189 E0.06827
G1 X122.827 Y127.082 E0.06824
G1 X120.673 Y126.763 E0.06830
G1 X118.559 Y126.232 E0.06832
G1 X116.508 Y125.500 E0.06830
G1 X114.541 Y124.568 E0.06823
G1 X112.671 Y123.449 E0.06831
G1 X110.924 Y122.152 E0.06824
G1 X109.311 Y120.690 E0.06824
G1 X107.849 Y119.078 E0.06826
G1 X106.552 Y117.330 E0.06825
G1 X105.432 Y115.460 E0.06834
G1 X104.500 Y113.490 E0.06832
G1 X103.768 Y111.441 E0.06822
G1 X103.237 Y109.328 E0.06832
G1 X102.918 Y107.176 E0.06821
G1 X102.811 Y105.001 E0.06827
G1 X102.918 Y102.827 E0.06824
G1 X103.237 Y100.673 E0.06830
G1 X103.768 Y98.559 E0.06832
G1 X104.500 Y96.508 E0.06830
G1 X105.432 Y94.541 E0.06823
G1 X106.551 Y92.671 E0.06831
G1 X107.812 Y90.972 E0.06635
; PURGING FINISHED
G1 F8640
G1 X109.310 Y89.311 E-0.51631
G1 X110.091 Y88.603 E-0.24369
G1 E-0.04000 F2100.00000
G1 Z0.800 F10800.000
G1 X122.402 Y92.000
G1 Z0.200
G1 E0.80000 F2100.00000
G1 F1200
G1 X122.577 Y90.889 E0.03527
G1 X123.087 Y89.885 E0.03532
G1 X123.887 Y89.085 E0.03549
G1 X124.927 Y88.571 E0.03637
G1 X126.000 Y88.400 E0.03406
G1 X127.112 Y88.577 E0.03530
G1 X128.115 Y89.087 E0.03530
G1 X128.913 Y89.885 E0.03538
G1 X129.423 Y90.888 E0.03530
G1 X129.600 Y92.000 E0.03530
G1 X129.423 Y93.112 E0.03530
G1 X128.913 Y94.115 E0.03530
G1 X128.115 Y94.913 E0.03538
G1 X127.112 Y95.423 E0.03530
G1 X126.000 Y95.600 E0.03530
G1 X124.888 Y95.423 E0.03530
G1 X123.885 Y94.913 E0.03530
G1 X123.087 Y94.115 E0.03538
G1 X122.577 Y93.111 E0.03532
G1 X122.411 Y92.059 E0.03339
G1 X122.784 Y92.001 F10800.000
G1 F1200
G1 X122.940 Y91.006 E0.03155
G1 X123.396 Y90.109 E0.03156
G1 X124.110 Y89.395 E0.03166
G1 X125.043 Y88.934 E0.03263
G1 X126.000 Y88.781 E0.03038
G1 X126.994 Y88.940 E0.03155
G1 X127.891 Y89.396 E0.03156
G1 X128.604 Y90.109 E0.03162
G1 X129.060 Y91.006 E0.03156
G1 X129.219 Y92.000 E0.03155
G1 X129.060 Y92.994 E0.03155
G1 X128.604 Y93.891 E0.03156
G1 X127.891 Y94.604 E0.03162
G1 X126.994 Y95.060 E0.03156
G1 X126.000 Y95.219 E0.03155
G1 X125.006 Y95.060 E0.03155
G1 X124.109 Y94.604 E0.03156
G1 X123.396 Y93.891 E0.03162
G1 X122.940 Y92.994 E0.03156
G1 X122.793 Y92.060 E0.02963
G1 X122.437 Y91.801 F10800.000
G1 F8640
G1 X122.940 Y91.006 E-0.24559
G1 X123.396 Y90.109 E-0.23245
G1 X124.110 Y89.395 E-0.23317
G1 X124.299 Y89.301 E-0.04879
G1 E-0.04000 F2100.00000
G1 Z0.800 F10800.000
G1 X121.213 Y85.960
G1 Z0.200
G1 E0.80000 F2100.00000
G1 F1200
G1 X123.098 Y85.681 E0.05974
G1 X125.000 Y85.588 E0.05972
G1 X126.828 Y85.677 E0.05740
G1 X128.788 Y85.961 E0.06209
G1 X130.635 Y86.424 E0.05971
G1 X132.429 Y87.065 E0.05972
G1 X134.151 Y87.880 E0.05973
G1 X135.785 Y88.859 E0.05973
G1 X137.315 Y89.994 E0.05973
G1 X138.726 Y91.274 E0.05973
G1 X140.006 Y92.685 E0.05973
G1 X141.141 Y94.215 E0.05973
G1 X142.120 Y95.849 E0.05973
G1 X142.935 Y97.571 E0.05973
G1 X143.576 Y99.365 E0.05972
G1 X144.040 Y101.213 E0.05975
G1 X144.319 Y103.098 E0.05974
G1 X144.412 Y105.000 E0.05972
G1 X144.319 Y106.902 E0.05972
G1 X144.040 Y108.787 E0.05974
G1 X143.576 Y110.635 E0.05975
G1 X142.935 Y112.429 E0.05972
G1 X142.120 Y114.151 E0.05973
G1 X141.141 Y115.785 E0.05973
G1 X140.006 Y117.315 E0.05973
G1 X138.726 Y118.726 E0.05973
G1 X137.315 Y120.006 E0.05973
G1 X135.785 Y121.141 E0.05973
G1 X134.151 Y122.120 E0.05973
G1 X132.429 Y122.935 E0.05973
G1 X130.635 Y123.576 E0.05972
G1 X128.787 Y124.040 E0.05975
G1 X126.902 Y124.319 E0.05974
G1 X125.000 Y124.412 E0.05972
G1 X123.098 Y124.319 E0.05972
G1 X121.213 Y124.040 E0.05974
G1 X119.365 Y123.576 E0.05975
G1 X117.571 Y122.935 E0.05972
G1 X115.849 Y122.120 E0.05973
G1 X114.215 Y121.141 E0.05973
G1 X112.685 Y120.006 E0.05973
G1 X111.274 Y118.726 E0.05973
G1 X109.994 Y117.315 E0.05973
G1 X108.859 Y115.785 E0.05973
G1 X107.880 Y114.151 E0.05973
G1 X107.065 Y112.429 E0.05973
G1 X106.424 Y110.635 E0.05972
G1 X105.960 Y108.787 E0.05975
G1 X105.681 Y106.902 E0.05974
G1 X105.588 Y105.000 E0.05972
G1 X105.681 Y103.098 E0.05972
G1 X105.960 Y101.213 E0.05974
G1 X106.424 Y99.365 E0.05975
G1 X107.065 Y97.571 E0.05972
G1 X107.880 Y95.849 E0.05973
G1 X108.859 Y94.215 E0.05973
G1 X109.994 Y92.685 E0.05973
G1 X111.274 Y91.274 E0.05973
G1 X112.685 Y89.994 E0.05973
G1 X114.215 Y88.859 E0.05973
G1 X115.849 Y87.880 E0.05973
G1 X117.571 Y87.065 E0.05973
G1 X119.365 Y86.424 E0.05972
G1 X121.155 Y85.975 E0.05787
G1 X121.063 Y85.609 F10800.000
G1 F1200
G1 X123.061 Y85.305 E0.06336
G1 X125.000 Y85.210 E0.06088
G1 X126.865 Y85.302 E0.05854
G1 X128.861 Y85.590 E0.06325
G1 X130.745 Y86.063 E0.06089
G1 X132.574 Y86.716 E0.06088
G1 X134.329 Y87.547 E0.06090
G1 X135.995 Y88.545 E0.06089
G1 X137.555 Y89.702 E0.06089
G1 X138.993 Y91.007 E0.06089
G1 X140.298 Y92.445 E0.06089
G1 X141.455 Y94.005 E0.06089
G1 X142.453 Y95.671 E0.06089
G1 X143.284 Y97.426 E0.06090
G1 X143.937 Y99.255 E0.06088
G1 X144.410 Y101.139 E0.06091
G1 X144.695 Y103.061 E0.06091
G1 X144.790 Y105.000 E0.06088
G1 X144.695 Y106.939 E0.06088
G1 X144.410 Y108.861 E0.06091
G1 X143.937 Y110.745 E0.06091
G1 X143.284 Y112.574 E0.06088
G1 X142.453 Y114.329 E0.06090
G1 X141.455 Y115.995 E0.06089
G1 X140.298 Y117.555 E0.06089
G1 X138.993 Y118.993 E0.06089
G1 X137.555 Y120.298 E0.06089
G1 X135.995 Y121.455 E0.06089
G1 X134.329 Y122.453 E0.06089
G1 X132.574 Y123.284 E0.06090
G1 X130.745 Y123.937 E0.06088
G1 X128.861 Y124.410 E0.06091
G1 X126.939 Y124.695 E0.06091
G1 X125.000 Y124.790 E0.06088
G1 X123.061 Y124.695 E0.06088
G1 X121.139 Y124.410 E0.06091
G1 X119.255 Y123.937 E0.06091
G1 X117.426 Y123.284 E0.06088
G1 X115.671 Y122.453 E0.06090
G1 X114.005 Y121.455 E0.06089
G1 X112.445 Y120.298 E0.06089
G1 X111.007 Y118.993 E0.06089
G1 X109.702 Y117.555 E0.06089
G1 X108.545 Y115.995 E0.06089
G1 X107.547 Y114.329 E0.06089
G1 X106.716 Y112.574 E0.06090
G1 X106.063 Y110.745 E0.06088
G1 X105.590 Y108.861 E0.06091
G1 X105.305 Y106.939 E0.06091
G1 X105.210 Y105.000 E0.06088
G1 X105.305 Y103.061 E0.06088
G1 X105.590 Y101.139 E0.06091
G1 X106.063 Y99.255 E0.06091
G1 X106.716 Y97.426 E0.06088
G1 X107.547 Y95.671 E0.06090
G1 X108.545 Y94.005 E0.06089
G1 X109.702 Y92.445 E0.06089
G1 X111.007 Y91.007 E0.06089
G1 X112.445 Y89.702 E0.06089
G1 X114.005 Y88.545 E0.06089
G1 X115.671 Y87.547 E0.06089
G1 X117.426 Y86.716 E0.06090
G1 X119.255 Y86.063 E0.06088
G1 X121.005 Y85.624 E0.05656
G1 X121.327 Y85.909 F10800.000
G1 F8640
G1 X123.061 Y85.305 E-0.48040
G1 X124.270 Y85.246 E-0.27960
G1 E-0.04000 F2100.00000
G1 Z0.800 F10800.000
G1 X127.833 Y88.817
G1 Z0.200
G1 E0.80000 F2100.00000
G1 F1200
G1 X124.892 Y85.876 E0.13097
G1 X124.382 Y85.901 E0.01610
G1 X126.706 Y88.226 E0.10354
G1 X126.069 Y88.124 E0.02033
G1 X123.871 Y85.926 E0.09790
G1 X123.361 Y85.951 E0.01610
G1 X125.588 Y88.179 E0.09922
G1 X125.126 Y88.253 E0.01473
G1 X122.874 Y86.000 E0.10033
G1 X122.407 Y86.069 E0.01485
G1 X124.704 Y88.366 E0.10229
G1 X124.345 Y88.543 E0.01259
G1 X121.941 Y86.138 E0.10710
G1 X121.474 Y86.208 E0.01485
G1 X123.987 Y88.720 E0.11191
G1 X123.720 Y88.852 E0.00936
G1 X123.651 Y88.920 E0.00307
G1 X121.029 Y86.298 E0.11680
G1 X120.601 Y86.406 E0.01390
G1 X123.384 Y89.188 E0.12394
G1 X123.116 Y89.456 E0.01193
G1 X120.173 Y86.513 E0.13108
G1 X119.745 Y86.621 E0.01390
G1 X122.850 Y89.726 E0.13833
G1 X122.670 Y90.081 E0.01255
G1 X119.327 Y86.738 E0.14891
G1 X118.932 Y86.879 E0.01320
G1 X122.489 Y90.437 E0.15845
G1 X122.309 Y90.792 E0.01255
G1 X118.537 Y87.020 E0.16799
G1 X118.142 Y87.161 E0.01320
G1 X122.233 Y91.252 E0.18220
G1 X122.160 Y91.715 E0.01476
G1 X117.748 Y87.302 E0.19654
G1 X117.379 Y87.469 E0.01275
G1 X122.154 Y92.244 E0.21268
G1 X122.254 Y92.880 E0.02027
G1 X117.015 Y87.641 E0.23333
G1 X116.652 Y87.813 E0.01267
G1 X122.967 Y94.128 E0.28127
G1 F8640
G1 X120.639 Y91.801 E-0.76000
G1 E-0.04000 F2100.00000
G1 Z0.800 F10800.000
G1 X133.837 Y87.857
G1 Z0.200
G1 E0.80000 F2100.00000
G1 F1200
G1 X142.143 Y96.163 E0.36998
G1 F8640
G1 X139.816 Y93.836 E-0.76000
G1 E-0.04000 F2100.00000
G1 Z0.800 F10800.000
G1 X142.625 Y97.181
G1 Z0.200
G1 E0.80000 F2100.00000
G1 F1200
G1 X133.176 Y87.732 E0.42087
G1 X132.188 Y87.279 E0.03423
G1 X142.721 Y97.812 E0.46915
G1 X143.018 Y98.645 E0.02787
G1 X131.355 Y86.982 E0.51952
G1 X130.526 Y86.689 E0.02769
G1 X143.311 Y99.474 E0.56949
G1 X143.491 Y100.189 E0.02323
G1 X129.811 Y86.509 E0.60934
G1 X129.095 Y86.329 E0.02323
G1 X143.671 Y100.905 E0.64919
G1 X143.762 Y101.268 E0.01181
G1 X143.808 Y101.577 E0.00985
G1 X128.424 Y86.194 E0.68520
G1 X127.798 Y86.103 E0.01993
G1 X143.901 Y102.206 E0.71725
G1 X143.994 Y102.835 E0.02003
G1 X127.172 Y86.013 E0.74930
G1 X126.801 Y85.959 E0.01179
G1 X126.571 Y85.948 E0.00725
G1 X144.052 Y103.429 E0.77862
G1 X144.080 Y103.992 E0.01776
G1 X126.008 Y85.920 E0.80494
G1 X125.445 Y85.893 E0.01776
G1 X144.107 Y104.555 E0.83126
G1 X144.124 Y105.108 E0.01740
G1 X129.571 Y90.554 E0.64822
G1 X129.695 Y90.800 E0.00867
G1 X129.774 Y91.294 E0.01575
G1 X144.099 Y105.618 E0.63804
G1 X144.074 Y106.129 E0.01610
G1 X129.876 Y91.931 E0.63240
G1 X129.887 Y92.000 E0.00221
G1 X129.821 Y92.412 E0.01314
G1 X144.049 Y106.639 E0.63372
G1 X144.000 Y107.126 E0.01541
G1 X129.747 Y92.874 E0.63482
G1 X129.695 Y93.200 E0.01041
G1 X129.642 Y93.304 E0.00369
G1 X143.931 Y107.593 E0.63642
G1 X143.862 Y108.059 E0.01485
G1 X129.462 Y93.660 E0.64138
G1 X129.281 Y94.015 E0.01255
G1 X143.792 Y108.526 E0.64634
G1 X143.702 Y108.971 E0.01431
G1 X129.080 Y94.349 E0.65130
G1 X128.812 Y94.616 E0.01193
G1 X143.594 Y109.399 E0.65844
G1 X143.487 Y109.827 E0.01390
G1 X128.544 Y94.884 E0.66558
G1 X128.274 Y95.150 E0.01193
G1 X143.379 Y110.255 E0.67283
G1 X143.262 Y110.673 E0.01368
G1 X127.919 Y95.330 E0.68340
M73 Q7 S13
G1 X127.563 Y95.511 E0.01255
G1 X143.121 Y111.068 E0.69294
M73 P8 R12
G1 X142.980 Y111.463 E0.01320
G1 X127.208 Y95.691 E0.70248
G1 X126.749 Y95.767 E0.01467
G1 X142.839 Y111.858 E0.71667
G1 X142.698 Y112.252 E0.01320
G1 X126.287 Y95.841 E0.73097
G1 X126.000 Y95.887 E0.00914
G1 X125.758 Y95.848 E0.00771
G1 X142.531 Y112.621 E0.74709
G1 X142.359 Y112.985 E0.01267
G1 X125.121 Y95.747 E0.76781
G1 X124.800 Y95.695 E0.01024
G1 X124.259 Y95.421 E0.01910
G1 X142.187 Y113.348 E0.79852
G1 X142.015 Y113.712 E0.01267
G1 X116.288 Y87.985 E1.14589
G1 X115.929 Y88.162 E0.01260
G1 X141.838 Y114.071 E1.15401
G1 X141.637 Y114.406 E0.01230
G1 X115.594 Y88.363 E1.16000
G1 X115.259 Y88.563 E0.01230
G1 X141.437 Y114.741 E1.16599
G1 X141.236 Y115.076 E0.01230
G1 X114.924 Y88.764 E1.17199
G1 X114.589 Y88.964 E0.01230
G1 X141.036 Y115.411 E1.17798
G1 X140.825 Y115.737 E0.01220
G1 X114.263 Y89.175 E1.18310
G1 X113.956 Y89.403 E0.01206
G1 X140.597 Y116.044 E1.18663
G1 X140.369 Y116.351 E0.01206
G1 X113.649 Y89.631 E1.19016
G1 X113.341 Y89.859 E0.01206
G1 X140.141 Y116.659 E1.19368
G1 X139.912 Y116.966 E0.01206
G1 X113.034 Y90.088 E1.19721
G1 X112.738 Y90.328 E0.01199
G1 X139.672 Y117.262 E1.19968
G1 X139.418 Y117.543 E0.01194
G1 X112.457 Y90.582 E1.20085
G1 X112.176 Y90.837 E0.01194
G1 X139.163 Y117.824 E1.20202
G1 X138.908 Y118.105 E0.01194
G1 X111.895 Y91.092 E1.20319
G1 X111.614 Y91.346 E0.01194
G1 X138.654 Y118.386 E1.20436
G1 X138.386 Y118.654 E0.01193
G1 X111.346 Y91.614 E1.20436
G1 X111.092 Y91.895 E0.01194
G1 X138.105 Y118.908 E1.20319
G1 X137.824 Y119.163 E0.01194
G1 X110.837 Y92.176 E1.20202
G1 X110.582 Y92.457 E0.01194
G1 X137.543 Y119.418 E1.20085
G1 X137.262 Y119.672 E0.01194
G1 X110.328 Y92.738 E1.19968
G1 X110.088 Y93.034 E0.01199
G1 X136.966 Y119.912 E1.19721
G1 X136.659 Y120.141 E0.01206
G1 X109.859 Y93.341 E1.19368
G1 X109.631 Y93.649 E0.01206
G1 X136.351 Y120.369 E1.19016
G1 X136.044 Y120.597 E0.01206
G1 X109.403 Y93.956 E1.18663
G1 X109.175 Y94.264 E0.01206
G1 X135.736 Y120.825 E1.18310
G1 X135.411 Y121.036 E0.01220
G1 X108.964 Y94.589 E1.17798
M73 Q15 S12
G1 X108.764 Y94.924 E0.01230
G1 X135.076 Y121.236 E1.17199
M73 P15 R11
G1 X134.741 Y121.437 E0.01230
G1 X108.563 Y95.259 E1.16599
G1 X108.363 Y95.594 E0.01230
G1 X134.406 Y121.637 E1.16000
G1 X134.071 Y121.838 E0.01230
G1 X108.162 Y95.929 E1.15401
G1 X107.985 Y96.288 E0.01260
G1 X133.712 Y122.015 E1.14589
G1 X133.348 Y122.187 E0.01267
G1 X107.813 Y96.652 E1.13736
G1 X107.641 Y97.015 E0.01267
G1 X132.985 Y122.359 E1.12884
G1 X132.621 Y122.531 E0.01267
G1 X107.469 Y97.379 E1.12031
G1 X107.302 Y97.748 E0.01275
G1 X132.252 Y122.698 E1.11131
G1 X131.857 Y122.839 E0.01320
G1 X107.161 Y98.143 E1.10000
G1 X107.020 Y98.537 E0.01320
G1 X131.463 Y122.980 E1.08870
G1 X131.068 Y123.121 E0.01320
G1 X106.879 Y98.932 E1.07740
G1 X106.738 Y99.327 E0.01320
G1 X130.673 Y123.262 E1.06610
G1 X130.255 Y123.379 E0.01368
G1 X106.621 Y99.745 E1.05272
G1 X106.513 Y100.173 E0.01390
G1 X129.827 Y123.487 E1.03844
G1 X129.399 Y123.594 E0.01390
G1 X106.406 Y100.601 E1.02416
G1 X106.298 Y101.029 E0.01390
G1 X128.971 Y123.702 E1.00987
G1 X128.526 Y123.792 E0.01431
G1 X106.208 Y101.474 E0.99408
G1 X106.138 Y101.941 E0.01485
G1 X128.059 Y123.862 E0.97638
G1 X127.593 Y123.931 E0.01485
G1 X106.069 Y102.407 E0.95869
G1 X106.000 Y102.874 E0.01485
G1 X127.126 Y124.000 E0.94099
G1 X126.639 Y124.049 E0.01541
G1 X105.951 Y103.361 E0.92148
G1 X105.926 Y103.871 E0.01610
G1 X126.129 Y124.074 E0.89985
G1 X125.618 Y124.099 E0.01610
G1 X105.901 Y104.382 E0.87822
G1 X105.876 Y104.893 E0.01610
G1 X125.107 Y124.124 E0.85659
G1 X124.555 Y124.107 E0.01740
G1 X105.893 Y105.445 E0.83126
G1 X105.920 Y106.008 E0.01776
G1 X123.992 Y124.080 E0.80494
G1 X123.429 Y124.052 E0.01776
G1 X105.948 Y106.571 E0.77862
G1 X105.963 Y106.875 E0.00957
G1 X106.006 Y107.165 E0.00924
G1 X122.835 Y123.994 E0.74960
G1 X122.206 Y123.901 E0.02003
