; generated by Slic3r Prusa Edition 1.41.1+win64 on 2019-04-14 at 08:21:34

; 

; external perimeters extrusion width = 0.45mm
; perimeters extrusion width = 0.45mm
; infill extrusion width = 0.45mm
; solid infill extrusion width = 0.45mm
; top infill extrusion width = 0.40mm
; first layer extrusion width = 0.42mm

M73 P0 R5
M73 Q0 S5
M201 X1000 Y1000 Z1000 E5000 ; sets maximum accelerations, mm/sec^2
M203 X200 Y200 Z12 E120 ; sets maximum feedrates, mm/sec
M204 P1250 R1250 T1250 ; sets acceleration (P, T) and retract acceleration (R), mm/sec^2
M205 X8.00 Y8.00 Z0.40 E1.50 ; sets the jerk limits, mm/sec
M205 S0 T0 ; sets the minimum extruding and travel feed rate, mm/sec
M107
M115 U3.6.0 ; tell printer latest fw version
M83  ; extruder relative mode
M104 S215 ; set extruder temp
M140 S60 ; set bed temp
M190 S60 ; wait for bed temp
M109 S215 ; wait for extruder temp
G28 W ; home all without mesh bed level
G80 ; mesh bed leveling
G1 Y-3.0 F1000.0 ; go outside print area
G92 E0.0
G1 X60.0 E9.0  F1000.0 ; intro line
M73 Q1 S5
M73 P1 R5
G1 X100.0 E12.5  F1000.0 ; intro line
G92 E0.0
M221 S95
M900 K30; Filament gcode
G21 ; set units to millimeters
G90 ; use absolute coordinates
M83 ; use relative distances for extrusion
;BEFORE_LAYER_CHANGE
G92 E0.0
;0.2


G1 E-0.80000 F2100.00000
G1 Z0.600 F10800.000
;AFTER_LAYER_CHANGE
;0.2
G1 X115.288 Y97.027
G1 Z0.200
G1 E0.80000 F2100.00000
M204 S1000
G1 F1200
G1 X116.115 Y96.114 E0.03863
G1 X117.029 Y95.286 E0.03865
G1 X118.018 Y94.552 E0.03863
G1 X119.075 Y93.919 E0.03862
G1 X120.191 Y93.391 E0.03871
G1 X121.351 Y92.976 E0.03862
G1 X122.548 Y92.676 E0.03870
G1 X123.769 Y92.495 E0.03872
G1 X125.005 Y92.434 E0.03879
G1 X126.232 Y92.495 E0.03851
G1 X127.452 Y92.676 E0.03868
G1 X128.646 Y92.975 E0.03859
G1 X129.808 Y93.390 E0.03869
G1 X130.922 Y93.917 E0.03862
G1 X131.981 Y94.551 E0.03870
G1 X132.973 Y95.288 E0.03875
G1 X133.886 Y96.115 E0.03863
G1 X134.714 Y97.029 E0.03865
G1 X135.448 Y98.018 E0.03863
G1 X136.081 Y99.075 E0.03862
G1 X136.609 Y100.191 E0.03871
G1 X137.024 Y101.351 E0.03862
G1 X137.324 Y102.548 E0.03870
G1 X137.505 Y103.769 E0.03872
G1 X137.566 Y105.001 E0.03867
G1 X137.505 Y106.232 E0.03863
G1 X137.324 Y107.452 E0.03868
G1 X137.025 Y108.646 E0.03859
G1 X136.610 Y109.808 E0.03869
G1 X136.083 Y110.922 E0.03862
G1 X135.449 Y111.981 E0.03870
G1 X134.712 Y112.973 E0.03875
G1 X133.885 Y113.886 E0.03863
G1 X132.971 Y114.714 E0.03865
G1 X131.982 Y115.448 E0.03863
G1 X130.925 Y116.081 E0.03862
G1 X129.809 Y116.609 E0.03871
G1 X128.649 Y117.024 E0.03862
G1 X127.452 Y117.324 E0.03870
G1 X126.231 Y117.505 E0.03872
G1 X124.999 Y117.566 E0.03867
G1 X123.768 Y117.505 E0.03863
G1 X122.548 Y117.324 E0.03868
G1 X121.354 Y117.025 E0.03859
G1 X120.192 Y116.610 E0.03869
G1 X119.078 Y116.083 E0.03862
G1 X118.019 Y115.449 E0.03870
G1 X117.030 Y114.715 E0.03863
G1 X116.114 Y113.885 E0.03875
G1 X115.286 Y112.971 E0.03865
G1 X114.552 Y111.982 E0.03863
G1 X113.919 Y110.925 E0.03862
G1 X113.391 Y109.809 E0.03871
G1 X112.976 Y108.649 E0.03862
G1 X112.676 Y107.452 E0.03870
G1 X112.495 Y106.231 E0.03872
G1 X112.434 Y104.999 E0.03867
G1 X112.495 Y103.768 E0.03863
G1 X112.676 Y102.548 E0.03868
G1 X112.975 Y101.354 E0.03859
G1 X113.390 Y100.192 E0.03869
G1 X113.919 Y99.075 E0.03875
G1 X114.551 Y98.019 E0.03858
G1 X115.252 Y97.075 E0.03687
G1 X115.555 Y97.300 F10800.000
G1 F1200
G1 X116.381 Y96.382 E0.03870
G1 X117.266 Y95.579 E0.03749
G1 X118.229 Y94.865 E0.03759
G1 X119.254 Y94.251 E0.03746
G1 X120.337 Y93.739 E0.03755
G1 X121.462 Y93.337 E0.03745
G1 X122.623 Y93.045 E0.03755
G1 X123.804 Y92.870 E0.03744
G1 X125.003 Y92.811 E0.03762
G1 X126.193 Y92.870 E0.03736
G1 X127.376 Y93.045 E0.03752
G1 X128.538 Y93.337 E0.03755
G1 X129.665 Y93.739 E0.03754
G1 X130.745 Y94.251 E0.03746
G1 X131.773 Y94.866 E0.03755
G1 X132.732 Y95.578 E0.03746
G1 X133.618 Y96.381 E0.03747
G1 X134.421 Y97.266 E0.03749
G1 X135.133 Y98.226 E0.03748
G1 X135.749 Y99.254 E0.03758
G1 X136.260 Y100.333 E0.03743
G1 X136.663 Y101.462 E0.03757
G1 X136.955 Y102.623 E0.03755
G1 X137.130 Y103.804 E0.03744
G1 X137.189 Y104.999 E0.03751
G1 X137.130 Y106.193 E0.03748
G1 X136.955 Y107.376 E0.03752
G1 X136.663 Y108.538 E0.03755
G1 X136.261 Y109.665 E0.03754
G1 X135.749 Y110.745 E0.03746
G1 X135.134 Y111.773 E0.03755
G1 X134.422 Y112.732 E0.03746
G1 X133.619 Y113.618 E0.03747
G1 X132.734 Y114.421 E0.03749
G1 X131.771 Y115.135 E0.03759
G1 X130.746 Y115.749 E0.03746
G1 X129.663 Y116.261 E0.03755
G1 X128.538 Y116.663 E0.03745
G1 X127.377 Y116.955 E0.03755
G1 X126.196 Y117.130 E0.03744
G1 X125.001 Y117.189 E0.03751
G1 X123.807 Y117.130 E0.03748
G1 X122.624 Y116.955 E0.03752
G1 X121.462 Y116.663 E0.03755
G1 X120.335 Y116.261 E0.03754
G1 X119.255 Y115.749 E0.03746
G1 X118.227 Y115.134 E0.03755
G1 X117.268 Y114.422 E0.03746
G1 X116.382 Y113.619 E0.03747
G1 X115.579 Y112.734 E0.03749
G1 X114.865 Y111.771 E0.03759
G1 X114.251 Y110.746 E0.03746
G1 X113.739 Y109.663 E0.03755
G1 X113.337 Y108.538 E0.03745
G1 X113.045 Y107.377 E0.03755
G1 X112.870 Y106.196 E0.03744
G1 X112.811 Y105.001 E0.03751
G1 X112.870 Y103.807 E0.03748
G1 X113.045 Y102.624 E0.03752
G1 X113.337 Y101.462 E0.03755
G1 X113.739 Y100.335 E0.03754
G1 X114.251 Y99.255 E0.03746
G1 X114.866 Y98.227 E0.03755
G1 X115.519 Y97.348 E0.03435
; PURGING FINISHED
G1 F8640
G1 X116.381 Y96.382 E-0.29879
G1 X117.266 Y95.579 E-0.27609
G1 X117.910 Y95.101 E-0.18511
G1 E-0.04000 F2100.00000
G1 Z0.800 F10800.000
G1 X123.404 Y98.500
G1 Z0.200
G1 E0.80000 F2100.00000
G1 F1200
G1 X123.506 Y97.853 E0.02054
G1 X123.803 Y97.268 E0.02058
G1 X124.271 Y96.800 E0.02075
G1 X124.880 Y96.501 E0.02126
G1 X125.500 Y96.403 E0.01969
G1 X126.148 Y96.506 E0.02056
G1 X126.732 Y96.803 E0.02056
G1 X127.197 Y97.268 E0.02061
G1 X127.494 Y97.852 E0.02056
G1 X127.597 Y98.500 E0.02056
G1 X127.494 Y99.148 E0.02056
G1 X127.197 Y99.732 E0.02056
G1 X126.732 Y100.197 E0.02061
G1 X126.148 Y100.494 E0.02056
G1 X125.500 Y100.597 E0.02056
G1 X124.852 Y100.494 E0.02056
G1 X124.268 Y100.197 E0.02056
G1 X123.803 Y99.732 E0.02061
G1 X123.506 Y99.147 E0.02058
G1 X123.413 Y98.559 E0.01866
G1 X123.786 Y98.501 F10800.000
G1 F1200
G1 X123.869 Y97.970 E0.01683
G1 X124.112 Y97.492 E0.01683
G1 X124.493 Y97.111 E0.01691
G1 X124.995 Y96.865 E0.01753
G1 X125.500 Y96.784 E0.01603
G1 X126.030 Y96.869 E0.01682
G1 X126.508 Y97.112 E0.01682
G1 X126.888 Y97.492 E0.01686
G1 X127.131 Y97.970 E0.01682
G1 X127.216 Y98.500 E0.01682
G1 X127.131 Y99.030 E0.01682
G1 X126.888 Y99.508 E0.01682
G1 X126.508 Y99.888 E0.01686
G1 X126.030 Y100.131 E0.01682
G1 X125.500 Y100.216 E0.01682
G1 X124.970 Y100.131 E0.01682
G1 X124.492 Y99.888 E0.01682
G1 X124.112 Y99.508 E0.01686
G1 X123.869 Y99.030 E0.01683
G1 X123.795 Y98.560 E0.01490
G1 X123.439 Y98.301 F10800.000
G1 F8640
G1 X123.869 Y97.970 E-0.13717
G1 X124.112 Y97.492 E-0.12392
G1 X124.493 Y97.111 E-0.12451
G1 X124.995 Y96.865 E-0.12906
G1 X125.500 Y96.784 E-0.11804
G1 X126.030 Y96.869 E-0.12386
G1 X126.043 Y96.876 E-0.00344
G1 E-0.04000 F2100.00000
G1 Z0.800 F10800.000
G1 X123.164 Y95.768
G1 Z0.200
G1 E0.80000 F2100.00000
G1 F1200
G1 X124.078 Y95.633 E0.02896
G1 X125.000 Y95.588 E0.02896
G1 X125.875 Y95.631 E0.02745
G1 X126.838 Y95.769 E0.03050
G1 X127.732 Y95.993 E0.02893
G1 X128.602 Y96.304 E0.02896
G1 X129.437 Y96.699 E0.02896
G1 X130.229 Y97.174 E0.02896
G1 X130.971 Y97.724 E0.02896
G1 X131.655 Y98.345 E0.02896
G1 X132.276 Y99.029 E0.02896
G1 X132.826 Y99.771 E0.02896
G1 X133.301 Y100.563 E0.02896
G1 X133.696 Y101.398 E0.02896
G1 X134.007 Y102.268 E0.02896
G1 X134.232 Y103.164 E0.02897
G1 X134.367 Y104.078 E0.02896
G1 X134.412 Y105.000 E0.02896
G1 X134.367 Y105.922 E0.02896
G1 X134.232 Y106.836 E0.02896
G1 X134.007 Y107.732 E0.02897
G1 X133.696 Y108.602 E0.02896
G1 X133.301 Y109.437 E0.02896
G1 X132.826 Y110.229 E0.02896
G1 X132.276 Y110.971 E0.02896
G1 X131.655 Y111.655 E0.02896
G1 X130.971 Y112.276 E0.02896
G1 X130.229 Y112.826 E0.02896
G1 X129.437 Y113.301 E0.02896
G1 X128.602 Y113.696 E0.02896
G1 X127.732 Y114.007 E0.02896
G1 X126.836 Y114.232 E0.02897
G1 X125.922 Y114.367 E0.02896
G1 X125.000 Y114.412 E0.02896
G1 X124.078 Y114.367 E0.02896
G1 X123.164 Y114.232 E0.02896
G1 X122.268 Y114.007 E0.02897
G1 X121.398 Y113.696 E0.02896
G1 X120.563 Y113.301 E0.02896
G1 X119.771 Y112.826 E0.02896
G1 X119.029 Y112.276 E0.02896
G1 X118.345 Y111.655 E0.02896
G1 X117.724 Y110.971 E0.02896
G1 X117.174 Y110.229 E0.02896
G1 X116.699 Y109.437 E0.02896
G1 X116.304 Y108.602 E0.02896
G1 X115.993 Y107.732 E0.02896
G1 X115.768 Y106.836 E0.02897
G1 X115.633 Y105.922 E0.02896
G1 X115.588 Y105.000 E0.02896
G1 X115.633 Y104.078 E0.02896
G1 X115.768 Y103.164 E0.02896
G1 X115.993 Y102.268 E0.02897
G1 X116.304 Y101.398 E0.02896
G1 X116.699 Y100.563 E0.02896
G1 X117.174 Y99.771 E0.02896
G1 X117.724 Y99.029 E0.02896
G1 X118.345 Y98.345 E0.02896
G1 X119.029 Y97.724 E0.02896
G1 X119.771 Y97.174 E0.02896
G1 X120.563 Y96.699 E0.02896
G1 X121.398 Y96.304 E0.02896
G1 X122.268 Y95.993 E0.02896
G1 X123.106 Y95.783 E0.02709
G1 X123.014 Y95.417 F10800.000
G1 F1200
G1 X124.041 Y95.257 E0.03258
G1 X125.000 Y95.210 E0.03012
G1 X125.911 Y95.255 E0.02859
G1 X126.910 Y95.398 E0.03167
G1 X127.842 Y95.632 E0.03011
G1 X128.747 Y95.955 E0.03012
G1 X129.615 Y96.366 E0.03012
G1 X130.439 Y96.860 E0.03012
G1 X131.211 Y97.432 E0.03012
G1 X131.922 Y98.078 E0.03012
G1 X132.568 Y98.789 E0.03012
G1 X133.140 Y99.561 E0.03012
G1 X133.634 Y100.385 E0.03012
G1 X134.045 Y101.253 E0.03012
G1 X134.368 Y102.158 E0.03012
G1 X134.602 Y103.090 E0.03013
G1 X134.743 Y104.041 E0.03013
G1 X134.790 Y105.000 E0.03012
G1 X134.743 Y105.959 E0.03012
G1 X134.602 Y106.910 E0.03013
G1 X134.368 Y107.842 E0.03013
G1 X134.045 Y108.747 E0.03012
G1 X133.634 Y109.615 E0.03012
G1 X133.140 Y110.439 E0.03012
G1 X132.568 Y111.211 E0.03012
G1 X131.922 Y111.922 E0.03012
G1 X131.211 Y112.568 E0.03012
G1 X130.439 Y113.140 E0.03012
G1 X129.615 Y113.634 E0.03012
G1 X128.747 Y114.045 E0.03012
G1 X127.842 Y114.368 E0.03012
G1 X126.910 Y114.602 E0.03013
G1 X125.959 Y114.743 E0.03013
G1 X125.000 Y114.790 E0.03012
G1 X124.041 Y114.743 E0.03012
G1 X123.090 Y114.602 E0.03013
G1 X122.158 Y114.368 E0.03013
G1 X121.253 Y114.045 E0.03012
G1 X120.385 Y113.634 E0.03012
G1 X119.561 Y113.140 E0.03012
G1 X118.789 Y112.568 E0.03012
G1 X118.078 Y111.922 E0.03012
G1 X117.432 Y111.211 E0.03012
G1 X116.860 Y110.439 E0.03012
G1 X116.366 Y109.615 E0.03012
G1 X115.955 Y108.747 E0.03012
G1 X115.632 Y107.842 E0.03012
G1 X115.398 Y106.910 E0.03013
G1 X115.257 Y105.959 E0.03013
G1 X115.210 Y105.000 E0.03012
G1 X115.257 Y104.041 E0.03012
G1 X115.398 Y103.090 E0.03013
G1 X115.632 Y102.158 E0.03013
G1 X115.955 Y101.253 E0.03012
G1 X116.366 Y100.385 E0.03012
G1 X116.860 Y99.561 E0.03012
G1 X117.432 Y98.789 E0.03012
G1 X118.078 Y98.078 E0.03012
G1 X118.789 Y97.432 E0.03012
G1 X119.561 Y96.860 E0.03012
G1 X120.385 Y96.366 E0.03012
G1 X121.253 Y95.955 E0.03012
G1 X122.158 Y95.632 E0.03012
G1 X122.956 Y95.432 E0.02578
G1 X123.279 Y95.717 F10800.000
G1 F8640
G1 X124.041 Y95.257 E-0.25375
G1 X125.000 Y95.210 E-0.22180
G1 X125.911 Y95.255 E-0.21053
G1 X126.228 Y95.300 E-0.07392
G1 E-0.04000 F2100.00000
G1 Z0.800 F10800.000
G1 X123.380 Y99.077
G1 Z0.200
G1 E0.80000 F2100.00000
G1 F1200
G1 X121.073 Y96.771 E0.10316
G1 X121.438 Y96.598 E0.01277
G1 X123.148 Y98.307 E0.07645
G1 X123.221 Y97.842 E0.01488
G1 X121.829 Y96.450 E0.06225
G1 X122.225 Y96.309 E0.01331
G1 X123.384 Y97.468 E0.05183
G1 X123.565 Y97.111 E0.01265
G1 X122.645 Y96.190 E0.04118
G1 X123.074 Y96.082 E0.01402
G1 X123.831 Y96.839 E0.03385
G1 X124.100 Y96.570 E0.01203
G1 X123.530 Y96.000 E0.02551
G1 X123.998 Y95.931 E0.01497
G1 X124.460 Y96.392 E0.02065
G1 X124.829 Y96.223 E0.01283
G1 X124.501 Y95.895 E0.01466
G1 X125.015 Y95.872 E0.01628
G1 X125.293 Y96.149 E0.01241
G1 X125.500 Y96.116 E0.00664
G1 X125.854 Y96.173 E0.01133
G1 X125.581 Y95.899 E0.01222
G1 X125.848 Y95.912 E0.00845
G1 X126.179 Y95.960 E0.01059
G1 X134.044 Y103.825 E0.35172
G1 X133.946 Y103.190 E0.02032
G1 X126.810 Y96.054 E0.31913
G1 X127.529 Y96.234 E0.02341
G1 X133.766 Y102.471 E0.27895
G1 X133.487 Y101.655 E0.02729
G1 X128.345 Y96.513 E0.22997
G1 X128.494 Y96.566 E0.00499
G1 X129.343 Y96.973 E0.02980
G1 X133.393 Y101.023 E0.18111
G1 F8640
G1 X131.066 Y98.695 E-0.76000
G1 E-0.04000 F2100.00000
G1 Z0.800 F10800.000
G1 X132.704 Y99.796
G1 Z0.200
G1 E0.80000 F2100.00000
G1 F1200
G1 X130.204 Y97.296 E0.11181
G1 F8640
G1 X132.531 Y99.623 E-0.76000
G1 E-0.04000 F2100.00000
G1 Z0.800 F10800.000
G1 X124.923 Y100.620
G1 Z0.200
G1 E0.80000 F2100.00000
G1 F1200
G1 X133.229 Y108.927 E0.37149
G1 X133.402 Y108.562 E0.01277
G1 X125.694 Y100.853 E0.34475
G1 X126.157 Y100.779 E0.01485
G1 X133.550 Y108.171 E0.33059
G1 X133.691 Y107.775 E0.01331
G1 X126.532 Y100.616 E0.32016
G1 X126.889 Y100.435 E0.01265
G1 X133.810 Y107.355 E0.30951
G1 X133.918 Y106.926 E0.01402
G1 X127.161 Y100.169 E0.30219
G1 X127.429 Y99.899 E0.01203
G1 X134.000 Y106.470 E0.29385
G1 X134.069 Y106.002 E0.01497
G1 X127.611 Y99.543 E0.28885
G1 X127.766 Y99.236 E0.01088
G1 X127.777 Y99.171 E0.00208
G1 X134.105 Y105.499 E0.28300
G1 X134.128 Y104.985 E0.01628
G1 X127.851 Y98.707 E0.28075
G1 X127.884 Y98.500 E0.00664
G1 X127.827 Y98.146 E0.01133
G1 X134.279 Y104.598 E0.28854
G1 F8640
G1 X131.952 Y102.271 E-0.76000
G1 E-0.04000 F2100.00000
G1 Z0.800 F10800.000
G1 X133.181 Y109.416
G1 Z0.200
G1 E0.80000 F2100.00000
G1 F1200
G1 X120.708 Y96.943 E0.55781
G1 X120.371 Y97.144 E0.01241
G1 X132.856 Y109.629 E0.55836
G1 X132.655 Y109.965 E0.01240
G1 X120.035 Y97.345 E0.56440
G1 X119.717 Y97.566 E0.01222
G1 X132.434 Y110.283 E0.56875
G1 X132.205 Y110.592 E0.01216
G1 X119.408 Y97.795 E0.57230
G1 X119.109 Y98.033 E0.01210
G1 X131.967 Y110.891 E0.57502
G1 X131.711 Y111.173 E0.01204
G1 X118.827 Y98.289 E0.57620
G1 X118.545 Y98.545 E0.01204
G1 X131.455 Y111.455 E0.57738
G1 X131.173 Y111.711 E0.01204
G1 X118.289 Y98.827 E0.57620
G1 X118.033 Y99.109 E0.01204
G1 X130.891 Y111.967 E0.57502
G1 X130.592 Y112.205 E0.01210
G1 X117.795 Y99.408 E0.57230
G1 X117.566 Y99.717 E0.01216
G1 X130.283 Y112.434 E0.56875
G1 X129.965 Y112.655 E0.01222
G1 X117.345 Y100.035 E0.56440
G1 X117.144 Y100.371 E0.01240
G1 X129.629 Y112.856 E0.55836
G1 X129.292 Y113.057 E0.01241
G1 X116.943 Y100.708 E0.55224
G1 X116.771 Y101.073 E0.01277
G1 X128.927 Y113.229 E0.54364
G1 X128.562 Y113.402 E0.01277
G1 X116.598 Y101.438 E0.53505
G1 X116.450 Y101.829 E0.01320
G1 X128.171 Y113.550 E0.52417
G1 X127.775 Y113.691 E0.01331
G1 X116.309 Y102.225 E0.51278
G1 X116.190 Y102.645 E0.01378
G1 X127.355 Y113.810 E0.49932
G1 X126.925 Y113.918 E0.01402
G1 X116.082 Y103.075 E0.48492
G1 X116.000 Y103.530 E0.01464
G1 X126.470 Y114.000 E0.46824
G1 X126.002 Y114.069 E0.01497
G1 X115.931 Y103.998 E0.45040
G1 X115.895 Y104.501 E0.01593
G1 X125.499 Y114.105 E0.42950
G1 X124.985 Y114.128 E0.01628
G1 X115.872 Y105.015 E0.40756
G1 X115.899 Y105.581 E0.01791
G1 X124.419 Y114.101 E0.38103
G1 X124.105 Y114.085 E0.00994
G1 X123.824 Y114.044 E0.00898
G1 X115.956 Y106.176 E0.35188
G1 X116.054 Y106.811 E0.02032
G1 X123.189 Y113.946 E0.31913
G1 X122.471 Y113.766 E0.02341
G1 X116.234 Y107.529 E0.27895
G1 X116.513 Y108.345 E0.02729
G1 X121.655 Y113.487 E0.22996
G1 X121.506 Y113.434 E0.00498
G1 X120.656 Y113.027 E0.02981
G1 X116.607 Y108.978 E0.18109
G1 F8640
G1 X118.934 Y111.305 E-0.76000
G1 E-0.04000 F2100.00000
G1 Z0.800 F10800.000
G1 X117.296 Y110.204
G1 Z0.200
G1 E0.80000 F2100.00000
G1 F1200
G1 X119.796 Y112.704 E0.11178
M106 S255
;BEFORE_LAYER_CHANGE
G92 E0.0
;0.35


G1 F8640
G1 X117.468 Y110.377 E-0.76000
G1 E-0.04000 F2100.00000
G1 Z0.800 F10800.000
;AFTER_LAYER_CHANGE
;0.35
G1 X118.019 Y115.449
G1 Z0.350
G1 E0.80000 F2100.00000
G1 F2692
G1 X117.030 Y114.715 E0.02979
G1 X116.114 Y113.885 E0.02989
G1 X115.286 Y112.971 E0.02981
G1 X114.552 Y111.982 E0.02980
G1 X113.919 Y110.925 E0.02979
G1 X113.391 Y109.809 E0.02986
G1 X112.976 Y108.649 E0.02979
G1 X112.676 Y107.452 E0.02985
G1 X112.495 Y106.231 E0.02986
G1 X112.434 Y104.999 E0.02983
G1 X112.495 Y103.768 E0.02980
G1 X112.676 Y102.548 E0.02984
G1 X112.975 Y101.354 E0.02977
