; generated by Slic3r Prusa Edition 1.41.1+win64 on 2019-04-16 at 14:14:33

; 

; external perimeters extrusion width = 0.45mm
; perimeters extrusion width = 0.45mm
; infill extrusion width = 0.45mm
; solid infill extrusion width = 0.45mm
; top infill extrusion width = 0.40mm
; first layer extrusion width = 0.42mm

M73 P0 R165
M73 Q0 S165
M201 X1000 Y1000 Z1000 E5000 ; sets maximum accelerations, mm/sec^2
M203 X200 Y200 Z12 E120 ; sets maximum feedrates, mm/sec
M204 P1250 R1250 T1250 ; sets acceleration (P, T) and retract acceleration (R), mm/sec^2
M205 X8.00 Y8.00 Z0.40 E1.50 ; sets the jerk limits, mm/sec
M205 S0 T0 ; sets the minimum extruding and travel feed rate, mm/sec
M107
M115 U3.6.0 ; tell printer latest fw version
M83  ; extruder relative mode
M104 S215 ; set extruder temp
M140 S60 ; set bed temp
M190 S60 ; wait for bed temp
M109 S215 ; wait for extruder temp
G28 W ; home all without mesh bed level
G80 ; mesh bed leveling
G1 Y-3.0 F1000.0 ; go outside print area
G92 E0.0
G1 X60.0 E9.0  F1000.0 ; intro line
M73 Q0 S165
M73 P0 R165
G1 X100.0 E12.5  F1000.0 ; intro line
G92 E0.0
M221 S95
M900 K30; Filament gcode
G21 ; set units to millimeters
G90 ; use absolute coordinates
M83 ; use relative distances for extrusion
;BEFORE_LAYER_CHANGE
G92 E0.0
;0.2


G1 E-0.80000 F2100.00000
G1 Z0.600 F10800.000
;AFTER_LAYER_CHANGE
;0.2
G1 X88.073 Y50.336
G1 Z0.200
G1 E0.80000 F2100.00000
M204 S1000
G1 F1200
G1 X88.632 Y48.901 E0.04827
G1 X89.059 Y48.223 E0.02511
G1 X89.562 Y47.613 E0.02479
G1 X90.167 Y47.049 E0.02593
G1 X90.807 Y46.593 E0.02464
G1 X92.231 Y45.941 E0.04911
G1 X93.058 Y45.744 E0.02666
G1 X93.821 Y45.665 E0.02407
G1 X155.968 Y45.661 E1.94856
G1 X157.138 Y45.780 E0.03686
G1 X158.226 Y46.103 E0.03560
G1 X159.286 Y46.651 E0.03740
G1 X160.225 Y47.397 E0.03760
G1 X161.036 Y48.358 E0.03944
G1 X161.591 Y49.356 E0.03582
G1 X161.953 Y50.439 E0.03579
G1 X162.111 Y51.609 E0.03701
G1 X162.113 Y158.204 E3.34221
G1 X161.928 Y159.660 E0.04604
G1 X161.366 Y161.103 E0.04853
G1 X160.942 Y161.776 E0.02496
G1 X160.441 Y162.384 E0.02470
G1 X159.837 Y162.947 E0.02588
G1 X159.206 Y163.399 E0.02434
G1 X158.524 Y163.768 E0.02432
G1 X157.767 Y164.060 E0.02544
G1 X156.938 Y164.257 E0.02670
G1 X156.141 Y164.337 E0.02514
G1 X94.010 Y164.338 E1.94805
G1 X92.558 Y164.151 E0.04592
G1 X91.121 Y163.590 E0.04836
G1 X90.448 Y163.166 E0.02494
G1 X89.841 Y162.665 E0.02469
G1 X89.277 Y162.062 E0.02590
G1 X88.822 Y161.425 E0.02453
G1 X88.454 Y160.744 E0.02427
G1 X88.162 Y159.984 E0.02553
G1 X87.966 Y159.151 E0.02683
G1 X87.887 Y158.336 E0.02567
G1 X87.887 Y51.796 E3.34048
G1 X88.065 Y50.395 E0.04428
; PURGING FINISHED
G1 F8640
G1 X88.632 Y48.901 E-0.36895
G1 X89.059 Y48.223 E-0.18494
G1 X89.562 Y47.613 E-0.18255
G1 X89.636 Y47.544 E-0.02356
G1 E-0.04000 F2100.00000
G1 Z0.800 F10800.000
G1 X123.971 Y143.167
G1 Z0.200
G1 E0.80000 F2100.00000
G1 F1200
G1 X126.029 Y143.167 E0.06454
G1 X127.760 Y144.280 E0.06450
G1 X128.615 Y146.151 E0.06451
G1 X128.322 Y148.188 E0.06453
G1 X126.974 Y149.743 E0.06452
G1 X125.000 Y150.324 E0.06452
G1 X123.026 Y149.743 E0.06452
G1 X121.678 Y148.188 E0.06452
G1 X121.385 Y146.151 E0.06453
G1 X122.240 Y144.280 E0.06451
G1 X123.920 Y143.200 E0.06261
G1 X124.082 Y143.545 F10800.000
G1 F1200
G1 X125.918 Y143.545 E0.05759
G1 X127.463 Y144.537 E0.05755
G1 X128.226 Y146.207 E0.05757
G1 X127.965 Y148.025 E0.05758
G1 X126.762 Y149.413 E0.05758
G1 X125.000 Y149.931 E0.05758
G1 X123.238 Y149.413 E0.05758
G1 X122.035 Y148.025 E0.05758
G1 X121.774 Y146.207 E0.05758
G1 X122.537 Y144.537 E0.05757
G1 X124.031 Y143.577 E0.05567
G1 X124.176 Y143.156 F10800.000
G1 F8640
G1 X125.918 Y143.545 E-0.43585
G1 X127.099 Y144.304 E-0.32415
G1 E-0.04000 F2100.00000
G1 Z0.800 F10800.000
G1 X126.038 Y136.790
G1 Z0.200
G1 E0.80000 F2100.00000
G1 F1200
G1 X126.038 Y119.263 E0.54954
G1 X142.112 Y119.263 E0.50399
G1 X142.112 Y136.790 E0.54954
G1 X126.098 Y136.790 E0.50211
G1 X126.415 Y136.413 F10800.000
G1 F1200
G1 X126.415 Y119.640 E0.52590
G1 X141.735 Y119.640 E0.48035
G1 X141.735 Y136.413 E0.52590
G1 X126.475 Y136.413 E0.47847
G1 X126.030 Y136.522 F10800.000
G1 F8640
G1 X126.463 Y133.121 E-0.76000
G1 E-0.04000 F2100.00000
G1 Z0.800 F10800.000
G1 X108.038 Y119.263
G1 Z0.200
G1 E0.80000 F2100.00000
G1 F1200
G1 X124.112 Y119.263 E0.50399
G1 X124.112 Y136.790 E0.54954
G1 X108.038 Y136.790 E0.50399
G1 X108.038 Y119.323 E0.54766
G1 X108.415 Y119.640 F10800.000
G1 F1200
G1 X123.735 Y119.640 E0.48035
G1 X123.735 Y136.413 E0.52590
G1 X108.415 Y136.413 E0.48035
G1 X108.415 Y119.700 E0.52402
G1 X108.317 Y119.252 F10800.000
G1 F8640
G1 X111.706 Y119.687 E-0.76000
G1 E-0.04000 F2100.00000
G1 Z0.800 F10800.000
G1 X108.038 Y94.513
G1 Z0.200
G1 E0.80000 F2100.00000
G1 F1200
G1 X124.112 Y94.513 E0.50399
G1 X124.112 Y112.040 E0.54954
G1 X108.038 Y112.040 E0.50399
G1 X108.038 Y94.573 E0.54766
G1 X108.415 Y94.890 F10800.000
G1 F1200
G1 X123.735 Y94.890 E0.48035
G1 X123.735 Y111.663 E0.52590
G1 X108.415 Y111.663 E0.48035
G1 X108.415 Y94.950 E0.52402
G1 X108.317 Y94.502 F10800.000
G1 F8640
G1 X111.706 Y94.937 E-0.76000
G1 E-0.04000 F2100.00000
G1 Z0.800 F10800.000
G1 X126.038 Y94.513
G1 Z0.200
G1 E0.80000 F2100.00000
G1 F1200
G1 X142.112 Y94.513 E0.50399
G1 X142.112 Y112.040 E0.54954
G1 X126.038 Y112.040 E0.50399
G1 X126.038 Y94.573 E0.54766
G1 X126.415 Y94.890 F10800.000
G1 F1200
G1 X141.735 Y94.890 E0.48035
G1 X141.735 Y111.663 E0.52590
G1 X126.415 Y111.663 E0.48035
G1 X126.415 Y94.950 E0.52402
G1 X126.317 Y94.502 F10800.000
G1 F8640
G1 X129.706 Y94.937 E-0.76000
G1 E-0.04000 F2100.00000
G1 Z0.800 F10800.000
G1 X126.038 Y69.863
G1 Z0.200
G1 E0.80000 F2100.00000
G1 F1200
G1 X142.112 Y69.863 E0.50399
G1 X142.112 Y87.390 E0.54954
G1 X126.038 Y87.390 E0.50399
G1 X126.038 Y69.923 E0.54766
G1 X126.415 Y70.240 F10800.000
G1 F1200
G1 X141.735 Y70.240 E0.48035
G1 X141.735 Y87.013 E0.52590
M73 Q0 S164
G1 X126.415 Y87.013 E0.48035
M73 P0 R164
G1 X126.415 Y70.300 E0.52402
G1 X126.317 Y69.852 F10800.000
G1 F8640
G1 X129.706 Y70.287 E-0.76000
G1 E-0.04000 F2100.00000
G1 Z0.800 F10800.000
G1 X125.000 Y66.980
G1 Z0.200
G1 E0.80000 F2100.00000
G1 F1200
G1 X123.026 Y66.401 E0.06451
G1 X121.678 Y64.846 E0.06453
G1 X121.385 Y62.809 E0.06453
G1 X122.240 Y60.938 E0.06451
G1 X123.971 Y59.825 E0.06451
G1 X126.029 Y59.824 E0.06454
G1 X127.760 Y60.938 E0.06452
G1 X128.615 Y62.809 E0.06451
G1 X128.322 Y64.846 E0.06453
G1 X126.974 Y66.401 E0.06453
G1 X125.058 Y66.964 E0.06263
G1 X125.000 Y66.588 F10800.000
G1 F1200
G1 X123.238 Y66.071 E0.05757
G1 X122.035 Y64.683 E0.05758
G1 X121.774 Y62.865 E0.05758
G1 X122.537 Y61.195 E0.05757
G1 X124.082 Y60.202 E0.05757
G1 X125.918 Y60.202 E0.05760
G1 X127.463 Y61.195 E0.05757
G1 X128.226 Y62.865 E0.05757
G1 X127.965 Y64.683 E0.05758
G1 X126.762 Y66.071 E0.05758
G1 X125.058 Y66.571 E0.05569
G1 X124.800 Y66.934 F10800.000
G1 F8640
G1 X123.238 Y66.071 E-0.43567
G1 X122.318 Y65.009 E-0.32433
G1 E-0.04000 F2100.00000
G1 Z0.800 F10800.000
G1 X124.112 Y69.863
G1 Z0.200
G1 E0.80000 F2100.00000
G1 F1200
G1 X124.112 Y87.390 E0.54954
G1 X108.038 Y87.390 E0.50399
G1 X108.038 Y69.863 E0.54954
G1 X124.052 Y69.863 E0.50211
G1 X123.735 Y70.240 F10800.000
G1 F1200
G1 X123.735 Y87.013 E0.52590
G1 X108.415 Y87.013 E0.48035
G1 X108.415 Y70.240 E0.52590
G1 X123.675 Y70.240 E0.47847
G1 X124.120 Y70.131 F10800.000
G1 F8640
G1 X123.687 Y73.531 E-0.76000
G1 E-0.04000 F2100.00000
G1 Z0.800 F10800.000
G1 X123.675 Y48.437
G1 Z0.200
G1 E0.80000 F2100.00000
G1 F1200
G1 X155.943 Y48.437 E1.01174
G1 X156.401 Y48.470 E0.01440
G1 X156.759 Y48.539 E0.01142
G1 X156.988 Y48.606 E0.00748
G1 X157.261 Y48.708 E0.00915
G1 X157.548 Y48.846 E0.00999
G1 X157.774 Y48.980 E0.00822
G1 X158.064 Y49.190 E0.01123
G1 X158.459 Y49.562 E0.01702
G1 X158.657 Y49.803 E0.00979
G1 X158.821 Y50.042 E0.00909
G1 X158.957 Y50.279 E0.00855
G1 X159.084 Y50.554 E0.00950
G1 X159.182 Y50.825 E0.00903
G1 X159.271 Y51.171 E0.01121
G1 X159.338 Y51.733 E0.01776
G1 X159.338 Y158.168 E3.33718
G1 X159.304 Y158.634 E0.01465
G1 X159.237 Y158.975 E0.01088
G1 X159.100 Y159.403 E0.01410
G1 X158.894 Y159.834 E0.01498
G1 X158.656 Y160.199 E0.01366
G1 X158.383 Y160.519 E0.01321
G1 X158.075 Y160.801 E0.01308
G1 X157.734 Y161.045 E0.01316
G1 X157.358 Y161.248 E0.01338
G1 X156.950 Y161.406 E0.01375
G1 X156.466 Y161.521 E0.01558
G1 X156.034 Y161.563 E0.01361
G1 X94.057 Y161.563 E1.94325
G1 X93.591 Y161.529 E0.01465
G1 X93.250 Y161.462 E0.01088
G1 X92.822 Y161.325 E0.01410
G1 X92.391 Y161.119 E0.01498
G1 X92.026 Y160.881 E0.01366
G1 X91.706 Y160.608 E0.01321
G1 X91.424 Y160.300 E0.01308
G1 X91.180 Y159.959 E0.01316
G1 X90.977 Y159.583 E0.01338
G1 X90.819 Y159.175 E0.01375
G1 X90.704 Y158.691 E0.01558
G1 X90.662 Y158.259 E0.01361
G1 X90.662 Y51.832 E3.33695
G1 X90.696 Y51.366 E0.01465
G1 X90.763 Y51.025 E0.01088
G1 X90.900 Y50.597 E0.01410
G1 X91.106 Y50.166 E0.01498
G1 X91.344 Y49.801 E0.01366
G1 X91.617 Y49.481 E0.01321
G1 X91.925 Y49.199 E0.01308
G1 X92.266 Y48.955 E0.01316
G1 X92.642 Y48.752 E0.01338
G1 X93.050 Y48.594 E0.01375
G1 X93.534 Y48.479 E0.01558
G1 X93.966 Y48.437 E0.01361
G1 X123.615 Y48.437 E0.92963
G1 X123.615 Y48.060 F10800.000
G1 F1200
G1 X155.957 Y48.060 E1.01405
G1 X156.451 Y48.096 E0.01553
G1 X156.847 Y48.172 E0.01265
G1 X157.409 Y48.361 E0.01861
G1 X157.726 Y48.513 E0.01101
G1 X157.981 Y48.664 E0.00928
G1 X158.298 Y48.894 E0.01229
G1 X158.740 Y49.310 E0.01901
G1 X158.959 Y49.576 E0.01083
G1 X159.141 Y49.842 E0.01009
G1 X159.292 Y50.106 E0.00955
G1 X159.433 Y50.411 E0.01052
G1 X159.542 Y50.713 E0.01009
G1 X159.641 Y51.095 E0.01235
G1 X159.694 Y51.436 E0.01083
G1 X159.715 Y51.720 E0.00892
G1 X159.715 Y158.182 E3.33804
G1 X159.678 Y158.684 E0.01580
G1 X159.603 Y159.069 E0.01228
G1 X159.451 Y159.542 E0.01560
G1 X159.224 Y160.019 E0.01656
G1 X158.959 Y160.425 E0.01520
G1 X158.655 Y160.781 E0.01468
G1 X158.313 Y161.095 E0.01453
G1 X157.934 Y161.365 E0.01463
G1 X157.517 Y161.591 E0.01486
G1 X157.062 Y161.767 E0.01530
G1 X156.528 Y161.893 E0.01718
G1 X156.053 Y161.940 E0.01498
G1 X94.043 Y161.940 E1.94426
G1 X93.541 Y161.903 E0.01580
G1 X93.156 Y161.828 E0.01228
G1 X92.683 Y161.676 E0.01560
G1 X92.206 Y161.449 E0.01656
G1 X91.800 Y161.184 E0.01520
G1 X91.444 Y160.880 E0.01468
G1 X91.130 Y160.538 E0.01453
G1 X90.860 Y160.159 E0.01463
G1 X90.634 Y159.742 E0.01486
G1 X90.458 Y159.287 E0.01530
G1 X90.332 Y158.753 E0.01718
G1 X90.285 Y158.278 E0.01498
G1 X90.285 Y51.818 E3.33796
G1 X90.322 Y51.316 E0.01580
G1 X90.397 Y50.931 E0.01228
G1 X90.549 Y50.458 E0.01560
G1 X90.776 Y49.981 E0.01656
G1 X91.041 Y49.575 E0.01520
G1 X91.345 Y49.219 E0.01468
G1 X91.687 Y48.905 E0.01453
G1 X92.066 Y48.635 E0.01463
G1 X92.483 Y48.409 E0.01486
G1 X92.938 Y48.233 E0.01530
G1 X93.472 Y48.107 E0.01718
G1 X93.947 Y48.060 E0.01499
G1 X123.555 Y48.060 E0.92833
G1 X123.815 Y48.406 F10800.000
G1 F8640
G1 X126.846 Y48.060 E-0.76000
G1 E-0.04000 F2100.00000
G1 Z0.800 F10800.000
G1 X125.925 Y70.367
G1 Z0.200
G1 E0.80000 F2100.00000
G1 F1200
G1 X104.278 Y48.720 E0.96251
G1 X103.743 Y48.720 E0.01681
G1 X125.755 Y70.732 E0.97874
G1 X125.755 Y71.267 E0.01681
G1 X103.208 Y48.720 E1.00252
G1 X102.673 Y48.720 E0.01681
G1 X123.534 Y69.580 E0.92751
G1 X122.999 Y69.580 E0.01681
G1 X102.139 Y48.720 E0.92751
G1 X101.604 Y48.720 E0.01681
G1 X122.464 Y69.580 E0.92751
G1 X121.929 Y69.580 E0.01681
G1 X101.069 Y48.720 E0.92751
G1 X100.534 Y48.720 E0.01681
G1 X121.395 Y69.580 E0.92751
M73 Q1 S163
M73 P1 R163
G1 X120.860 Y69.580 E0.01681
G1 X100.000 Y48.720 E0.92751
G1 X99.465 Y48.720 E0.01681
G1 X120.325 Y69.580 E0.92751
G1 X119.790 Y69.580 E0.01681
G1 X98.930 Y48.720 E0.92751
G1 X98.395 Y48.720 E0.01681
G1 X119.256 Y69.580 E0.92751
G1 X118.721 Y69.580 E0.01681
G1 X97.861 Y48.720 E0.92751
G1 X97.326 Y48.720 E0.01681
G1 X118.186 Y69.580 E0.92751
G1 X117.652 Y69.580 E0.01681
G1 X96.791 Y48.720 E0.92751
G1 X96.257 Y48.720 E0.01681
G1 X117.117 Y69.580 E0.92751
G1 X116.582 Y69.580 E0.01681
G1 X95.722 Y48.720 E0.92751
G1 X95.187 Y48.720 E0.01681
G1 X116.047 Y69.580 E0.92751
G1 X115.513 Y69.580 E0.01681
G1 X94.652 Y48.720 E0.92751
G1 X94.118 Y48.720 E0.01681
G1 X114.978 Y69.580 E0.92751
G1 X114.443 Y69.580 E0.01681
G1 X93.618 Y48.755 E0.92594
G1 X93.182 Y48.853 E0.01407
G1 X113.908 Y69.580 E0.92157
G1 X113.374 Y69.580 E0.01681
G1 X92.791 Y48.997 E0.91517
G1 X92.441 Y49.182 E0.01244
G1 X112.839 Y69.580 E0.90696
G1 X112.304 Y69.580 E0.01681
G1 X92.126 Y49.402 E0.89717
G1 X91.845 Y49.656 E0.01190
G1 X111.769 Y69.580 E0.88590
G1 X111.235 Y69.580 E0.01681
G1 X91.596 Y49.942 E0.87319
G1 X91.381 Y50.262 E0.01212
G1 X110.700 Y69.580 E0.85897
G1 X110.165 Y69.580 E0.01681
G1 X91.203 Y50.618 E0.84311
G1 X91.063 Y51.013 E0.01317
G1 X109.631 Y69.580 E0.82555
G1 X109.096 Y69.580 E0.01681
G1 X90.973 Y51.457 E0.80580
G1 X90.945 Y51.964 E0.01596
G1 X108.561 Y69.580 E0.78327
G1 X108.026 Y69.580 E0.01681
G1 X90.945 Y52.499 E0.75950
G1 X90.945 Y53.033 E0.01681
G1 X107.755 Y69.844 E0.74744
G1 X107.755 Y70.378 E0.01681
G1 X90.945 Y53.568 E0.74744
G1 X90.945 Y54.103 E0.01681
G1 X107.755 Y70.913 E0.74744
G1 X107.755 Y71.448 E0.01681
G1 X90.945 Y54.638 E0.74744
G1 X90.945 Y55.172 E0.01681
G1 X107.755 Y71.983 E0.74744
G1 X107.755 Y72.517 E0.01681
G1 X90.945 Y55.707 E0.74744
G1 X90.945 Y56.242 E0.01681
G1 X107.755 Y73.052 E0.74744
G1 X107.755 Y73.587 E0.01681
G1 X90.945 Y56.777 E0.74744
G1 X90.945 Y57.311 E0.01681
G1 X107.755 Y74.122 E0.74744
G1 X107.755 Y74.656 E0.01681
G1 X90.945 Y57.846 E0.74744
G1 X90.945 Y58.381 E0.01681
G1 X107.755 Y75.191 E0.74744
G1 X107.755 Y75.726 E0.01681
G1 X90.945 Y58.915 E0.74744
G1 X90.945 Y59.450 E0.01681
G1 X107.755 Y76.260 E0.74744
G1 X107.755 Y76.795 E0.01681
G1 X90.945 Y59.985 E0.74744
G1 X90.945 Y60.520 E0.01681
G1 X107.755 Y77.330 E0.74744
G1 X107.755 Y77.865 E0.01681
G1 X90.945 Y61.054 E0.74744
G1 X90.945 Y61.589 E0.01681
G1 X107.755 Y78.399 E0.74744
G1 X107.755 Y78.934 E0.01681
G1 X90.945 Y62.124 E0.74744
G1 X90.945 Y62.659 E0.01681
G1 X107.755 Y79.469 E0.74744
G1 X107.755 Y80.004 E0.01681
G1 X90.945 Y63.193 E0.74744
M73 Q1 S162
M73 P1 R162
G1 X90.945 Y63.728 E0.01681
G1 X107.755 Y80.538 E0.74744
G1 X107.755 Y81.073 E0.01681
G1 X90.945 Y64.263 E0.74744
G1 X90.945 Y64.798 E0.01681
G1 X107.755 Y81.608 E0.74744
G1 X107.755 Y82.143 E0.01681
G1 X90.945 Y65.332 E0.74744
G1 X90.945 Y65.867 E0.01681
G1 X107.755 Y82.677 E0.74744
G1 X107.755 Y83.212 E0.01681
G1 X90.945 Y66.402 E0.74744
G1 X90.945 Y66.936 E0.01681
G1 X107.755 Y83.747 E0.74744
G1 X107.755 Y84.281 E0.01681
G1 X90.945 Y67.471 E0.74744
G1 X90.945 Y68.006 E0.01681
G1 X107.755 Y84.816 E0.74744
G1 X107.755 Y85.351 E0.01681
G1 X90.945 Y68.541 E0.74744
G1 X90.945 Y69.075 E0.01681
G1 X107.755 Y85.886 E0.74744
G1 X107.755 Y86.420 E0.01681
G1 X90.945 Y69.610 E0.74744
G1 X90.945 Y70.145 E0.01681
G1 X107.925 Y87.125 E0.75498
G1 X108.303 Y87.503 F10800.000
G1 F1200
G1 X115.030 Y94.230 E0.29911
G1 X115.565 Y94.230 E0.01681
G1 X109.007 Y87.673 E0.29157
G1 X109.542 Y87.673 E0.01681
G1 X116.100 Y94.230 E0.29157
G1 X116.634 Y94.230 E0.01681
G1 X110.077 Y87.673 E0.29157
G1 X110.612 Y87.673 E0.01681
G1 X117.169 Y94.230 E0.29157
G1 X117.704 Y94.230 E0.01681
G1 X111.146 Y87.673 E0.29157
G1 X111.681 Y87.673 E0.01681
G1 X118.239 Y94.230 E0.29157
G1 X118.773 Y94.230 E0.01681
G1 X112.216 Y87.673 E0.29157
G1 X112.751 Y87.673 E0.01681
G1 X119.308 Y94.230 E0.29157
G1 X119.843 Y94.230 E0.01681
G1 X113.285 Y87.673 E0.29157
G1 X113.820 Y87.673 E0.01681
G1 X120.377 Y94.230 E0.29157
G1 X120.912 Y94.230 E0.01681
G1 X114.355 Y87.673 E0.29157
G1 X114.889 Y87.673 E0.01681
G1 X121.447 Y94.230 E0.29157
G1 X121.982 Y94.230 E0.01681
G1 X115.424 Y87.673 E0.29157
G1 X115.959 Y87.673 E0.01681
G1 X122.516 Y94.230 E0.29157
G1 X123.051 Y94.230 E0.01681
G1 X116.494 Y87.673 E0.29157
G1 X117.028 Y87.673 E0.01681
G1 X123.756 Y94.400 E0.29911
G1 F8640
G1 X121.428 Y92.072 E-0.76000
G1 E-0.04000 F2100.00000
G1 Z0.800 F10800.000
G1 X132.311 Y94.400
G1 Z0.200
G1 E0.80000 F2100.00000
G1 F1200
G1 X124.395 Y86.483 E0.35199
G1 X124.395 Y87.018 E0.01681
G1 X131.607 Y94.230 E0.32067
G1 X131.072 Y94.230 E0.01681
G1 X124.395 Y87.553 E0.29689
