; generated by Slic3r Prusa Edition 1.41.1+win64 on 2019-05-08 at 20:54:15

; 

; external perimeters extrusion width = 0.45mm
; perimeters extrusion width = 0.45mm
; infill extrusion width = 0.45mm
; solid infill extrusion width = 0.45mm
; top infill extrusion width = 0.40mm
; first layer extrusion width = 0.42mm

M73 P0 R170
M73 Q0 S173
M201 X1000 Y1000 Z1000 E5000 ; sets maximum accelerations, mm/sec^2
M203 X200 Y200 Z12 E120 ; sets maximum feedrates, mm/sec
M204 P1250 R1250 T1250 ; sets acceleration (P, T) and retract acceleration (R), mm/sec^2
M205 X8.00 Y8.00 Z0.40 E1.50 ; sets the jerk limits, mm/sec
M205 S0 T0 ; sets the minimum extruding and travel feed rate, mm/sec
M107
M115 U3.6.0 ; tell printer latest fw version
M83  ; extruder relative mode
M104 S215 ; set extruder temp
M140 S60 ; set bed temp
M190 S60 ; wait for bed temp
M109 S215 ; wait for extruder temp
G28 W ; home all without mesh bed level
G80 ; mesh bed leveling
G1 Y-3.0 F1000.0 ; go outside print area
G92 E0.0
G1 X60.0 E9.0  F1000.0 ; intro line
M73 Q0 S173
M73 P0 R170
G1 X100.0 E12.5  F1000.0 ; intro line
G92 E0.0
M221 S95
M900 K30; Filament gcode
G21 ; set units to millimeters
G90 ; use absolute coordinates
M83 ; use relative distances for extrusion
;BEFORE_LAYER_CHANGE
G92 E0.0
;0.2


G1 E-0.80000 F2100.00000
G1 Z0.600 F10800.000
;AFTER_LAYER_CHANGE
;0.2
G1 X91.825 Y50.364
G1 Z0.200
G1 E0.80000 F2100.00000
M204 S1000
G1 F1200
G1 X92.164 Y49.916 E0.01760
G1 X92.608 Y49.568 E0.01771
G1 X93.127 Y49.345 E0.01771
G1 X93.686 Y49.262 E0.01771
G1 X156.293 Y49.261 E1.96300
G1 X157.120 Y49.425 E0.02642
G1 X157.823 Y49.889 E0.02642
G1 X158.300 Y50.584 E0.02642
G1 X158.478 Y51.411 E0.02653
G1 X158.478 Y158.518 E3.35827
G1 X158.404 Y159.078 E0.01771
G1 X158.190 Y159.601 E0.01771
G1 X157.848 Y160.051 E0.01771
G1 X157.400 Y160.401 E0.01783
G1 X156.877 Y160.623 E0.01783
G1 X156.317 Y160.703 E0.01771
G1 X93.714 Y160.703 E1.96289
G1 X93.158 Y160.628 E0.01760
G1 X92.636 Y160.413 E0.01771
G1 X92.183 Y160.068 E0.01783
G1 X91.835 Y159.619 E0.01783
G1 X91.615 Y159.095 E0.01783
G1 X91.537 Y158.532 E0.01783
G1 X91.536 Y51.443 E3.35770
G1 X91.610 Y50.886 E0.01760
G1 X91.802 Y50.419 E0.01583
; PURGING FINISHED
G1 F8640
G1 X92.164 Y49.916 E-0.14304
G1 X92.608 Y49.568 E-0.13044
G1 X93.127 Y49.345 E-0.13044
G1 X93.686 Y49.262 E-0.13044
G1 X94.663 Y49.262 E-0.22563
G1 E-0.04000 F2100.00000
G1 Z0.800 F10800.000
G1 X123.523 Y143.355
G1 Z0.200
G1 E0.80000 F2100.00000
G1 F1200
G1 X124.245 Y143.120 E0.02380
G1 X125.000 Y143.041 E0.02380
G1 X125.755 Y143.120 E0.02380
G1 X126.477 Y143.355 E0.02380
G1 X127.134 Y143.734 E0.02380
G1 X127.698 Y144.242 E0.02380
G1 X128.144 Y144.856 E0.02380
G1 X128.453 Y145.549 E0.02379
G1 X128.610 Y146.292 E0.02380
G1 X128.610 Y147.051 E0.02379
G1 X128.453 Y147.793 E0.02380
G1 X128.144 Y148.486 E0.02379
G1 X127.698 Y149.100 E0.02380
G1 X127.134 Y149.608 E0.02380
G1 X126.476 Y149.988 E0.02380
G1 X125.755 Y150.222 E0.02379
G1 X125.000 Y150.302 E0.02380
G1 X124.245 Y150.222 E0.02380
G1 X123.523 Y149.988 E0.02380
G1 X122.866 Y149.608 E0.02380
G1 X122.302 Y149.100 E0.02380
G1 X121.856 Y148.486 E0.02380
G1 X121.547 Y147.793 E0.02379
G1 X121.390 Y147.051 E0.02380
G1 X121.390 Y146.292 E0.02379
G1 X121.547 Y145.549 E0.02380
G1 X121.856 Y144.856 E0.02379
G1 X122.302 Y144.242 E0.02380
G1 X122.866 Y143.734 E0.02380
G1 X123.471 Y143.385 E0.02191
G1 X123.660 Y143.711 F10800.000
G1 F1200
G1 X124.324 Y143.491 E0.02194
G1 X125.000 Y143.420 E0.02131
G1 X125.676 Y143.491 E0.02131
G1 X126.322 Y143.701 E0.02131
G1 X126.911 Y144.041 E0.02131
G1 X127.416 Y144.496 E0.02131
G1 X127.816 Y145.046 E0.02131
G1 X128.092 Y145.667 E0.02131
G1 X128.233 Y146.331 E0.02131
G1 X128.233 Y147.011 E0.02131
G1 X128.092 Y147.676 E0.02131
G1 X127.816 Y148.297 E0.02131
G1 X127.416 Y148.847 E0.02131
G1 X126.911 Y149.301 E0.02131
G1 X126.322 Y149.641 E0.02131
G1 X125.676 Y149.851 E0.02131
G1 X125.000 Y149.922 E0.02131
G1 X124.324 Y149.851 E0.02131
G1 X123.678 Y149.641 E0.02131
G1 X123.089 Y149.301 E0.02131
G1 X122.584 Y148.847 E0.02131
G1 X122.184 Y148.297 E0.02131
G1 X121.908 Y147.676 E0.02131
G1 X121.767 Y147.011 E0.02131
G1 X121.767 Y146.331 E0.02131
G1 X121.908 Y145.667 E0.02131
G1 X122.184 Y145.046 E0.02131
G1 X122.584 Y144.496 E0.02131
G1 X123.089 Y144.041 E0.02131
G1 X123.608 Y143.741 E0.01879
G1 X123.700 Y143.313 F10800.000
G1 F8640
G1 X124.324 Y143.491 E-0.17513
G1 X125.000 Y143.420 E-0.15694
G1 X125.676 Y143.491 E-0.15694
G1 X126.322 Y143.701 E-0.15694
G1 X126.750 Y143.948 E-0.11404
G1 E-0.04000 F2100.00000
G1 Z0.800 F10800.000
G1 X116.813 Y96.063
G1 Z0.200
G1 E0.80000 F2100.00000
G1 F1200
G1 X133.187 Y96.063 E0.51340
G1 X133.187 Y113.937 E0.56043
G1 X116.813 Y113.937 E0.51340
G1 X116.813 Y96.123 E0.55855
G1 X117.190 Y96.440 F10800.000
G1 F1200
G1 X132.810 Y96.440 E0.48975
G1 X132.810 Y113.560 E0.53679
G1 X117.190 Y113.560 E0.48975
G1 X117.190 Y96.500 E0.53490
G1 X117.092 Y96.052 F10800.000
G1 F8640
G1 X120.481 Y96.487 E-0.76000
G1 E-0.04000 F2100.00000
G1 Z0.800 F10800.000
G1 X124.245 Y66.880
G1 Z0.200
G1 E0.80000 F2100.00000
G1 F1200
G1 X123.523 Y66.645 E0.02380
G1 X122.866 Y66.266 E0.02380
G1 X122.302 Y65.758 E0.02380
G1 X121.856 Y65.144 E0.02380
G1 X121.547 Y64.451 E0.02379
G1 X121.390 Y63.708 E0.02380
G1 X121.390 Y62.949 E0.02379
G1 X121.547 Y62.207 E0.02380
G1 X121.856 Y61.514 E0.02379
G1 X122.302 Y60.900 E0.02380
G1 X122.866 Y60.392 E0.02380
G1 X123.523 Y60.012 E0.02380
G1 X124.245 Y59.778 E0.02379
G1 X125.000 Y59.698 E0.02380
G1 X125.755 Y59.778 E0.02380
G1 X126.477 Y60.012 E0.02380
G1 X127.134 Y60.392 E0.02380
G1 X127.698 Y60.900 E0.02380
G1 X128.144 Y61.514 E0.02380
G1 X128.453 Y62.207 E0.02379
G1 X128.610 Y62.949 E0.02380
G1 X128.610 Y63.708 E0.02379
G1 X128.453 Y64.451 E0.02380
G1 X128.144 Y65.144 E0.02379
G1 X127.698 Y65.758 E0.02380
G1 X127.134 Y66.266 E0.02380
G1 X126.477 Y66.645 E0.02380
G1 X125.755 Y66.880 E0.02380
G1 X125.000 Y66.959 E0.02380
G1 X124.305 Y66.886 E0.02192
G1 X124.344 Y66.511 F10800.000
G1 F1200
G1 X123.678 Y66.299 E0.02194
G1 X123.089 Y65.959 E0.02131
G1 X122.584 Y65.504 E0.02131
G1 X122.184 Y64.954 E0.02131
G1 X121.908 Y64.333 E0.02131
G1 X121.767 Y63.669 E0.02131
G1 X121.767 Y62.989 E0.02131
G1 X121.908 Y62.324 E0.02131
G1 X122.184 Y61.703 E0.02131
G1 X122.584 Y61.153 E0.02131
G1 X123.089 Y60.699 E0.02131
G1 X123.678 Y60.359 E0.02131
G1 X124.324 Y60.149 E0.02131
G1 X125.000 Y60.078 E0.02131
G1 X125.676 Y60.149 E0.02131
G1 X126.322 Y60.359 E0.02131
G1 X126.911 Y60.699 E0.02131
G1 X127.416 Y61.153 E0.02131
G1 X127.816 Y61.703 E0.02131
G1 X128.092 Y62.324 E0.02131
G1 X128.233 Y62.989 E0.02131
G1 X128.233 Y63.669 E0.02131
G1 X128.092 Y64.333 E0.02131
G1 X127.816 Y64.954 E0.02131
G1 X127.416 Y65.504 E0.02131
G1 X126.911 Y65.959 E0.02131
G1 X126.322 Y66.299 E0.02131
G1 X125.676 Y66.509 E0.02131
G1 X125.000 Y66.580 E0.02131
G1 X124.404 Y66.517 E0.01879
G1 X124.078 Y66.809 F10800.000
G1 F8640
G1 X123.678 Y66.299 E-0.17513
G1 X123.089 Y65.959 E-0.15694
G1 X122.584 Y65.504 E-0.15694
G1 X122.184 Y64.954 E-0.15694
G1 X121.984 Y64.503 E-0.11405
G1 E-0.04000 F2100.00000
G1 Z0.800 F10800.000
G1 X94.562 Y52.287
G1 Z0.200
G1 E0.80000 F2100.00000
G1 F1200
G1 X155.453 Y52.288 E1.90918
G1 X155.453 Y157.678 E3.30442
G1 X94.562 Y157.678 E1.90918
G1 X94.562 Y52.347 E3.30256
G1 X94.185 Y51.910 F10800.000
G1 F1200
G1 X155.830 Y51.911 E1.93283
G1 X155.830 Y158.055 E3.32806
M73 Q0 S172
M73 P0 R169
G1 X94.185 Y158.055 E1.93283
G1 X94.185 Y51.970 E3.32621
G1 X94.561 Y52.046 F10800.000
G1 F8640
G1 X97.476 Y51.967 E-0.76000
G1 E-0.04000 F2100.00000
G1 Z0.800 F10800.000
G1 X121.536 Y64.703
G1 Z0.200
G1 E0.80000 F2100.00000
G1 F1200
G1 X109.403 Y52.570 E0.53819
G1 X109.936 Y52.570 E0.01673
G1 X121.108 Y63.741 E0.49552
G1 X121.107 Y63.207 E0.01675
G1 X110.470 Y52.570 E0.47182
G1 X111.003 Y52.570 E0.01673
G1 X121.150 Y62.717 E0.45007
G1 X121.243 Y62.277 E0.01411
G1 X111.537 Y52.570 E0.43056
G1 X112.070 Y52.570 E0.01673
G1 X121.382 Y61.882 E0.41306
G1 X121.547 Y61.513 E0.01267
G1 X112.604 Y52.570 E0.39669
G1 X113.137 Y52.570 E0.01673
G1 X121.748 Y61.181 E0.38196
G1 X121.973 Y60.872 E0.01198
G1 X113.670 Y52.570 E0.36825
G1 X114.204 Y52.570 E0.01673
G1 X122.224 Y60.590 E0.35573
G1 X122.504 Y60.337 E0.01185
G1 X114.737 Y52.570 E0.34451
G1 X115.271 Y52.570 E0.01673
G1 X122.803 Y60.102 E0.33408
G1 X123.141 Y59.907 E0.01225
G1 X115.804 Y52.570 E0.32542
G1 X116.338 Y52.570 E0.01673
G1 X123.493 Y59.725 E0.31736
G1 X123.895 Y59.594 E0.01328
G1 X116.871 Y52.570 E0.31156
G1 X117.405 Y52.570 E0.01673
G1 X124.320 Y59.486 E0.30674
G1 X124.803 Y59.435 E0.01522
G1 X117.938 Y52.570 E0.30449
G1 X118.472 Y52.570 E0.01673
G1 X125.352 Y59.451 E0.30521
G1 X125.814 Y59.500 E0.01455
G1 X125.992 Y59.558 E0.00589
G1 X119.005 Y52.570 E0.30994
G1 X119.538 Y52.570 E0.01673
G1 X155.170 Y88.202 E1.58048
G1 X155.170 Y87.668 E0.01673
G1 X120.072 Y52.570 E1.55682
G1 X120.605 Y52.570 E0.01673
G1 X155.170 Y87.135 E1.53316
G1 X155.170 Y86.601 E0.01673
G1 X121.139 Y52.570 E1.50950
G1 X121.672 Y52.570 E0.01673
G1 X155.170 Y86.068 E1.48583
G1 X155.170 Y85.534 E0.01673
G1 X122.206 Y52.570 E1.46217
G1 X122.739 Y52.570 E0.01673
G1 X155.170 Y85.001 E1.43851
G1 X155.170 Y84.467 E0.01673
G1 X123.273 Y52.570 E1.41485
G1 X123.806 Y52.570 E0.01673
G1 X155.170 Y83.934 E1.39119
G1 X155.170 Y83.401 E0.01673
G1 X124.340 Y52.570 E1.36752
G1 X124.873 Y52.570 E0.01673
G1 X155.170 Y82.867 E1.34386
G1 X155.170 Y82.334 E0.01673
G1 X125.407 Y52.570 E1.32020
G1 X125.940 Y52.570 E0.01673
G1 X155.170 Y81.800 E1.29654
G1 X155.170 Y81.267 E0.01673
G1 X126.473 Y52.570 E1.27287
G1 X127.007 Y52.570 E0.01673
G1 X155.170 Y80.733 E1.24921
G1 X155.170 Y80.200 E0.01673
G1 X127.540 Y52.570 E1.22555
G1 X128.074 Y52.570 E0.01673
G1 X155.170 Y79.666 E1.20189
G1 X155.170 Y79.133 E0.01673
G1 X128.607 Y52.570 E1.17822
M73 Q1 S171
M73 P1 R168
G1 X129.141 Y52.570 E0.01673
G1 X155.170 Y78.600 E1.15456
G1 X155.170 Y78.066 E0.01673
G1 X129.674 Y52.570 E1.13090
G1 X130.208 Y52.570 E0.01673
G1 X155.170 Y77.533 E1.10724
G1 X155.170 Y76.999 E0.01673
G1 X130.741 Y52.570 E1.08358
G1 X131.275 Y52.570 E0.01673
G1 X155.170 Y76.466 E1.05991
G1 X155.170 Y75.932 E0.01673
G1 X131.808 Y52.570 E1.03625
G1 X132.341 Y52.570 E0.01673
G1 X155.170 Y75.399 E1.01259
G1 X155.170 Y74.865 E0.01673
G1 X132.875 Y52.570 E0.98893
G1 X133.408 Y52.570 E0.01673
G1 X155.170 Y74.332 E0.96526
G1 X155.170 Y73.798 E0.01673
G1 X133.942 Y52.570 E0.94160
G1 X134.475 Y52.570 E0.01673
G1 X155.170 Y73.265 E0.91794
G1 X155.170 Y72.732 E0.01673
G1 X135.009 Y52.570 E0.89428
G1 X135.542 Y52.570 E0.01673
G1 X155.170 Y72.198 E0.87061
G1 X155.170 Y71.665 E0.01673
G1 X136.076 Y52.570 E0.84695
G1 X136.609 Y52.570 E0.01673
G1 X155.170 Y71.131 E0.82329
G1 X155.170 Y70.598 E0.01673
G1 X137.143 Y52.570 E0.79963
G1 X137.676 Y52.570 E0.01673
G1 X155.170 Y70.064 E0.77596
G1 X155.170 Y69.531 E0.01673
G1 X138.209 Y52.570 E0.75230
G1 X138.743 Y52.571 E0.01673
G1 X155.170 Y68.997 E0.72864
G1 X155.170 Y68.464 E0.01673
G1 X139.276 Y52.571 E0.70498
G1 X139.810 Y52.571 E0.01673
G1 X155.170 Y67.931 E0.68132
G1 X155.170 Y67.397 E0.01673
G1 X140.343 Y52.571 E0.65765
G1 X140.877 Y52.571 E0.01673
G1 X155.170 Y66.864 E0.63399
G1 X155.170 Y66.330 E0.01673
G1 X141.410 Y52.571 E0.61033
G1 X141.944 Y52.571 E0.01673
G1 X155.170 Y65.797 E0.58667
G1 X155.170 Y65.263 E0.01673
G1 X142.477 Y52.571 E0.56300
G1 X143.011 Y52.571 E0.01673
G1 X155.170 Y64.730 E0.53934
G1 X155.170 Y64.196 E0.01673
G1 X143.544 Y52.571 E0.51568
G1 X144.078 Y52.571 E0.01673
G1 X155.170 Y63.663 E0.49202
G1 X155.170 Y63.129 E0.01673
G1 X144.611 Y52.571 E0.46835
G1 X145.144 Y52.571 E0.01673
G1 X155.170 Y62.596 E0.44469
G1 X155.170 Y62.063 E0.01673
G1 X145.678 Y52.571 E0.42103
G1 X146.211 Y52.571 E0.01673
G1 X155.170 Y61.529 E0.39737
G1 X155.170 Y60.996 E0.01673
G1 X146.745 Y52.571 E0.37371
G1 X147.278 Y52.571 E0.01673
G1 X155.170 Y60.462 E0.35004
G1 X155.170 Y59.929 E0.01673
G1 X147.812 Y52.571 E0.32638
G1 X148.345 Y52.571 E0.01673
G1 X155.170 Y59.395 E0.30272
G1 X155.170 Y58.862 E0.01673
G1 X148.879 Y52.571 E0.27906
G1 X149.412 Y52.571 E0.01673
G1 X155.170 Y58.328 E0.25539
G1 X155.170 Y57.795 E0.01673
G1 X149.946 Y52.571 E0.23173
G1 X150.479 Y52.571 E0.01673
G1 X155.170 Y57.262 E0.20807
G1 X155.170 Y56.728 E0.01673
G1 X151.012 Y52.571 E0.18441
G1 X151.546 Y52.571 E0.01673
G1 X155.170 Y56.195 E0.16074
G1 X155.170 Y55.661 E0.01673
G1 X152.079 Y52.571 E0.13708
G1 X152.613 Y52.571 E0.01673
G1 X155.170 Y55.128 E0.11342
G1 X155.170 Y54.594 E0.01673
G1 X153.146 Y52.571 E0.08976
G1 X153.680 Y52.571 E0.01673
G1 X155.170 Y54.061 E0.06610
G1 X155.170 Y53.527 E0.01673
G1 X154.213 Y52.571 E0.04243
G1 X154.747 Y52.571 E0.01673
G1 X155.340 Y53.164 E0.02630
G1 F8640
G1 X154.747 Y52.571 E-0.19360
G1 X154.213 Y52.571 E-0.12318
G1 X155.170 Y53.527 E-0.31238
G1 X155.170 Y54.061 E-0.12318
G1 X155.146 Y54.037 E-0.00767
G1 E-0.04000 F2100.00000
G1 Z0.800 F10800.000
G1 X123.632 Y66.799
G1 Z0.200
G1 E0.80000 F2100.00000
G1 F1200
G1 X155.170 Y98.337 E1.39890
G1 X155.170 Y97.804 E0.01673
G1 X124.564 Y67.198 E1.35758
G1 X125.000 Y67.243 E0.01376
G1 X125.129 Y67.230 E0.00408
G1 X155.170 Y97.270 E1.33249
G1 X155.170 Y96.737 E0.01673
G1 X125.612 Y67.179 E1.31108
G1 X125.814 Y67.158 E0.00636
G1 X126.048 Y67.082 E0.00773
G1 X155.170 Y96.203 E1.29173
G1 X155.170 Y95.670 E0.01673
G1 X126.451 Y66.951 E1.27388
M73 Q1 S170
M73 P1 R167
G1 X126.592 Y66.905 E0.00466
G1 X126.812 Y66.778 E0.00795
G1 X155.170 Y95.136 E1.25787
G1 X155.170 Y94.603 E0.01673
G1 X127.150 Y66.583 E1.24287
G1 X127.301 Y66.496 E0.00547
G1 X127.456 Y66.356 E0.00655
G1 X155.170 Y94.070 E1.22928
G1 X155.170 Y93.536 E0.01673
G1 X127.737 Y66.103 E1.21683
G1 X127.909 Y65.948 E0.00727
G1 X127.996 Y65.829 E0.00463
G1 X155.170 Y93.003 E1.20534
G1 X155.170 Y92.469 E0.01673
G1 X128.220 Y65.520 E1.19538
G1 X128.390 Y65.286 E0.00906
G1 X128.430 Y65.196 E0.00309
G1 X155.170 Y91.936 E1.18608
G1 X155.170 Y91.402 E0.01673
G1 X128.595 Y64.827 E1.17879
G1 X128.723 Y64.539 E0.00991
G1 X128.743 Y64.442 E0.00308
G1 X155.170 Y90.869 E1.17218
G1 X155.170 Y90.335 E0.01673
G1 X128.837 Y64.003 E1.16803
G1 X128.893 Y63.738 E0.00849
G1 X128.893 Y63.525 E0.00667
G1 X155.170 Y89.802 E1.16554
G1 X155.170 Y89.268 E0.01673
G1 X128.893 Y62.992 E1.16554
G1 X128.893 Y62.920 E0.00227
G1 X128.769 Y62.334 E0.01878
G1 X155.340 Y88.905 E1.17859
G1 F8640
G1 X153.012 Y86.577 E-0.76000
G1 E-0.04000 F2100.00000
G1 Z0.800 F10800.000
G1 X155.340 Y99.040
G1 Z0.200
G1 E0.80000 F2100.00000
G1 F1200
G1 X108.869 Y52.570 E2.06126
G1 X108.336 Y52.570 E0.01673
G1 X155.170 Y99.404 E2.07739
G1 X155.170 Y99.937 E0.01673
G1 X107.802 Y52.570 E2.10106
G1 X107.269 Y52.570 E0.01673
G1 X155.170 Y100.471 E2.12472
G1 X155.170 Y101.004 E0.01673
G1 X106.735 Y52.570 E2.14838
G1 X106.202 Y52.570 E0.01673
G1 X155.170 Y101.538 E2.17204
G1 X155.170 Y102.071 E0.01673
G1 X105.669 Y52.570 E2.19570
G1 X105.135 Y52.570 E0.01673
G1 X155.170 Y102.605 E2.21937
G1 X155.170 Y103.138 E0.01673
G1 X104.602 Y52.570 E2.24303
G1 X104.068 Y52.570 E0.01673
G1 X155.170 Y103.672 E2.26669
M73 Q2 S169
M73 P2 R166
G1 X155.170 Y104.205 E0.01673
G1 X103.535 Y52.570 E2.29035
G1 X103.001 Y52.570 E0.01673
G1 X155.170 Y104.739 E2.31402
G1 X155.170 Y105.272 E0.01673
G1 X102.468 Y52.570 E2.33768
G1 X101.934 Y52.570 E0.01673
G1 X155.170 Y105.805 E2.36134
G1 X155.170 Y106.339 E0.01673
G1 X101.401 Y52.570 E2.38500
G1 X100.867 Y52.570 E0.01673
G1 X155.170 Y106.872 E2.40867
G1 X155.170 Y107.406 E0.01673
G1 X100.334 Y52.570 E2.43233
G1 X99.801 Y52.570 E0.01673
G1 X155.170 Y107.939 E2.45599
G1 X155.170 Y108.473 E0.01673
G1 X99.267 Y52.570 E2.47965
G1 X98.734 Y52.570 E0.01673
G1 X155.170 Y109.006 E2.50331
G1 X155.170 Y109.540 E0.01673
G1 X98.200 Y52.570 E2.52698
G1 X97.667 Y52.570 E0.01673
G1 X155.170 Y110.073 E2.55064
G1 X155.170 Y110.606 E0.01673
G1 X97.133 Y52.570 E2.57430
G1 X96.600 Y52.570 E0.01673
G1 X155.170 Y111.140 E2.59796
G1 X155.170 Y111.673 E0.01673
G1 X96.066 Y52.570 E2.62163
G1 X95.533 Y52.570 E0.01673
G1 X155.170 Y112.207 E2.64529
M73 Q3 S167
M73 P3 R165
G1 X155.170 Y112.740 E0.01673
G1 X94.999 Y52.570 E2.66895
