; generated by Slic3r Prusa Edition 1.41.1+win64 on 2019-04-13 at 22:36:02

; 

; external perimeters extrusion width = 0.45mm
; perimeters extrusion width = 0.45mm
; infill extrusion width = 0.45mm
; solid infill extrusion width = 0.45mm
; top infill extrusion width = 0.40mm
; first layer extrusion width = 0.42mm

M73 P0 R95
M73 Q0 S94
M201 X1000 Y1000 Z1000 E5000 ; sets maximum accelerations, mm/sec^2
M203 X200 Y200 Z12 E120 ; sets maximum feedrates, mm/sec
M204 P1250 R1250 T1250 ; sets acceleration (P, T) and retract acceleration (R), mm/sec^2
M205 X8.00 Y8.00 Z0.40 E1.50 ; sets the jerk limits, mm/sec
M205 S0 T0 ; sets the minimum extruding and travel feed rate, mm/sec
M107
M115 U3.6.0 ; tell printer latest fw version
M83  ; extruder relative mode
M104 S215 ; set extruder temp
M140 S60 ; set bed temp
M190 S60 ; wait for bed temp
M109 S215 ; wait for extruder temp
G28 W ; home all without mesh bed level
G80 ; mesh bed leveling
G1 Y-3.0 F1000.0 ; go outside print area
G92 E0.0
G1 X60.0 E9.0  F1000.0 ; intro line
M73 Q0 S94
M73 P0 R95
G1 X100.0 E12.5  F1000.0 ; intro line
G92 E0.0
M221 S95
M900 K30; Filament gcode
G21 ; set units to millimeters
G90 ; use absolute coordinates
M83 ; use relative distances for extrusion
;BEFORE_LAYER_CHANGE
G92 E0.0
;0.2


G1 E-0.80000 F2100.00000
G1 Z0.600 F10800.000
;AFTER_LAYER_CHANGE
;0.2
G1 X94.628 Y58.600
G1 Z0.200
G1 E0.80000 F2100.00000
M204 S1000
G1 F1200
G1 X95.361 Y57.540 E0.04043
G1 X96.563 Y56.205 E0.05632
G1 X97.542 Y55.360 E0.04054
G1 X99.037 Y54.370 E0.05621
G1 X100.196 Y53.798 E0.04054
G1 X101.895 Y53.214 E0.05632
G1 X103.172 Y52.949 E0.04089
G1 X104.992 Y52.811 E0.05724
G1 X145.004 Y52.811 E1.25454
G1 X146.229 Y52.874 E0.03846
G1 X147.399 Y53.050 E0.03711
G1 X149.239 Y53.573 E0.05998
G1 X150.364 Y54.055 E0.03837
G1 X151.403 Y54.629 E0.03722
G1 X152.981 Y55.788 E0.06139
G1 X153.836 Y56.605 E0.03707
G1 X154.638 Y57.539 E0.03860
G1 X155.341 Y58.549 E0.03860
G1 X155.920 Y59.586 E0.03722
G1 X156.643 Y61.396 E0.06112
G1 X156.939 Y62.546 E0.03722
G1 X157.123 Y63.737 E0.03780
G1 X157.189 Y64.996 E0.03951
G1 X157.188 Y145.022 E2.50917
G1 X157.126 Y146.233 E0.03801
G1 X156.940 Y147.450 E0.03860
G1 X156.633 Y148.638 E0.03849
G1 X156.204 Y149.800 E0.03883
G1 X155.612 Y150.994 E0.04177
G1 X154.638 Y152.460 E0.05520
G1 X153.452 Y153.781 E0.05566
G1 X152.403 Y154.682 E0.04334
G1 X150.929 Y155.649 E0.05528
G1 X149.342 Y156.387 E0.05488
G1 X147.910 Y156.835 E0.04704
G1 X146.258 Y157.123 E0.05260
G1 X145.004 Y157.189 E0.03938
G1 X104.831 Y157.186 E1.25957
G1 X103.757 Y157.125 E0.03373
G1 X102.514 Y156.932 E0.03946
G1 X101.345 Y156.628 E0.03785
G1 X100.181 Y156.196 E0.03893
G1 X98.561 Y155.349 E0.05734
G1 X97.121 Y154.298 E0.05588
G1 X96.115 Y153.343 E0.04350
G1 X94.994 Y151.960 E0.05580
G1 X94.096 Y150.444 E0.05527
G1 X93.551 Y149.181 E0.04311
G1 X93.060 Y147.450 E0.05640
G1 X92.829 Y145.652 E0.05685
G1 X92.812 Y64.974 E2.52959
G1 X92.874 Y63.764 E0.03801
G1 X93.062 Y62.543 E0.03871
G1 X93.370 Y61.352 E0.03860
G1 X93.802 Y60.187 E0.03894
G1 X94.600 Y58.653 E0.05421
; PURGING FINISHED
G1 F8640
G1 X95.361 Y57.540 E-0.31147
G1 X96.563 Y56.205 E-0.41478
G1 X96.673 Y56.109 E-0.03375
G1 E-0.04000 F2100.00000
G1 Z0.800 F10800.000
G1 X96.213 Y76.348
G1 Z0.200
G1 E0.80000 F2100.00000
G1 F1200
G1 X97.074 Y76.348 E0.02699
G1 X97.217 Y76.307 E0.00468
G1 X113.013 Y76.305 E0.49526
G1 X113.013 Y70.013 E0.19729
G1 X136.987 Y70.013 E0.75169
G1 X136.987 Y76.305 E0.19729
G1 X152.783 Y76.307 E0.49526
G1 X152.926 Y76.348 E0.00468
G1 X153.787 Y76.348 E0.02699
G1 X153.787 Y79.653 E0.10362
G1 X152.926 Y79.653 E0.02699
G1 X152.783 Y79.694 E0.00468
G1 X149.687 Y79.695 E0.09707
G1 X149.687 Y127.613 E1.50243
G1 X149.637 Y128.736 E0.03524
G1 X149.484 Y129.860 E0.03556
G1 X149.305 Y130.686 E0.02650
G1 X149.067 Y131.516 E0.02706
G1 X148.782 Y132.305 E0.02631
G1 X148.557 Y132.834 E0.01805
G1 X148.175 Y133.605 E0.02696
G1 X147.752 Y134.335 E0.02645
G1 X147.203 Y135.141 E0.03058
G1 X146.789 Y135.671 E0.02110
G1 X146.334 Y136.193 E0.02170
G1 X145.681 Y136.851 E0.02907
G1 X145.194 Y137.286 E0.02046
G1 X144.524 Y137.814 E0.02675
G1 X143.807 Y138.306 E0.02728
G1 X143.073 Y138.739 E0.02671
G1 X142.555 Y139.006 E0.01826
G1 X141.760 Y139.359 E0.02730
G1 X140.678 Y139.741 E0.03596
G1 X139.563 Y140.024 E0.03607
G1 X138.427 Y140.205 E0.03606
G1 X137.287 Y140.281 E0.03584
G1 X112.987 Y140.287 E0.76190
G1 X111.851 Y140.236 E0.03566
G1 X110.714 Y140.080 E0.03598
G1 X109.876 Y139.895 E0.02690
G1 X109.043 Y139.654 E0.02717
G1 X108.494 Y139.460 E0.01828
G1 X107.709 Y139.130 E0.02671
G1 X106.933 Y138.742 E0.02718
G1 X106.429 Y138.452 E0.01826
G1 X105.715 Y137.987 E0.02672
G1 X105.021 Y137.463 E0.02726
G1 X104.413 Y136.940 E0.02513
G1 X103.819 Y136.354 E0.02618
G1 X103.318 Y135.798 E0.02346
G1 X102.803 Y135.148 E0.02601
G1 X102.300 Y134.416 E0.02782
G1 X101.955 Y133.843 E0.02098
G1 X101.567 Y133.098 E0.02634
G1 X101.219 Y132.308 E0.02706
G1 X100.934 Y131.519 E0.02631
G1 X100.768 Y130.965 E0.01814
G1 X100.516 Y129.863 E0.03545
G1 X100.363 Y128.736 E0.03566
G1 X100.313 Y127.613 E0.03524
G1 X100.313 Y79.695 E1.50243
G1 X97.217 Y79.694 E0.09707
G1 X97.074 Y79.653 E0.00468
G1 X96.213 Y79.653 E0.02699
G1 X96.213 Y76.408 E0.10174
G1 X96.590 Y76.725 F10800.000
G1 F1200
G1 X97.127 Y76.725 E0.01684
G1 X97.270 Y76.684 E0.00468
G1 X113.390 Y76.682 E0.50542
G1 X113.390 Y70.390 E0.19729
G1 X136.610 Y70.390 E0.72805
G1 X136.610 Y76.682 E0.19729
G1 X152.730 Y76.684 E0.50542
G1 X152.873 Y76.725 E0.00468
G1 X153.410 Y76.725 E0.01684
G1 X153.410 Y79.276 E0.07997
G1 X152.873 Y79.276 E0.01684
G1 X152.730 Y79.317 E0.00468
G1 X149.310 Y79.318 E0.10722
G1 X149.310 Y127.605 E1.51399
G1 X149.261 Y128.702 E0.03445
G1 X149.113 Y129.795 E0.03456
G1 X148.939 Y130.594 E0.02565
G1 X148.708 Y131.400 E0.02628
G1 X148.431 Y132.167 E0.02558
G1 X148.214 Y132.677 E0.01738
G1 X147.842 Y133.427 E0.02624
G1 X147.433 Y134.134 E0.02563
G1 X146.898 Y134.918 E0.02977
G1 X146.498 Y135.431 E0.02040
G1 X146.058 Y135.936 E0.02100
G1 X145.421 Y136.578 E0.02833
G1 X144.951 Y136.997 E0.01974
G1 X144.301 Y137.510 E0.02599
G1 X143.604 Y137.988 E0.02648
G1 X142.890 Y138.409 E0.02598
G1 X142.392 Y138.666 E0.01758
G1 X141.620 Y139.009 E0.02649
G1 X140.569 Y139.380 E0.03495
G1 X139.487 Y139.654 E0.03499
G1 X138.385 Y139.830 E0.03499
G1 X137.274 Y139.904 E0.03491
G1 X112.995 Y139.910 E0.76124
G1 X111.885 Y139.860 E0.03485
G1 X110.780 Y139.708 E0.03497
G1 X109.969 Y139.529 E0.02605
G1 X109.159 Y139.295 E0.02644
G1 X108.630 Y139.108 E0.01759
G1 X107.866 Y138.787 E0.02598
G1 X107.112 Y138.410 E0.02644
G1 X106.626 Y138.130 E0.01758
G1 X105.932 Y137.678 E0.02598
G1 X105.258 Y137.169 E0.02647
G1 X104.669 Y136.663 E0.02435
G1 X104.092 Y136.093 E0.02544
G1 X103.606 Y135.555 E0.02274
G1 X103.106 Y134.924 E0.02523
G1 X102.618 Y134.212 E0.02706
G1 X102.284 Y133.659 E0.02026
G1 X101.907 Y132.935 E0.02559
G1 X101.570 Y132.168 E0.02628
G1 X101.292 Y131.401 E0.02558
G1 X101.132 Y130.869 E0.01741
G1 X100.887 Y129.796 E0.03452
G1 X100.739 Y128.702 E0.03460
G1 X100.690 Y127.605 E0.03445
G1 X100.690 Y79.318 E1.51399
G1 X97.270 Y79.317 E0.10722
G1 X97.127 Y79.276 E0.00468
G1 X96.590 Y79.276 E0.01684
G1 X96.590 Y76.785 E0.07809
G1 X96.562 Y76.326 F10800.000
G1 F8640
G1 X97.127 Y76.725 E-0.12476
G1 X97.270 Y76.684 E-0.03446
G1 X99.872 Y76.684 E-0.60078
G1 E-0.04000 F2100.00000
G1 Z0.800 F10800.000
G1 X108.013 Y55.809
G1 Z0.200
G1 E0.80000 F2100.00000
G1 F1200
G1 X141.987 Y55.808 E1.06524
G1 X141.987 Y63.562 E0.24312
G1 X141.973 Y63.918 E0.01118
G1 X141.930 Y64.283 E0.01154
G1 X141.858 Y64.644 E0.01154
G1 X141.758 Y64.999 E0.01154
G1 X141.631 Y65.344 E0.01154
G1 X141.477 Y65.678 E0.01154
G1 X141.297 Y65.999 E0.01154
G1 X141.092 Y66.305 E0.01154
G1 X140.864 Y66.594 E0.01154
G1 X140.615 Y66.865 E0.01154
G1 X140.344 Y67.114 E0.01154
G1 X140.055 Y67.342 E0.01154
G1 X139.749 Y67.547 E0.01154
G1 X139.428 Y67.727 E0.01154
G1 X139.094 Y67.881 E0.01154
G1 X138.749 Y68.008 E0.01154
G1 X138.394 Y68.108 E0.01154
G1 X138.033 Y68.180 E0.01154
G1 X137.656 Y68.224 E0.01190
G1 X112.681 Y68.237 E0.78309
G1 X112.145 Y68.202 E0.01683
G1 X111.613 Y68.110 E0.01693
G1 X111.251 Y68.008 E0.01178
G1 X110.906 Y67.881 E0.01154
G1 X110.572 Y67.727 E0.01154
G1 X110.251 Y67.547 E0.01154
G1 X109.938 Y67.338 E0.01179
G1 X109.517 Y66.987 E0.01719
G1 X109.140 Y66.600 E0.01693
G1 X108.908 Y66.305 E0.01178
G1 X108.703 Y65.999 E0.01154
G1 X108.523 Y65.678 E0.01154
G1 X108.369 Y65.344 E0.01154
G1 X108.242 Y64.999 E0.01154
G1 X108.142 Y64.644 E0.01154
G1 X108.070 Y64.283 E0.01154
G1 X108.027 Y63.918 E0.01154
G1 X108.013 Y63.562 E0.01118
G1 X108.013 Y55.869 E0.24121
G1 X108.390 Y56.185 F10800.000
G1 F1200
G1 X141.610 Y56.185 E1.04159
G1 X141.610 Y63.554 E0.23106
G1 X141.597 Y63.888 E0.01048
G1 X141.557 Y64.224 E0.01061
G1 X141.491 Y64.556 E0.01061
G1 X141.399 Y64.882 E0.01061
G1 X141.282 Y65.199 E0.01061
G1 X141.140 Y65.507 E0.01061
G1 X140.975 Y65.802 E0.01061
G1 X140.787 Y66.083 E0.01061
G1 X140.577 Y66.349 E0.01061
G1 X140.348 Y66.598 E0.01061
G1 X140.099 Y66.827 E0.01061
G1 X139.833 Y67.037 E0.01061
G1 X139.552 Y67.225 E0.01061
G1 X139.257 Y67.390 E0.01061
G1 X138.949 Y67.532 E0.01061
G1 X138.632 Y67.649 E0.01061
G1 X138.306 Y67.741 E0.01061
G1 X137.974 Y67.807 E0.01061
G1 X137.634 Y67.847 E0.01074
G1 X112.693 Y67.860 E0.78201
G1 X112.190 Y67.827 E0.01582
G1 X111.696 Y67.742 E0.01570
G1 X111.368 Y67.649 E0.01070
G1 X111.051 Y67.532 E0.01061
G1 X110.743 Y67.390 E0.01061
G1 X110.448 Y67.225 E0.01061
G1 X110.164 Y67.035 E0.01070
G1 X109.773 Y66.710 E0.01594
G1 X109.424 Y66.351 E0.01570
G1 X109.213 Y66.083 E0.01070
G1 X109.025 Y65.802 E0.01061
G1 X108.860 Y65.507 E0.01061
G1 X108.718 Y65.199 E0.01061
G1 X108.601 Y64.882 E0.01061
G1 X108.509 Y64.556 E0.01061
G1 X108.443 Y64.224 E0.01061
G1 X108.403 Y63.888 E0.01061
G1 X108.390 Y63.554 E0.01048
G1 X108.390 Y56.245 E0.22917
G1 X108.390 Y55.785 F10800.000
G1 X108.390 Y55.688
G1 F1200
G1 X145.231 Y55.693 E1.15511
G1 X145.947 Y55.736 E0.02250
G1 X146.875 Y55.878 E0.02942
G1 X147.334 Y55.985 E0.01479
G1 X148.234 Y56.267 E0.02958
G1 X148.673 Y56.442 E0.01479
G1 X149.519 Y56.857 E0.02958
G1 X149.926 Y57.097 E0.01479
G1 X150.700 Y57.636 E0.02958
G1 X151.416 Y58.250 E0.02958
G1 X151.750 Y58.584 E0.01479
G1 X152.364 Y59.300 E0.02958
G1 X152.903 Y60.074 E0.02958
G1 X153.143 Y60.481 E0.01479
G1 X153.558 Y61.327 E0.02958
G1 X153.886 Y62.212 E0.02958
G1 X154.122 Y63.125 E0.02958
G1 X154.265 Y64.058 E0.02958
G1 X154.313 Y65.007 E0.02981
G1 X154.301 Y145.472 E2.52290
M73 Q1 S93
M73 P1 R94
G1 X154.205 Y146.410 E0.02958
G1 X154.122 Y146.875 E0.01479
G1 X154.015 Y147.334 E0.01479
G1 X153.733 Y148.234 E0.02958
G1 X153.361 Y149.101 E0.02958
G1 X152.903 Y149.926 E0.02958
G1 X152.644 Y150.320 E0.01479
G1 X152.367 Y150.696 E0.01464
G1 X151.909 Y151.239 E0.02226
G1 X151.412 Y151.753 E0.02242
G1 X150.700 Y152.364 E0.02942
G1 X150.320 Y152.644 E0.01479
G1 X149.519 Y153.143 E0.02958
G1 X149.106 Y153.359 E0.01464
G1 X148.456 Y153.644 E0.02226
G1 X147.783 Y153.887 E0.02242
G1 X146.875 Y154.122 E0.02942
G1 X145.942 Y154.265 E0.02958
G1 X144.993 Y154.313 E0.02981
G1 X105.007 Y154.313 E1.25371
G1 X104.058 Y154.265 E0.02981
G1 X103.125 Y154.122 E0.02958
G1 X102.212 Y153.886 E0.02958
G1 X101.766 Y153.733 E0.01479
G1 X100.899 Y153.361 E0.02958
G1 X100.481 Y153.143 E0.01479
G1 X99.684 Y152.646 E0.02942
G1 X99.119 Y152.216 E0.02226
G1 X98.580 Y151.746 E0.02242
G1 X97.934 Y151.066 E0.02942
G1 X97.636 Y150.700 E0.01479
G1 X97.097 Y149.926 E0.02958
G1 X96.639 Y149.101 E0.02958
G1 X96.442 Y148.673 E0.01479
G1 X96.114 Y147.788 E0.02958
G1 X95.879 Y146.879 E0.02942
G1 X95.765 Y146.179 E0.02226
G1 X95.699 Y145.467 E0.02242
G1 X95.687 Y144.993 E0.01487
G1 X95.687 Y65.007 E2.50788
G1 X95.699 Y64.528 E0.01503
G1 X95.795 Y63.590 E0.02958
G1 X95.985 Y62.666 E0.02958
G1 X96.114 Y62.212 E0.01479
G1 X96.442 Y61.327 E0.02958
G1 X96.857 Y60.481 E0.02958
G1 X97.356 Y59.680 E0.02958
G1 X97.934 Y58.934 E0.02958
G1 X98.584 Y58.250 E0.02958
G1 X99.300 Y57.636 E0.02958
G1 X100.074 Y57.097 E0.02958
G1 X100.899 Y56.639 E0.02958
G1 X101.761 Y56.269 E0.02942
G1 X102.437 Y56.050 E0.02226
G1 X103.130 Y55.877 E0.02242
G1 X103.590 Y55.795 E0.01464
G1 X104.528 Y55.699 E0.02958
G1 X105.007 Y55.687 E0.01503
G1 X108.330 Y55.688 E0.10418
G1 X108.330 Y55.311 F10800.000
G1 F1200
G1 X145.242 Y55.316 E1.15734
G1 X145.982 Y55.360 E0.02325
G1 X146.467 Y55.422 E0.01534
G1 X147.429 Y55.619 E0.03078
G1 X148.365 Y55.913 E0.03078
G1 X148.821 Y56.095 E0.01539
G1 X149.703 Y56.528 E0.03078
G1 X150.126 Y56.777 E0.01539
G1 X150.931 Y57.337 E0.03078
G1 X151.676 Y57.977 E0.03078
G1 X152.023 Y58.324 E0.01539
G1 X152.663 Y59.069 E0.03078
G1 X153.223 Y59.874 E0.03078
G1 X153.472 Y60.297 E0.01539
G1 X153.905 Y61.179 E0.03078
G1 X154.246 Y62.099 E0.03078
G1 X154.492 Y63.049 E0.03078
G1 X154.640 Y64.020 E0.03078
G1 X154.690 Y65.003 E0.03086
G1 X154.677 Y145.491 E2.52365
G1 X154.640 Y145.980 E0.01539
G1 X154.492 Y146.951 E0.03078
G1 X154.381 Y147.429 E0.01539
G1 X154.087 Y148.365 E0.03078
G1 X153.700 Y149.267 E0.03078
G1 X153.223 Y150.126 E0.03078
G1 X152.953 Y150.536 E0.01539
G1 X152.664 Y150.930 E0.01534
G1 X152.189 Y151.492 E0.02306
G1 X151.675 Y152.024 E0.02322
G1 X150.931 Y152.663 E0.03072
G1 X150.536 Y152.953 E0.01539
G1 X149.703 Y153.472 E0.03078
G1 X149.269 Y153.699 E0.01534
G1 X148.596 Y153.995 E0.02306
G1 X147.899 Y154.246 E0.02322
G1 X146.951 Y154.492 E0.03072
G1 X145.980 Y154.640 E0.03078
G1 X144.997 Y154.690 E0.03086
G1 X105.003 Y154.690 E1.25401
G1 X104.020 Y154.640 E0.03086
G1 X103.049 Y154.492 E0.03078
G1 X102.099 Y154.246 E0.03078
G1 X101.635 Y154.087 E0.01539
G1 X100.733 Y153.700 E0.03078
G1 X100.297 Y153.472 E0.01539
G1 X99.466 Y152.954 E0.03072
G1 X98.881 Y152.509 E0.02306
G1 X98.323 Y152.022 E0.02322
G1 X97.648 Y151.312 E0.03072
G1 X97.337 Y150.931 E0.01539
G1 X96.777 Y150.126 E0.03078
G1 X96.300 Y149.267 E0.03078
G1 X96.095 Y148.821 E0.01539
G1 X95.754 Y147.901 E0.03078
G1 X95.509 Y146.952 E0.03072
G1 X95.391 Y146.226 E0.02306
G1 X95.322 Y145.489 E0.02322
G1 X95.310 Y144.997 E0.01542
G1 X95.310 Y65.003 E2.50818
G1 X95.323 Y64.509 E0.01548
G1 X95.422 Y63.533 E0.03078
G1 X95.619 Y62.571 E0.03078
G1 X95.913 Y61.635 E0.03078
G1 X96.300 Y60.733 E0.03078
G1 X96.528 Y60.297 E0.01539
G1 X97.047 Y59.464 E0.03078
G1 X97.648 Y58.688 E0.03078
G1 X98.324 Y57.977 E0.03078
G1 X99.069 Y57.337 E0.03078
G1 X99.874 Y56.777 E0.03078
G1 X100.733 Y56.300 E0.03078
G1 X101.633 Y55.914 E0.03072
G1 X102.333 Y55.688 E0.02306
G1 X103.051 Y55.508 E0.02322
G1 X103.533 Y55.422 E0.01534
G1 X104.509 Y55.323 E0.03078
G1 X105.003 Y55.310 E0.01548
G1 X108.270 Y55.311 E0.10245
G1 X108.530 Y55.657 F10800.000
G1 F8640
G1 X111.562 Y55.311 E-0.76000
G1 E-0.04000 F2100.00000
G1 Z0.800 F10800.000
G1 X148.013 Y78.036
G1 Z0.200
G1 E0.80000 F2100.00000
G1 F1200
G1 X148.004 Y127.727 E1.55804
G1 X147.944 Y128.516 E0.02479
G1 X147.835 Y129.298 E0.02478
G1 X147.732 Y129.804 E0.01619
G1 X147.526 Y130.572 E0.02492
G1 X147.274 Y131.321 E0.02478
G1 X147.079 Y131.799 E0.01619
G1 X146.735 Y132.516 E0.02492
G1 X146.349 Y133.205 E0.02478
G1 X146.069 Y133.640 E0.01619
G1 X145.599 Y134.280 E0.02492
G1 X145.092 Y134.886 E0.02478
G1 X144.737 Y135.261 E0.01619
G1 X144.156 Y135.804 E0.02492
G1 X143.546 Y136.306 E0.02478
G1 X143.128 Y136.609 E0.01619
G1 X142.456 Y137.035 E0.02492
G1 X141.764 Y137.416 E0.02478
G1 X141.293 Y137.638 E0.01633
G1 X140.314 Y138.020 E0.03294
G1 X139.812 Y138.176 E0.01648
G1 X138.790 Y138.418 E0.03294
G1 X137.750 Y138.564 E0.03294
G1 X137.225 Y138.601 E0.01648
G1 X113.307 Y138.613 E0.74995
G1 X112.250 Y138.564 E0.03316
G1 X111.733 Y138.504 E0.01633
G1 X110.955 Y138.364 E0.02478
G1 X110.183 Y138.175 E0.02492
G1 X109.690 Y138.021 E0.01619
G1 X108.952 Y137.740 E0.02478
G1 X108.228 Y137.412 E0.02492
G1 X107.772 Y137.170 E0.01619
G1 X107.098 Y136.757 E0.02478
G1 X106.451 Y136.303 E0.02478
G1 X105.844 Y135.804 E0.02463
G1 X105.263 Y135.261 E0.02492
G1 X104.908 Y134.886 E0.01619
G1 X104.401 Y134.280 E0.02478
G1 X103.931 Y133.640 E0.02492
G1 X103.651 Y133.205 E0.01619
G1 X103.265 Y132.516 E0.02478
